Grain/Grain/Resources/Luts/Film Emulation/65MM_FILM_01.cube
LUT_3D_SIZE 33
0.0630198 0.0842451 0.0949111
0.0693523 0.0854353 0.0950484
0.0838941 0.0875105 0.0952773
0.0981918 0.0896315 0.0950942
0.111177 0.0924849 0.0949874
0.122454 0.0954147 0.0942702
0.138506 0.0982834 0.0935683
0.159136 0.101152 0.0925765
0.187869 0.102983 0.0905776
0.216022 0.105074 0.0878462
0.244236 0.107057 0.0844434
0.272679 0.108324 0.0793774
0.303975 0.107607 0.0720226
0.33753 0.105409 0.061387
0.374151 0.0998398 0.0414435
0.412924 0.0948043 0.0318608
0.451225 0.0889448 0.0271458
0.486915 0.082063 0.0261845
0.518364 0.068986 0.0268559
0.548775 0.0539101 0.0278782
0.578149 0.037232 0.0289921
0.605051 0.0319066 0.0294041
0.630091 0.029221 0.0299077
0.652384 0.027924 0.0301823
0.669612 0.0279088 0.0301671
0.685145 0.0281376 0.0304265
0.698634 0.0281682 0.0304723
0.710109 0.0283665 0.0306859
0.720165 0.0285954 0.0309453
0.729137 0.0285191 0.030869
0.736538 0.0286717 0.0310216
0.742733 0.028809 0.0311742
0.748272 0.0288853 0.0312505
0.0614023 0.0888685 0.0965591
0.0684672 0.0902266 0.0970474
0.083772 0.0922103 0.0970169
0.0989242 0.0948043 0.0969863
0.112276 0.0975967 0.0964981
0.124056 0.100847 0.0961318
0.140795 0.10425 0.0953994
0.162432 0.107073 0.0941634
0.19144 0.109117 0.0919203
0.22034 0.111116 0.089128
0.249088 0.113115 0.0856336
0.278462 0.114717 0.0803235
0.31014 0.114565 0.0725414
0.344228 0.113161 0.0612039
0.381308 0.109316 0.0403296
0.420783 0.105776 0.0311284
0.459236 0.10164 0.0265965
0.495323 0.0964828 0.0256199
0.526726 0.0892805 0.0260471
0.556725 0.0781872 0.0269474
0.585611 0.0596017 0.027924
0.612772 0.044831 0.0289921
0.637797 0.0341192 0.0297551
0.660182 0.0285496 0.0302739
0.677531 0.0281987 0.0304875
0.692576 0.0280308 0.0303349
0.706188 0.0283207 0.0306249
0.71754 0.0285191 0.0308385
0.72723 0.0285039 0.0308385
0.736339 0.0286717 0.0310216
0.743664 0.0288243 0.0311894
0.749783 0.0289616 0.0313268
0.755261 0.0290227 0.0314031
0.0521248 0.0982528 0.098558
0.0635691 0.0996567 0.0988632
0.0814069 0.101854 0.0987869
0.0981308 0.104616 0.0986496
0.112642 0.107591 0.0983749
0.124712 0.111116 0.0977493
0.142412 0.114626 0.0970474
0.164691 0.117769 0.0954147
0.194858 0.12018 0.0928206
0.224674 0.122606 0.0900435
0.254383 0.125048 0.0860151
0.284306 0.127245 0.080354
0.316686 0.12784 0.0718547
0.351141 0.127153 0.0595102
0.389273 0.124788 0.0386358
0.428992 0.122759 0.0296025
0.467948 0.120699 0.0257725
0.50425 0.117998 0.0243381
0.536095 0.114366 0.0249485
0.565957 0.108293 0.0255741
0.594446 0.0981613 0.0264286
0.620996 0.0863966 0.0271153
0.645838 0.0742351 0.0282597
0.667842 0.0614023 0.0289464
0.6851 0.0565805 0.0294347
0.700313 0.0531472 0.0298161
0.71368 0.0508278 0.0302281
0.724636 0.0488594 0.0303655
0.734371 0.047425 0.0306554
0.74313 0.0462501 0.0306706
0.750332 0.0463722 0.0307927
0.756374 0.0470741 0.0308995
0.761776 0.0481117 0.0309453
0.0409705 0.107912 0.101091
0.0544289 0.109575 0.101106
0.0771954 0.112062 0.101076
0.0972915 0.114748 0.100862
0.112642 0.118044 0.100328
0.125566 0.121767 0.0996719
0.143969 0.125566 0.0987411
0.167132 0.128985 0.0969558
0.198413 0.131807 0.0943465
0.229252 0.134768 0.0907301
0.259907 0.137682 0.0867018
0.290715 0.140352 0.0805829
0.323781 0.141634 0.0714427
0.358907 0.141848 0.0584268
0.397452 0.140581 0.0370336
0.437751 0.140124 0.0282292
0.477211 0.139849 0.0246433
0.513893 0.139208 0.0234073
0.545815 0.137713 0.0238346
0.575723 0.135103 0.0241093
0.604257 0.130892 0.0248569
0.630396 0.123461 0.0255894
0.654505 0.113481 0.026276
0.676555 0.100557 0.0271
0.693294 0.0944533 0.0276188
0.708431 0.0894484 0.0281071
0.721477 0.0855268 0.0284581
0.73225 0.0822309 0.0288853
0.741726 0.079942 0.0290074
0.750546 0.0784924 0.0292668
0.757687 0.0788281 0.0294194
0.763653 0.0800641 0.0294957
0.768994 0.0818799 0.0294804
0.0275425 0.117571 0.103563
0.0407874 0.119478 0.103532
0.071107 0.122026 0.103349
0.0961166 0.124956 0.103044
0.112551 0.128466 0.102388
0.126787 0.132555 0.101686
0.145693 0.13666 0.100542
0.169772 0.140291 0.0991226
0.202014 0.143435 0.0958724
0.234012 0.146777 0.0919661
0.265492 0.150286 0.0872511
0.297276 0.153292 0.0808423
0.33109 0.1552 0.0710002
0.366903 0.156298 0.0574044
0.406241 0.156527 0.0360113
0.447059 0.157336 0.0271305
0.487037 0.158389 0.0235447
0.524147 0.159075 0.0223239
0.556237 0.158602 0.0225376
0.586496 0.157519 0.0231174
0.614786 0.155062 0.0235142
0.640986 0.151827 0.0239719
0.664897 0.147967 0.0243839
0.686351 0.144152 0.0248569
0.703105 0.140627 0.025391
0.717678 0.136812 0.0257267
0.73051 0.132631 0.0262455
0.740917 0.129396 0.0264439
0.750439 0.127275 0.0267491
0.759045 0.126223 0.0269932
0.766064 0.126894 0.0271
0.771695 0.128328 0.0268864
0.776791 0.130694 0.0268711
0.0242161 0.127169 0.107134
0.032639 0.128985 0.106752
0.0652171 0.131579 0.106477
0.0928054 0.134722 0.10576
0.111788 0.13843 0.104967
0.12752 0.142901 0.104173
0.147921 0.147295 0.103029
0.172824 0.151369 0.100908
0.206287 0.154864 0.0977188
0.239139 0.158694 0.09337
0.271809 0.162463 0.0883803
0.304311 0.165911 0.0815595
0.338979 0.168429 0.0707866
0.375677 0.170245 0.0566415
0.415747 0.171435 0.0351415
0.457069 0.173449 0.0264439
0.49752 0.175341 0.0226596
0.535073 0.176776 0.0213779
0.567514 0.177203 0.021561
0.598001 0.177096 0.0220798
0.626566 0.175692 0.0223697
0.65272 0.173373 0.0229038
0.676585 0.170748 0.0231937
0.698192 0.168032 0.023743
0.714778 0.165621 0.0240787
0.729137 0.163195 0.0242008
0.742016 0.160693 0.024567
0.752316 0.158587 0.0249332
0.7617 0.157443 0.0251774
0.770199 0.157168 0.0253605
0.776898 0.158129 0.0252079
0.782635 0.159991 0.0251926
0.787823 0.162371 0.0251011
0.0212406 0.139437 0.110277
0.0254063 0.141299 0.109697
0.0556954 0.14406 0.108873
0.0850385 0.147341 0.108232
0.109865 0.151431 0.107301
0.12665 0.156146 0.106279
0.148272 0.160891 0.10457
0.175341 0.165454 0.102464
0.209934 0.169635 0.098497
0.244007 0.173831 0.0941329
0.277699 0.178027 0.0884108
0.311086 0.18175 0.0805219
0.346685 0.184878 0.0682383
0.3841 0.18761 0.0523384
0.424964 0.190051 0.0321508
0.467185 0.193042 0.0242771
0.508385 0.195682 0.0211337
0.546548 0.198047 0.0203403
0.579324 0.19942 0.0204623
0.609827 0.200031 0.0206607
0.638392 0.19968 0.0209812
0.664683 0.198337 0.0215
0.68864 0.196628 0.0218509
0.710063 0.19498 0.0220798
0.726711 0.193713 0.0224765
0.741054 0.192157 0.0225834
0.753841 0.190784 0.0228733
0.764019 0.189639 0.0231632
0.773281 0.189227 0.0233616
0.781643 0.189471 0.0234531
0.788251 0.190677 0.0232853
0.793973 0.19263 0.0232547
0.798993 0.194934 0.0231327
0.0187533 0.15433 0.113039
0.0190738 0.156527 0.112627
0.0430457 0.159426 0.111192
0.0724498 0.163119 0.109911
0.106142 0.167544 0.109026
0.124041 0.172625 0.107698
0.147433 0.177813 0.105882
0.176684 0.182925 0.10341
0.212863 0.18732 0.0989395
0.248341 0.192081 0.0935836
0.283436 0.196796 0.0869459
0.317662 0.20119 0.077348
0.354406 0.20499 0.0625467
0.392584 0.208667 0.0448157
0.434699 0.212467 0.0270542
0.477409 0.21619 0.020737
0.519265 0.219974 0.0192111
0.557931 0.223133 0.0190585
0.591058 0.225437 0.019089
0.62179 0.226963 0.0191958
0.650568 0.227466 0.019501
0.676814 0.226703 0.0196689
0.700633 0.225879 0.0198978
0.722454 0.225208 0.020264
0.738933 0.224781 0.0206302
0.753414 0.223865 0.0206149
0.765942 0.223117 0.0209049
0.776104 0.22269 0.0211032
0.784939 0.222599 0.0210269
0.793225 0.223178 0.0211032
0.799954 0.224628 0.0211185
0.805646 0.226398 0.0209506
0.810346 0.228473 0.0207523
0.0176852 0.174548 0.115221
0.0175174 0.177096 0.114488
0.0304723 0.180423 0.112978
0.0547646 0.18439 0.111086
0.0917067 0.188907 0.109285
0.11606 0.19472 0.107332
0.143816 0.200458 0.105089
0.17528 0.206119 0.101946
0.213825 0.211185 0.0964828
0.251316 0.216693 0.0901045
0.288014 0.221897 0.0814527
0.324132 0.227176 0.0660105
0.362142 0.232319 0.0475624
0.401663 0.23711 0.0302892
0.444511 0.2421 0.0219425
0.487892 0.246769 0.0182803
0.530373 0.251362 0.0173342
0.56936 0.255222 0.0170443
0.602884 0.258274 0.0170443
0.634058 0.260395 0.0172732
0.662898 0.261494 0.0173648
0.689372 0.261601 0.0175631
0.71339 0.261616 0.0178683
0.735042 0.261311 0.0178988
0.751598 0.26128 0.0181735
0.766033 0.260914 0.018265
0.778332 0.26041 0.0182498
0.788418 0.260243 0.0183261
0.797391 0.260594 0.0185092
0.805493 0.261112 0.0184176
0.812146 0.262745 0.0183871
0.817853 0.264775 0.018265
0.822354 0.266957 0.0179294
0.0166171 0.195209 0.116869
0.0164187 0.19794 0.115969
0.0209964 0.201648 0.114
0.0385138 0.205844 0.111757
0.070634 0.211078 0.109316
0.103761 0.217212 0.106752
0.137942 0.223529 0.103807
0.17319 0.22974 0.0997177
0.214328 0.235569 0.0935073
0.254078 0.241535 0.0841688
0.292821 0.247684 0.0720531
0.330861 0.254032 0.0503853
0.370367 0.260121 0.0335546
0.411231 0.266499 0.0213321
0.454627 0.272175 0.0176852
0.498756 0.277592 0.0157473
0.54197 0.282841 0.0155032
0.581537 0.287327 0.0151675
0.615244 0.290944 0.0151369
0.646708 0.293584 0.0152895
0.675746 0.295232 0.0152743
0.702251 0.295811 0.0152743
0.726238 0.296223 0.0153353
0.748211 0.296605 0.0155337
0.764477 0.296712 0.0155032
0.779049 0.296757 0.0156558
0.79144 0.296452 0.015671
0.80119 0.296361 0.0156863
0.810224 0.296818 0.0157321
0.818372 0.297734 0.0157321
0.824765 0.299321 0.0154269
0.830518 0.301457 0.0154726
0.835187 0.303914 0.0152132
0.0155947 0.215839 0.118517
0.0153506 0.219348 0.117479
0.0151827 0.223102 0.114839
0.0243687 0.22797 0.11223
0.0455634 0.233341 0.109041
0.0885023 0.240284 0.105959
0.1299 0.246998 0.101961
0.170291 0.253895 0.0969253
0.21445 0.260349 0.0893873
0.256535 0.266957 0.0765393
0.297612 0.27393 0.0593576
0.337499 0.28127 0.0336461
0.378668 0.288762 0.0216068
0.420844 0.296117 0.0169833
0.465049 0.302556 0.0142367
0.509987 0.308492 0.0137942
0.553368 0.314199 0.0134279
0.59379 0.319371 0.0133364
0.627863 0.323232 0.0132143
0.659388 0.326177 0.0130007
0.68864 0.328252 0.0129091
0.71548 0.329427 0.0129549
0.739681 0.330327 0.0130007
0.761425 0.330846 0.0130007
0.778164 0.331289 0.0130922
0.792508 0.331426 0.0130617
0.805051 0.331411 0.0131228
0.814832 0.331502 0.0132143
0.82356 0.331823 0.0129854
0.831662 0.332845 0.0129549
0.838193 0.334783 0.0127871
0.843427 0.336965 0.0124361
0.848447 0.339559 0.0124056
0.0145113 0.236957 0.120043
0.0143587 0.24094 0.118853
0.0141299 0.245258 0.115816
0.0159457 0.25069 0.112383
0.0207675 0.256489 0.108644
0.0698558 0.263783 0.104067
0.118196 0.271061 0.0988327
0.165331 0.278431 0.0925612
0.213642 0.285664 0.0825818
0.258991 0.29305 0.0650339
0.302373 0.300832 0.043534
0.344396 0.309621 0.0256962
0.387106 0.318257 0.0175479
0.430564 0.326345 0.0140993
0.475547 0.333394 0.0125429
0.52108 0.339971 0.0121157
0.565209 0.346136 0.0117189
0.606043 0.351736 0.0113985
0.640467 0.355825 0.0111391
0.672374 0.359274 0.0109102
0.701946 0.361639 0.0107576
0.728847 0.363043 0.0107271
0.753307 0.364157 0.0105287
0.775082 0.364981 0.0103304
0.791897 0.365759 0.0103609
0.80618 0.365972 0.0101472
0.818509 0.36611 0.0102083
0.828428 0.366217 0.0102235
0.837278 0.366781 0.010132
0.845167 0.367727 0.00987259
0.851896 0.36968 0.00991836
0.857053 0.371878 0.00949111
0.861845 0.374533 0.00924697
0.0133669 0.259648 0.119814
0.0133364 0.263996 0.118654
0.0129091 0.268956 0.115236
0.0128481 0.274815 0.111391
0.0125429 0.281163 0.106722
0.0393225 0.289067 0.100801
0.0890822 0.297047 0.0934615
0.15848 0.304738 0.0845197
0.210803 0.312551 0.0686656
0.259876 0.321202 0.0492409
0.306218 0.330465 0.0291295
0.350713 0.340444 0.0190127
0.39469 0.34966 0.0137942
0.4392 0.358572 0.0115053
0.484993 0.366155 0.0107118
0.531533 0.373449 0.0103304
0.57644 0.380087 0.00981155
0.617731 0.385916 0.0093843
0.652522 0.39057 0.00892653
0.68481 0.394156 0.00857557
0.714641 0.396887 0.00827039
0.741634 0.398627 0.00798047
0.766445 0.399924 0.00787366
0.788617 0.401221 0.00779736
0.80531 0.401968 0.0075227
0.81973 0.402396 0.00735485
0.831968 0.402487 0.00727855
0.841886 0.40267 0.00726329
0.850782 0.403372 0.007187
0.858625 0.404318 0.0068513
0.865309 0.406332 0.00683604
0.870542 0.408576 0.00650034
0.875135 0.411276 0.00627146
0.0123445 0.283589 0.11899
0.0120851 0.288106 0.11722
0.0119326 0.293873 0.113832
0.0116579 0.300206 0.109331
0.0115206 0.307393 0.103624
0.0111543 0.31545 0.09514
0.0575875 0.324193 0.0851759
0.146075 0.332555 0.0724498
0.205844 0.34136 0.0514687
0.259937 0.351186 0.0328069
0.309545 0.361776 0.0175326
0.355718 0.372488 0.0133516
0.40148 0.382696 0.0106355
0.447044 0.392233 0.00958267
0.493965 0.400504 0.00894179
0.541375 0.408209 0.00840772
0.586892 0.415412 0.00759899
0.628733 0.421698 0.00706493
0.664393 0.426734 0.00671397
0.69691 0.430655 0.00619516
0.727092 0.433768 0.00578317
0.754269 0.435767 0.00543221
0.77937 0.437308 0.00523384
0.801663 0.438758 0.00497444
0.818601 0.43978 0.00479133
0.833036 0.440208 0.00448615
0.845411 0.440467 0.00447089
0.855344 0.440711 0.00442512
0.864088 0.441276 0.00415045
0.872068 0.442466 0.00401312
0.878904 0.44445 0.00402838
0.884092 0.446662 0.00361639
0.888731 0.449393 0.00344854
0.0113527 0.309621 0.117617
0.0110475 0.314763 0.115282
0.011017 0.321065 0.110933
0.0107271 0.327871 0.10518
0.0104524 0.335531 0.0979629
0.0103761 0.34461 0.0868391
0.0467536 0.353933 0.0712139
0.118502 0.363088 0.0509804
0.195193 0.373419 0.0322881
0.257969 0.384298 0.0197147
0.310857 0.396002 0.0129854
0.359182 0.407645 0.0101472
0.407004 0.41854 0.00906386
0.453971 0.428611 0.00796521
0.502007 0.437491 0.00706493
0.550164 0.445869 0.00633249
0.596857 0.453498 0.00570687
0.639582 0.460273 0.00495918
0.675593 0.465843 0.00442512
0.708553 0.470207 0.00386053
0.739178 0.473701 0.00337224
0.766903 0.475944 0.0031281
0.792081 0.477836 0.00268559
0.814527 0.479408 0.00228885
0.831556 0.480415 0.00198367
0.846464 0.481117 0.00199893
0.858991 0.481498 0.00195315
0.868757 0.481514 0.00163272
0.877546 0.482277 0.00158694
0.885664 0.483421 0.00146487
0.892088 0.485161 0.00106813
0.897734 0.487404 0.00102235
0.902144 0.489799 0.000671397
0.0103151 0.336156 0.114519
0.0102083 0.342031 0.111818
0.00985733 0.348638 0.106035
0.00982681 0.356329 0.0985275
0.00958267 0.364675 0.0886397
0.00946059 0.374441 0.0705425
0.031281 0.385016 0.0519875
0.0777295 0.395666 0.0329442
0.179187 0.406699 0.0209659
0.254307 0.41854 0.0137179
0.310796 0.430869 0.0100404
0.362066 0.443397 0.00881971
0.411307 0.454902 0.00749218
0.460197 0.465736 0.0065919
0.509453 0.47512 0.00543221
0.558862 0.48394 0.00462348
0.6065 0.492271 0.0037232
0.65005 0.499702 0.00291447
0.686656 0.505531 0.0021973
0.720241 0.510613 0.00161746
0.751446 0.514366 0.00123598
0.779126 0.516762 0.000534066
0.804791 0.518807 0.000213626
0.827695 0.52076 0
0.844816 0.521904 0
0.859739 0.522637 0
0.872297 0.522942 0
0.882399 0.523156 0
0.891157 0.523598 0
0.899321 0.524697 0
0.905898 0.526619 0
0.911254 0.528618 0
0.915984 0.531075 0
0.00950637 0.362448 0.110704
0.00927749 0.368444 0.107149
0.009308 0.375845 0.100023
0.00906386 0.383917 0.0894026
0.00900282 0.393118 0.0747692
0.0089723 0.404166 0.052018
0.0183719 0.415717 0.0337377
0.0436103 0.427863 0.0198215
0.163424 0.43975 0.0147707
0.249241 0.451957 0.0108492
0.310491 0.464942 0.00918593
0.363806 0.478065 0.00749218
0.415579 0.490349 0.00631724
0.465629 0.50161 0.00505074
0.516381 0.511788 0.00390631
0.566918 0.521126 0.00282292
0.615534 0.530159 0.0018616
0.660075 0.538216 0.000976577
0.697429 0.544564 0.000167849
0.731838 0.549844 0
0.763134 0.553887 0
0.791592 0.55668 0
0.817258 0.55906 0
0.840406 0.560937 0
0.858 0.562402 0
0.872816 0.563165 0
0.885817 0.563561 0
0.895582 0.563607 0
0.904707 0.564263 0
0.912902 0.565301 0
0.919493 0.566918 0
0.924865 0.5691 0
0.929381 0.571252 0
0.00888075 0.387045 0.106508
0.00869764 0.393423 0.101152
0.00874342 0.401328 0.0922866
0.00859083 0.410071 0.0763714
0.00849927 0.419974 0.0527657
0.00856031 0.432166 0.0335699
0.0148013 0.445075 0.0217288
0.0345464 0.458 0.0167239
0.151247 0.47042 0.0129854
0.240772 0.483101 0.0102693
0.309239 0.496681 0.00834669
0.365362 0.510338 0.00660716
0.418647 0.523018 0.00502022
0.47042 0.535225 0.00367742
0.52256 0.545769 0.00238041
0.574426 0.556039 0.00129702
0.624063 0.565469 0.000137331
0.66952 0.574105 0
0.7075 0.580911 0
0.742275 0.586648 0
0.774411 0.591028 0
0.803037 0.594141 0
0.829175 0.596704 0
0.852476 0.598825 0
0.870115 0.600214 0
0.885496 0.601251 0
0.898268 0.601556 0
0.908492 0.601846 0
0.917845 0.602441 0
0.925933 0.603281 0
0.932555 0.605097 0
0.93785 0.60705 0
0.94258 0.609155 0
0.0084535 0.408469 0.100725
0.00827039 0.415244 0.0948196
0.00840772 0.423636 0.0791028
0.00836194 0.433097 0.058732
0.00830091 0.443961 0.0344091
0.00833143 0.457099 0.0243839
0.0133974 0.470756 0.0182956
0.0299077 0.484443 0.0147707
0.137636 0.497292 0.0124361
0.229679 0.51043 0.00993362
0.307073 0.524392 0.00770581
0.365499 0.538277 0.00553903
0.420966 0.55169 0.0040589
0.474159 0.564309 0.00248722
0.527367 0.575494 0.00114443
0.580255 0.586099 0
0.631052 0.596399 0
0.677409 0.605509 0
0.71606 0.612894 0
0.751293 0.619013 0
0.783749 0.62385 0
0.812741 0.627008 0
0.839231 0.629877 0
0.862867 0.632197 0
0.881025 0.634012 0
0.896437 0.635004 0
0.909545 0.635584 0
0.919905 0.635798 0
0.929061 0.636561 0
0.937438 0.637339 0
0.944152 0.639078 0
0.949447 0.640909 0
0.952972 0.642573 0
0.00799573 0.428779 0.092958
0.0080415 0.436057 0.0844739
0.00808728 0.444877 0.0628977
0.00820935 0.455024 0.0419318
0.00820935 0.46685 0.0223697
0.00822461 0.480766 0.0190585
0.0119478 0.495033 0.0163577
0.0250095 0.509224 0.0143282
0.118471 0.522667 0.0126497
0.21416 0.536171 0.00991836
0.304509 0.550118 0.00694286
0.365286 0.564782 0.00480659
0.422187 0.578637 0.00303655
0.476982 0.591745 0.00144961
0.53135 0.603494 0
0.585351 0.614725 0
0.637156 0.625635 0
0.684123 0.635142 0
0.7234 0.642985 0
0.759472 0.649744 0
0.792279 0.654749 0
0.821744 0.658534 0
0.848661 0.661677 0
0.872602 0.664317 0
0.890761 0.666148 0
0.906447 0.667353 0
0.91986 0.668193 0
0.930388 0.668528 0
0.939605 0.669169 0
0.947692 0.670085 0
0.952956 0.671183 0
0.956664 0.672297 0
0.959274 0.673381 0
0.00781262 0.448081 0.0822461
0.00801099 0.455756 0.0674907
0.0080415 0.465263 0.0445716
0.00802625 0.476356 0.0279698
0.00808728 0.489006 0.0200961
0.00808728 0.503441 0.016968
0.00929274 0.518059 0.014725
0.0173037 0.533028 0.0142977
0.0905013 0.54725 0.0129549
0.191424 0.561028 0.00996414
0.302037 0.574899 0.00628672
0.364385 0.589883 0.00407416
0.422782 0.604227 0.00210575
0.479011 0.617884 0.000411994
0.534569 0.630228 0
0.589563 0.642359 0
0.642222 0.653651 0
0.689952 0.663767 0
0.729747 0.672145 0
0.766155 0.679179 0
0.799863 0.684855 0
0.829679 0.688914 0
0.856809 0.692363 0
0.881224 0.695293 0
0.899611 0.697414 0
0.915709 0.699092 0
0.929076 0.699947 0
0.939971 0.700572 0
0.948913 0.701198 0
0.955673 0.701534 0
0.957351 0.70132 0
0.958129 0.701198 0
0.958343 0.701228 0
0.00787366 0.46627 0.0659037
0.00787366 0.474327 0.0475624
0.00799573 0.484749 0.0328832
0.0080415 0.496361 0.0227817
0.00796521 0.509392 0.0180362
0.00799573 0.524361 0.0155489
0.00810254 0.539605 0.014435
0.0127871 0.554925 0.0142824
0.0703441 0.569757 0.013138
0.173861 0.583963 0.0100862
0.297353 0.597757 0.00579843
0.362188 0.613108 0.00335698
0.422538 0.627985 0.00132753
0.480262 0.642161 0
0.536812 0.655131 0
0.592767 0.667567 0
0.646052 0.679454 0
0.694545 0.690257 0
0.734981 0.699046 0
0.771939 0.706584 0
0.805997 0.712703 0
0.836164 0.717083 0
0.86392 0.720989 0
0.888594 0.7243 0
0.907347 0.72668 0
0.923445 0.728466 0
0.937453 0.729671 0
0.947219 0.730175 0
0.953338 0.729854 0
0.956436 0.729152 0
0.95697 0.728527 0
0.957153 0.728161 0
0.957168 0.728008 0
0.00787366 0.482933 0.0502785
0.00793469 0.491585 0.0342718
0.00802625 0.502373 0.0254368
0.00793469 0.514626 0.0192111
0.00796521 0.528176 0.016022
0.00770581 0.543282 0.0142977
0.00764477 0.558907 0.0141756
0.0103609 0.574655 0.0139925
0.0587167 0.58996 0.0129397
0.162737 0.60444 0.0099794
0.29221 0.618341 0.00535592
0.359792 0.634134 0.00280766
0.42208 0.649454 0.000640879
0.480888 0.664057 0
0.538567 0.677348 0
0.595163 0.690364 0
0.649577 0.702968 0
0.698634 0.714229 0
0.739635 0.723613 0
0.77705 0.731624 0
0.811399 0.737926 0
0.842161 0.742794 0
0.870222 0.746899 0
0.895201 0.75053 0
0.91426 0.753201 0
0.930678 0.755337 0
0.944671 0.75671 0
0.951919 0.756527 0
0.955245 0.755581 0
0.955917 0.754101 0
0.955962 0.753063 0
0.955993 0.752483 0
0.956008 0.752224 0
0.00781262 0.497826 0.0362097
0.00773632 0.506905 0.0287327
0.00781262 0.518059 0.0220035
0.00772107 0.530617 0.016968
0.00769055 0.544488 0.0141299
0.00761425 0.560128 0.0141299
0.00733959 0.575906 0.0139162
0.0100862 0.591897 0.0138857
0.0574197 0.607691 0.0129397
0.158556 0.622354 0.00955215
0.286305 0.63653 0.005066
0.357076 0.652689 0.00213626
0.421469 0.668299 4.57771e-05
0.48159 0.683421 0
0.53994 0.697139 0
0.597482 0.710567 0
0.652171 0.723476 0
0.702144 0.735378 0
0.74342 0.744976 0
0.781537 0.753307 0
0.81622 0.760128 0
0.847318 0.765393 0
0.8757 0.769985 0
0.900832 0.773739 0
0.920348 0.776822 0
0.937102 0.779065 0
0.950957 0.780529 0
0.953613 0.779141 0
0.954864 0.777569 0
0.954925 0.776059 0
0.955001 0.775082 0
0.955032 0.774441 0
0.955047 0.774044 0
0.00782788 0.508949 0.0344396
0.00776684 0.518196 0.0273289
0.00767529 0.529641 0.0213016
0.00769055 0.542336 0.0169223
0.00767529 0.556374 0.0141909
0.00747692 0.572091 0.0140383
0.00727855 0.588144 0.0139162
0.00973526 0.60444 0.0137026
0.0548867 0.620157 0.012604
0.154818 0.635264 0.00947585
0.281971 0.649668 0.00482185
0.355474 0.66601 0.00183108
0.420951 0.68188 0
0.481987 0.697139 0
0.541176 0.71136 0
0.59913 0.7252 0
0.654475 0.738384 0
0.704433 0.750454 0
0.746227 0.760555 0
0.784497 0.769146 0
0.819455 0.776242 0
0.850858 0.781582 0
0.879576 0.78645 0
0.905196 0.790616 0
0.924758 0.793759 0
0.940658 0.795941 0
0.952605 0.797101 0
0.953735 0.795407 0
0.954162 0.793698 0
0.954238 0.792172 0
0.954162 0.791287 0
0.954147 0.790661 0
0.954162 0.790219 0
0.00770581 0.518441 0.0333562
0.00784314 0.528038 0.0263981
0.00775158 0.539422 0.0210422
0.00753796 0.55227 0.0168154
0.00750744 0.566445 0.0140536
0.00727855 0.582254 0.0138857
0.00714122 0.598428 0.0138247
0.00955215 0.614832 0.0137026
0.0527352 0.630793 0.0124666
0.151339 0.646113 0.00924697
0.277943 0.6607 0.00463874
0.353872 0.677211 0.00161746
0.420493 0.693233 0
0.482277 0.708888 0
0.542123 0.723308 0
0.60029 0.73724 0
0.655955 0.750683 0
0.706416 0.763241 0
0.74818 0.773419 0
0.786816 0.7823 0
0.822003 0.789609 0
0.85388 0.795422 0
0.882628 0.80029 0
0.908263 0.804776 0
0.928237 0.808133 0
0.94316 0.8103 0
0.953246 0.811078 0
0.953338 0.80911 0
0.953429 0.807507 0
0.953689 0.806348 0
0.953719 0.805478 0
0.953628 0.804837 0
0.953613 0.804318 0
0.00781262 0.526589 0.0332952
0.00772107 0.536065 0.0256809
0.00776684 0.547692 0.0208896
0.00746166 0.560525 0.0168002
0.00735485 0.574716 0.0139315
0.00724804 0.590723 0.013901
0.00703441 0.606836 0.0137484
0.00924697 0.623346 0.0135195
0.0509804 0.639704 0.0125429
0.148333 0.654902 0.00924697
0.274617 0.669673 0.00436408
0.3523 0.686397 0.00129702
0.420096 0.702647 0
0.482475 0.718441 0
0.542565 0.73315 0
0.600992 0.747265 0
0.656748 0.761013 0
0.707439 0.773617 0
0.749722 0.7841 0
0.788327 0.793301 0
0.824018 0.800809 0
0.855695 0.806806 0
0.884657 0.812024 0
0.910811 0.816617 0
0.93109 0.820249 0
0.944976 0.822187 0
0.952804 0.822568 0
0.952895 0.820829 0
0.95288 0.819409 0
0.95285 0.81825 0
0.95288 0.817472 0
0.952987 0.816754 0
0.95314 0.81619 0
0.00767529 0.532952 0.034165
0.00758373 0.542458 0.0267643
0.00761425 0.554147 0.0213779
0.00749218 0.567163 0.0171359
0.00743114 0.581384 0.0140536
0.0071107 0.597162 0.0137789
0.00691234 0.613474 0.0136568
0.00918593 0.630014 0.0135805
0.0497292 0.64622 0.0123445
