Grain/Grain/Resources/Luts/Film Emulation/65MM_FILM_01.cube
LUT_3D_SIZE 5
0.0630198 0.0842451 0.0949111
0.187869 0.102983 0.0905776
0.451225 0.0889448 0.0271458
0.669612 0.0279088 0.0301671
0.748272 0.0288853 0.0312505
0.0176852 0.174548 0.115221
0.213825 0.211185 0.0964828
0.530373 0.251362 0.0173342
0.751598 0.26128 0.0181735
0.822354 0.266957 0.0179294
0.00950637 0.362448 0.110704
0.163424 0.43975 0.0147707
0.615534 0.530159 0.0018616
0.858 0.562402 0
0.929381 0.571252 0
0.00782788 0.508949 0.0344396
0.0548867 0.620157 0.012604
0.654475 0.738384 0
0.924758 0.793759 0
0.954162 0.790219 0
0.00689708 0.560418 0.0734874
0.0489509 0.669657 0.0119783
0.657343 0.79115 0
0.934203 0.855589 0
0.951339 0.853361 0
0.0289921 0.0852216 0.204303
0.188006 0.10367 0.217639
0.458915 0.0624094 0.22327
0.679271 0.0265202 0.235142
0.756893 0.0275273 0.241764
0.0155184 0.195499 0.254719
0.197208 0.230655 0.25745
0.528862 0.259297 0.254398
0.744762 0.245396 0.24152
0.813428 0.24329 0.240024
0.00698863 0.400473 0.299672
0.0519722 0.470375 0.2916
0.58967 0.534569 0.256428
0.831144 0.551522 0.217502
0.900877 0.556115 0.205402
0.00427253 0.550271 0.328847
0.00260929 0.642512 0.310872
0.605966 0.733059 0.231434
0.880629 0.775174 0.142199
0.952071 0.780621 0.114015
0.00274662 0.602579 0.384115
0.000640879 0.693996 0.36936
0.598703 0.786984 0.307073
0.880461 0.835386 0.244709
0.948104 0.841184 0.196078
0.023682 0.0271458 0.393652
0.19498 0.0371557 0.420722
0.480613 0.0247044 0.451484
0.699779 0.025742 0.474479
0.776211 0.0267948 0.485161
0.014847 0.193408 0.465476
0.152148 0.250965 0.484825
0.532372 0.275731 0.507866
0.752132 0.261494 0.514534
0.820539 0.259922 0.517998
0.00509651 0.440269 0.545159
0.00376898 0.512581 0.560723
0.569116 0.569726 0.559289
0.821347 0.584298 0.55639
0.893431 0.588022 0.555962
0.00170901 0.596521 0.589471
0 0.687922 0.60267
0.562402 0.772427 0.584146
0.854368 0.810559 0.57583
0.935637 0.8168 0.572564
0.000167849 0.644312 0.629236
0 0.735973 0.640543
0.550942 0.823697 0.621302
0.85304 0.870298 0.612512
0.939956 0.880751 0.608347
0.0234379 0.0269627 0.540825
0.193164 0.0257877 0.571435
0.499107 0.0242771 0.614359
0.720287 0.0264591 0.642374
0.796918 0.027512 0.654124
0.0177005 0.144091 0.608133
0.107546 0.255512 0.64181
0.53315 0.278019 0.679133
0.758602 0.260807 0.695323
0.828977 0.259144 0.700633
0.00494392 0.452628 0.709957
0.00299077 0.5299 0.736706
0.549432 0.585946 0.746563
0.813611 0.599725 0.754742
0.889372 0.602411 0.756146
0.000656138 0.618418 0.759319
0 0.710491 0.784512
0.523583 0.794018 0.780835
0.836301 0.8318 0.786526
0.922866 0.837964 0.786145
0 0.665599 0.784146
0 0.757824 0.806256
0.509483 0.84477 0.799771
0.833967 0.891936 0.805661
0.92694 0.90277 0.805356
0.0234836 0.027039 0.612741
0.191501 0.0260624 0.643977
0.510491 0.0245518 0.692561
0.736568 0.0270848 0.724132
0.813092 0.0281529 0.735927
0.0180972 0.139239 0.672221
0.0769055 0.271946 0.710094
0.534112 0.296956 0.752514
0.763851 0.280781 0.772549
0.836622 0.278676 0.779171
0.00485237 0.457038 0.77203
0.00291447 0.535576 0.802853
0.538033 0.592615 0.818357
0.809567 0.60647 0.832914
0.888243 0.608087 0.835676
0.000213626 0.624277 0.82179
0 0.715709 0.850721
0.503594 0.798306 0.852918
0.827008 0.836179 0.865629
0.917662 0.842084 0.867567
0 0.671336 0.837613
0 0.762982 0.863493
0.487678 0.849897 0.862394
0.823957 0.89749 0.874586
0.921248 0.908843 0.876585
