Grain/Grain/Resources/Luts/Film Emulation/65MM_FILM_01.cube
LUT_3D_SIZE 9
0.0630198 0.0842451 0.0949111
0.111177 0.0924849 0.0949874
0.187869 0.102983 0.0905776
0.303975 0.107607 0.0720226
0.451225 0.0889448 0.0271458
0.578149 0.037232 0.0289921
0.669612 0.0279088 0.0301671
0.720165 0.0285954 0.0309453
0.748272 0.0288853 0.0312505
0.0275425 0.117571 0.103563
0.112551 0.128466 0.102388
0.202014 0.143435 0.0958724
0.33109 0.1552 0.0710002
0.487037 0.158389 0.0235447
0.614786 0.155062 0.0235142
0.703105 0.140627 0.025391
0.750439 0.127275 0.0267491
0.776791 0.130694 0.0268711
0.0176852 0.174548 0.115221
0.0917067 0.188907 0.109285
0.213825 0.211185 0.0964828
0.362142 0.232319 0.0475624
0.530373 0.251362 0.0173342
0.662898 0.261494 0.0173648
0.751598 0.26128 0.0181735
0.797391 0.260594 0.0185092
0.822354 0.266957 0.0179294
0.0133669 0.259648 0.119814
0.0125429 0.281163 0.106722
0.210803 0.312551 0.0686656
0.39469 0.34966 0.0137942
0.57644 0.380087 0.00981155
0.714641 0.396887 0.00827039
0.80531 0.401968 0.0075227
0.850782 0.403372 0.007187
0.875135 0.411276 0.00627146
0.00950637 0.362448 0.110704
0.00900282 0.393118 0.0747692
0.163424 0.43975 0.0147707
0.415579 0.490349 0.00631724
0.615534 0.530159 0.0018616
0.763134 0.553887 0
0.858 0.562402 0
0.904707 0.564263 0
0.929381 0.571252 0
0.00781262 0.448081 0.0822461
0.00808728 0.489006 0.0200961
0.0905013 0.54725 0.0129549
0.422782 0.604227 0.00210575
0.642222 0.653651 0
0.799863 0.684855 0
0.899611 0.697414 0
0.948913 0.701198 0
0.958343 0.701228 0
0.00782788 0.508949 0.0344396
0.00767529 0.556374 0.0141909
0.0548867 0.620157 0.012604
0.420951 0.68188 0
0.654475 0.738384 0
0.819455 0.776242 0
0.924758 0.793759 0
0.954162 0.793698 0
0.954162 0.790219 0
0.00753796 0.538994 0.0358129
0.00730907 0.587335 0.014786
0.0488746 0.652171 0.0122683
0.419516 0.715938 0
0.657557 0.775357 0
0.825299 0.816266 0
0.933745 0.837156 0
0.952041 0.836408 0
0.952392 0.833646 0
0.00689708 0.560418 0.0734874
0.00695811 0.606622 0.0207828
0.0489509 0.669657 0.0119783
0.42182 0.731975 0
0.657343 0.79115 0
0.824445 0.833204 0
0.934203 0.855589 0
0.951324 0.855543 0
0.951339 0.853361 0
0.0544442 0.086244 0.136614
0.109438 0.0941482 0.139437
0.188281 0.104768 0.140887
0.30634 0.10869 0.137316
0.452934 0.0724498 0.128023
0.579828 0.0264286 0.122286
0.671275 0.0271763 0.116655
0.721691 0.0279545 0.110765
0.749249 0.0283055 0.108919
0.0220493 0.123476 0.151263
0.105653 0.133593 0.15198
0.20116 0.148608 0.152422
0.332998 0.159594 0.146563
0.487022 0.15465 0.133593
0.609888 0.129488 0.112535
0.697612 0.0670939 0.0860456
0.74699 0.0284581 0.0807507
0.773358 0.0290379 0.0771649
0.0167697 0.183307 0.168475
0.0592813 0.197665 0.165911
0.208728 0.219394 0.163729
0.362188 0.239521 0.15317
0.526696 0.248814 0.133654
0.654704 0.246509 0.0973373
0.741466 0.237018 0.0670329
0.786404 0.230594 0.0383764
0.811154 0.236088 0.0257572
0.0122835 0.272404 0.183871
0.0113985 0.293935 0.178561
0.194888 0.3243 0.167468
0.387427 0.354345 0.146456
0.566354 0.374365 0.103182
0.702281 0.383871 0.0400244
0.793652 0.386725 0.00877394
0.839124 0.387045 0.00834669
0.863767 0.39501 0.00769055
0.00839246 0.378363 0.191272
0.00762951 0.408942 0.182712
0.124666 0.448814 0.158068
0.397848 0.488533 0.0985122
0.600595 0.522332 0.00428778
0.750622 0.545724 0
0.846693 0.553689 0
0.893797 0.555108 0
0.918227 0.561852 0
0.00665293 0.465492 0.194537
0.0062562 0.502419 0.179767
0.0501869 0.551202 0.133349
0.397406 0.599359 0.0257572
0.625589 0.648127 0
0.786358 0.678965 0
0.887617 0.691249 0
0.937926 0.694972 0
0.957824 0.69865 0
0.00585946 0.525353 0.198337
0.00546273 0.566079 0.178698
0.014725 0.620356 0.111574
0.389929 0.676509 0.000564584
0.635248 0.732418 0
0.803754 0.770016 0
0.910674 0.787564 0
0.953719 0.791211 0
0.954299 0.787381 0
0.0053254 0.555077 0.213626
0.00489815 0.596521 0.194629
0.00480659 0.651469 0.129274
0.382284 0.708064 0.0028687
0.63476 0.766812 0
0.806409 0.807675 0
0.915892 0.828153 0
0.9523 0.832074 0
0.952438 0.828977 0
0.00469978 0.578317 0.244968
0.0041352 0.618723 0.22974
0.00352483 0.671244 0.186664
0.378042 0.72285 0.0833906
0.628702 0.778302 0
0.800458 0.820264 0
0.911101 0.84239 0
0.951568 0.848356 0
0.951736 0.845869 0
0.0289921 0.0852216 0.204303
0.105028 0.0933547 0.210925
0.188006 0.10367 0.217639
0.30985 0.10692 0.221698
0.458915 0.0624094 0.22327
0.587198 0.0257572 0.229953
0.679271 0.0265202 0.235142
0.729961 0.0272221 0.238727
0.756893 0.0275273 0.241764
0.0195163 0.126421 0.227039
0.0923629 0.139818 0.229694
0.197192 0.153857 0.236515
0.334554 0.164691 0.23946
0.490944 0.159289 0.238178
0.615442 0.134981 0.235203
0.703395 0.0761883 0.233539
0.752377 0.027451 0.236332
0.777996 0.0277256 0.237766
0.0155184 0.195499 0.254719
0.0220645 0.210315 0.254185
0.197208 0.230655 0.25745
0.360464 0.250416 0.257969
0.528862 0.259297 0.254398
0.658503 0.256718 0.247898
0.744762 0.245396 0.24152
0.789014 0.238056 0.239338
0.813428 0.24329 0.240024
0.0108492 0.2907 0.279683
0.0099794 0.312566 0.280308
0.154665 0.341527 0.276295
0.37937 0.370169 0.271656
0.564279 0.388678 0.262516
0.700984 0.39559 0.250751
0.789853 0.393408 0.24033
0.833906 0.390143 0.235554
0.857466 0.396323 0.234485
0.00698863 0.400473 0.299672
0.0062562 0.43125 0.300221
0.0519722 0.470375 0.2916
0.378805 0.506081 0.275273
0.58967 0.534569 0.256428
0.737636 0.549355 0.235813
0.831144 0.551522 0.217502
0.877424 0.550805 0.208652
0.900877 0.556115 0.205402
0.00512703 0.489647 0.315419
0.00471504 0.526329 0.313954
0.00849927 0.573892 0.301976
0.364935 0.61593 0.272786
0.603601 0.652842 0.242329
0.763363 0.675105 0.204074
0.863172 0.682673 0.165484
0.912932 0.684627 0.1561
0.937209 0.688579 0.152789
0.00427253 0.550271 0.328847
0.00358587 0.590249 0.326268
0.00260929 0.642512 0.310872
0.342962 0.689998 0.273152
0.605966 0.733059 0.231434
0.775021 0.762249 0.171557
0.880629 0.775174 0.142199
0.933227 0.779553 0.124453
0.952071 0.780621 0.114015
0.00350958 0.579812 0.349538
0.00274662 0.620554 0.346761
0.00151064 0.673747 0.331548
0.326314 0.723064 0.294728
0.602884 0.76846 0.255131
0.775296 0.800046 0.198581
0.884153 0.816052 0.161334
0.938964 0.822614 0.144152
0.950118 0.821256 0.128786
0.00274662 0.602579 0.384115
0.00177005 0.642359 0.382208
0.000640879 0.693996 0.36936
0.317769 0.742046 0.337224
0.598703 0.786984 0.307073
0.771252 0.819181 0.27602
0.880461 0.835386 0.244709
0.936477 0.842527 0.222812
0.948104 0.841184 0.196078
0.0242924 0.0564889 0.29778
0.101625 0.0798352 0.308095
0.190082 0.0898909 0.321462
0.315084 0.0892195 0.331395
0.468757 0.032639 0.342245
0.597345 0.0248722 0.353521
0.68925 0.0260471 0.362219
0.739086 0.0264897 0.367239
0.765652 0.0267948 0.371344
0.0194553 0.116533 0.326345
0.0624247 0.142458 0.333272
0.193027 0.155901 0.346654
0.337072 0.165682 0.356542
0.496239 0.159121 0.362997
0.621836 0.132113 0.366781
0.710155 0.0739605 0.370382
0.758984 0.0268864 0.375311
0.784329 0.0271305 0.378286
0.0146181 0.201358 0.365194
0.0137179 0.220722 0.370016
0.177066 0.242603 0.376196
0.357626 0.261219 0.384604
0.530663 0.269245 0.38909
0.661891 0.266239 0.390158
0.748516 0.255848 0.389334
0.792599 0.248035 0.38909
0.816495 0.253788 0.391165
0.00946059 0.307515 0.400092
0.00854505 0.332143 0.40737
0.100862 0.360616 0.406531
0.367697 0.387228 0.4103
0.561028 0.404639 0.411475
0.700221 0.410864 0.409125
0.789364 0.40853 0.405524
0.833722 0.40502 0.403449
0.857267 0.411337 0.404654
0.00555428 0.423911 0.430106
0.00505074 0.454612 0.436255
0.0183719 0.493553 0.435599
0.354376 0.526802 0.428885
0.579522 0.553475 0.424949
0.731472 0.567376 0.418784
0.826185 0.569238 0.412467
0.873106 0.567971 0.409384
0.89688 0.573327 0.409766
0.00404364 0.515663 0.452583
0.00325017 0.551873 0.458351
0.00224308 0.598886 0.456855
0.320638 0.638651 0.441169
0.586938 0.673594 0.432074
0.751812 0.694743 0.422324
0.852827 0.701167 0.413413
0.903426 0.702007 0.40943
0.927855 0.706004 0.40882
0.00271611 0.576013 0.468772
0.00175479 0.615885 0.474113
0.000564584 0.667384 0.471443
0.277272 0.713771 0.451682
0.584131 0.754177 0.438025
0.758953 0.781369 0.425238
0.865965 0.792798 0.414618
0.919676 0.796414 0.4094
0.944533 0.799069 0.407935
0.00195315 0.604349 0.4869
0.000976577 0.645151 0.492409
0 0.697963 0.489616
0.254307 0.74667 0.469612
0.579217 0.789029 0.454505
0.758221 0.819348 0.441489
0.868482 0.833875 0.430411
0.924224 0.839612 0.424018
0.9449 0.840894 0.42089
0.00112917 0.625605 0.515846
1.5259e-05 0.665248 0.52079
0 0.716838 0.518257
0.244831 0.764508 0.499504
0.574701 0.806546 0.48661
0.754269 0.837812 0.475257
0.865705 0.85362 0.46424
0.923171 0.86067 0.458747
0.943481 0.861723 0.454185
0.023682 0.0271458 0.393652
0.0992294 0.0334325 0.403357
0.19498 0.0371557 0.420722
0.324788 0.0336614 0.436423
0.480613 0.0247044 0.451484
0.609125 0.0247959 0.46508
0.699779 0.025742 0.474479
0.749493 0.0265049 0.480552
0.776211 0.0267948 0.485161
0.0208743 0.0825818 0.419837
0.01944 0.137072 0.431617
0.189746 0.152285 0.449119
0.340581 0.160357 0.464347
0.50161 0.151827 0.475349
0.628626 0.112993 0.483665
0.71873 0.0387121 0.490867
0.767361 0.0266423 0.496101
0.79266 0.0271458 0.499794
0.014847 0.193408 0.465476
0.0133516 0.222797 0.475914
0.152148 0.250965 0.484825
0.354833 0.268452 0.498314
0.532372 0.275731 0.507866
0.664866 0.272023 0.512932
0.752132 0.261494 0.514534
0.796658 0.254063 0.515496
0.820539 0.259922 0.517998
0.0090486 0.316335 0.509224
0.0080415 0.343832 0.520348
0.0502632 0.376455 0.523476
0.355276 0.401328 0.530327
0.556939 0.417655 0.536873
0.69897 0.423713 0.539452
0.788968 0.420737 0.538552
0.834043 0.417151 0.538186
0.857694 0.423346 0.539467
0.00509651 0.440269 0.545159
0.00447089 0.472099 0.555703
0.00376898 0.512581 0.560723
0.325811 0.544274 0.556466
0.569116 0.569726 0.559289
0.725261 0.583017 0.559152
0.821347 0.584298 0.55639
0.869398 0.582834 0.555108
0.893431 0.588022 0.555962
0.00331121 0.534798 0.571557
0.00221256 0.571267 0.581186
0.000991836 0.61886 0.586007
0.266331 0.658793 0.576196
0.569955 0.691295 0.574044
0.740871 0.711757 0.571878
0.844251 0.717983 0.567956
0.895735 0.7187 0.565789
0.921065 0.722499 0.566018
0.00170901 0.596521 0.589471
0.000595102 0.636301 0.598688
0 0.687922 0.60267
0.189136 0.735592 0.59089
0.562402 0.772427 0.584146
0.744595 0.799176 0.580224
0.854368 0.810559 0.57583
0.909438 0.813993 0.573144
0.935637 0.8168 0.572564
0.000915541 0.624567 0.605966
0 0.665019 0.614481
0 0.718349 0.618418
0.136263 0.769451 0.607462
0.555398 0.806943 0.598047
0.742809 0.836973 0.593942
0.855879 0.851301 0.588434
0.912978 0.857191 0.585428
0.940017 0.860212 0.584848
0.000167849 0.644312 0.629236
0 0.684108 0.637461
0 0.735973 0.640543
0.129473 0.786374 0.630243
0.550942 0.823697 0.621302
0.738781 0.854597 0.617792
0.85304 0.870298 0.612512
0.911894 0.877455 0.609461
0.939956 0.880751 0.608347
0.0233158 0.0267948 0.476204
0.0725872 0.0269627 0.484535
0.196399 0.0258488 0.505653
0.333623 0.0243839 0.524941
0.490959 0.0238956 0.542428
0.619303 0.0250858 0.557931
0.710369 0.0260929 0.568215
0.760372 0.0268101 0.574762
0.786847 0.0271458 0.580194
0.0236515 0.0275883 0.503594
0.0187839 0.120058 0.514244
0.187442 0.14287 0.534356
0.343023 0.150149 0.553597
0.506447 0.134035 0.568887
0.636194 0.0870985 0.581247
0.728023 0.0263523 0.590723
0.776959 0.0270085 0.596262
0.801831 0.0273136 0.600259
0.0159609 0.174792 0.546761
0.0138857 0.214908 0.561975
0.132769 0.254582 0.573892
0.351827 0.271687 0.591501
0.533211 0.278035 0.605234
0.66743 0.273457 0.613443
0.755428 0.262226 0.617121
0.800534 0.25449 0.618692
0.824781 0.260838 0.621378
0.00909438 0.317861 0.59913
0.00799573 0.347692 0.612161
0.0328527 0.385138 0.618891
0.342367 0.4103 0.627939
0.55285 0.426123 0.639017
0.697261 0.431464 0.64477
0.788418 0.428138 0.645685
0.834607 0.424735 0.64625
0.858335 0.430472 0.647791
0.00483711 0.450538 0.640482
0.00425727 0.481727 0.652506
0.00328069 0.524514 0.66186
0.292592 0.556283 0.659449
0.558892 0.580453 0.666606
0.719112 0.593225 0.670222
0.817166 0.594446 0.669841
0.866346 0.593027 0.669657
0.891035 0.597864 0.67071
0.002533 0.548104 0.66865
0.00167849 0.585367 0.682414
0.000350958 0.632944 0.690745
0.204852 0.673701 0.684276
0.553582 0.703716 0.686
0.730541 0.723827 0.688182
0.836667 0.729915 0.687358
0.889509 0.730495 0.686229
0.915404 0.734264 0.686732
0.0009308 0.610834 0.687465
0 0.650187 0.699306
0 0.702663 0.707851
0.115862 0.75227 0.70164
0.541573 0.78587 0.69781
0.731701 0.812375 0.699016
0.844205 0.823697 0.697704
0.900694 0.826978 0.696162
0.927855 0.829755 0.695979
0.000122072 0.639002 0.700984
0 0.679713 0.713695
0 0.733028 0.720821
0.097673 0.784924 0.714961
0.532753 0.820584 0.708919
0.728847 0.850477 0.709957
0.845014 0.864973 0.708293
0.903868 0.870893 0.706706
0.932036 0.873686 0.706264
0 0.658152 0.719402
0 0.697841 0.731014
0 0.749752 0.737209
0.094377 0.80119 0.731319
0.528801 0.836835 0.725612
0.724834 0.86746 0.726757
0.842313 0.88336 0.725246
0.902647 0.890471 0.723598
0.932326 0.894011 0.723018
0.0234379 0.0269627 0.540825
0.0304417 0.0269017 0.548714
0.193164 0.0257877 0.571435
0.338064 0.0243076 0.593484
0.499107 0.0242771 0.614359
0.628534 0.0254063 0.631083
0.720287 0.0264591 0.642374
0.770382 0.0272068 0.649317
0.796918 0.027512 0.654124
0.0233005 0.0268254 0.569284
0.0205386 0.0875563 0.578744
0.186267 0.129564 0.600656
0.345159 0.135073 0.623072
0.511452 0.106554 0.64239
0.643153 0.0502785 0.657649
0.736629 0.0268254 0.668345
0.785733 0.0274662 0.673961
0.810773 0.0276951 0.678035
0.0177005 0.144091 0.608133
0.0146487 0.20322 0.626535
0.107546 0.255512 0.64181
0.348592 0.272633 0.662547
0.53315 0.278019 0.679133
0.669474 0.272908 0.690364
0.758602 0.260807 0.695323
0.804471 0.252766 0.697658
0.828977 0.259144 0.700633
0.00953689 0.311635 0.66424
0.00822461 0.344747 0.679789
0.0198062 0.388128 0.690562
0.330526 0.415106 0.701457
0.54786 0.430228 0.715679
0.694987 0.435218 0.724056
0.787991 0.431586 0.726879
0.835126 0.428153 0.727886
0.859251 0.433768 0.729458
0.00494392 0.452628 0.709957
0.00418097 0.486076 0.724743
0.00299077 0.5299 0.736706
0.263172 0.563027 0.736187
0.549432 0.585946 0.746563
0.713512 0.59852 0.753399
0.813611 0.599725 0.754742
0.864179 0.598138 0.755261
0.889372 0.602411 0.756146
0.00238041 0.553323 0.740337
0.00125124 0.590478 0.754849
0 0.639948 0.767559
0.131136 0.683238 0.765011
0.539406 0.710521 0.768536
0.721813 0.730388 0.77409
0.830427 0.736431 0.775158
0.884703 0.736873 0.774716
0.911604 0.740505 0.775341
0.000656138 0.618418 0.759319
0 0.658412 0.773236
0 0.710491 0.784512
0.0842451 0.7617 0.7823
0.523583 0.794018 0.780835
0.720607 0.820432 0.785809
0.836301 0.8318 0.786526
0.894575 0.835004 0.786038
0.922866 0.837964 0.786145
0 0.647288 0.77116
0 0.687907 0.784436
0 0.741558 0.794949
0.0496071 0.795544 0.793713
0.51339 0.829358 0.789364
0.717006 0.859236 0.794018
0.836393 0.873793 0.795087
0.89688 0.879637 0.79472
0.926589 0.882673 0.79469
0 0.665599 0.784146
0 0.704784 0.795773
0 0.757824 0.806256
0.0390784 0.811078 0.804471
0.509483 0.84477 0.799771
0.71339 0.875639 0.804578
0.833967 0.891936 0.805661
0.896178 0.899275 0.805554
0.92694 0.90277 0.805356
0.0233616 0.0269017 0.583551
0.0234226 0.0269627 0.592935
0.190936 0.0260014 0.61471
0.34139 0.0244297 0.639002
0.504631 0.0244755 0.66154
0.635752 0.0256199 0.679591
0.728389 0.0268406 0.691844
0.778622 0.0274815 0.698878
0.805219 0.0277714 0.703868
0.0234989 0.0270695 0.611917
0.0221103 0.0603647 0.621576
0.182254 0.128374 0.643214
0.346502 0.133135 0.667353
0.515099 0.10515 0.689036
0.648463 0.0428321 0.706798
0.742412 0.0271611 0.717983
0.79202 0.0276646 0.723949
0.817441 0.0281987 0.728359
0.0186923 0.127626 0.647868
0.0149233 0.199878 0.666911
0.0967117 0.259449 0.68455
0.345556 0.277028 0.706584
0.53344 0.282612 0.72578
0.670802 0.277287 0.738537
0.761028 0.264286 0.744564
0.808103 0.257023 0.748074
0.832624 0.262608 0.750896
0.00981155 0.307378 0.703532
0.00848402 0.344259 0.721096
0.00932326 0.391089 0.733928
0.321569 0.419196 0.7458
0.544457 0.433768 0.762341
0.693568 0.438941 0.773114
0.787549 0.435477 0.777035
0.835737 0.43125 0.778775
0.86038 0.436332 0.78024
0.00512703 0.451926 0.749798
0.00407416 0.487511 0.766705
0.00303655 0.532403 0.780911
0.244297 0.56643 0.781811
0.542702 0.588571 0.794293
0.709346 0.601389 0.803525
0.811154 0.602487 0.806577
0.862486 0.600336 0.807431
0.888533 0.60444 0.808698
0.00238041 0.555108 0.782528
0.00135805 0.593149 0.797391
0 0.642435 0.811856
0.11606 0.686915 0.812177
0.52987 0.7131 0.817182
0.715557 0.733028 0.825315
0.82594 0.739223 0.827832
0.881819 0.739544 0.82858
0.9093 0.742763 0.829389
0.000350958 0.621241 0.801099
0 0.66157 0.815763
0 0.714321 0.829023
0.0505074 0.766354 0.829969
0.511254 0.797238 0.82945
0.71284 0.823621 0.836988
0.830793 0.835172 0.839597
0.890303 0.838514 0.840085
0.919676 0.84126 0.840574
0 0.651972 0.810956
0 0.691752 0.825299
0 0.745403 0.837781
0 0.800931 0.83975
0.500389 0.83331 0.835904
0.708858 0.863172 0.843
0.830579 0.877958 0.84596
0.892409 0.883818 0.846632
0.922881 0.887053 0.846723
0 0.668772 0.819287
0 0.709194 0.833753
0 0.761151 0.844877
0 0.816007 0.84651
0.495979 0.848447 0.842054
0.705119 0.879423 0.848997
0.828107 0.896086 0.851896
0.891768 0.903456 0.852827
0.923323 0.907225 0.852842
0.0234836 0.027039 0.612741
0.0235599 0.0271458 0.622599
0.191501 0.0260624 0.643977
0.3458 0.0245365 0.669505
0.510491 0.0245518 0.692561
0.643046 0.0259861 0.711559
0.736568 0.0270848 0.724132
0.786603 0.0276493 0.730953
0.813092 0.0281529 0.735927
0.0236362 0.0272374 0.638209
0.0218051 0.0682078 0.648463
0.172671 0.151476 0.670161
0.347631 0.157275 0.695354
0.518746 0.14049 0.717449
0.652384 0.0976883 0.734981
0.74638 0.0309911 0.747478
0.796307 0.0279698 0.753567
0.822019 0.0282292 0.757916
0.0180972 0.139239 0.672221
0.0144961 0.210056 0.69192
0.0769055 0.271946 0.710094
0.342901 0.290791 0.73225
0.534112 0.296956 0.752514
0.67274 0.292729 0.765942
0.763851 0.280781 0.772549
0.811826 0.273457 0.776349
0.836622 0.278676 0.779171
0.00970474 0.31397 0.725765
0.00822461 0.35256 0.744869
0.0065156 0.399176 0.758175
0.314443 0.428412 0.769818
0.542367 0.443091 0.787457
0.692821 0.448234 0.7991
0.78793 0.444633 0.80383
0.836973 0.440467 0.805936
0.86247 0.445396 0.807858
0.00485237 0.457038 0.77203
0.00422675 0.490211 0.788464
0.00291447 0.535576 0.802853
0.230228 0.571069 0.804944
0.538033 0.592615 0.818357
0.706416 0.605097 0.828763
0.809567 0.60647 0.832914
0.861631 0.603891 0.83415
0.888243 0.608087 0.835676
0.00227359 0.55758 0.803433
0.00108339 0.59588 0.820676
0 0.643656 0.83331
0.107805 0.68893 0.835004
0.523232 0.714687 0.840818
0.711086 0.734295 0.850248
0.82295 0.740734 0.854139
0.879347 0.740688 0.855192
0.907744 0.74403 0.856413
0.000213626 0.624277 0.82179
0 0.663005 0.835981
0 0.715709 0.850721
0.0200046 0.768551 0.853483
0.503594 0.798306 0.852918
0.707607 0.824643 0.861738
0.827008 0.836179 0.865629
0.887587 0.839429 0.866926
0.917662 0.842084 0.867567
0 0.652735 0.83003
0 0.694575 0.845319
0 0.747234 0.858244
0 0.802411 0.861708
0.491981 0.834501 0.858396
0.703395 0.864469 0.867033
0.826108 0.879255 0.870649
0.889647 0.885405 0.872358
0.920928 0.888487 0.872969
0 0.671336 0.837613
0 0.710201 0.850599
0 0.762982 0.863493
0 0.817502 0.866041
0.487678 0.849897 0.862394
0.699596 0.880903 0.870665
0.823957 0.89749 0.874586
0.889021 0.905303 0.876143
0.921248 0.908843 0.876585
