Grain/Grain/Resources/Luts/Film Emulation/MODERN_FILM_01.cube
LUT_3D_SIZE 9
0 0 0
0.0696727 0 0
0.1691 0 0
0.292973 0 0
0.42948 0 0
0.566842 0 0
0.692805 0 0
0.801923 0 0
0.885679 0 0
0.00766003 0.0789807 0
0.0903792 0.0859388 0
0.18909 0.0888075 0
0.312978 0.0851301 0
0.449577 0.0793011 0
0.587854 0.0738231 0
0.715724 0.0726329 0
0.827619 0.0772564 0
0.915206 0.0896468 0
0.0158694 0.185321 0
0.0996109 0.193957 0
0.200412 0.198932 0.00378424
0.327932 0.198322 0.00276188
0.468635 0.195972 0
0.611139 0.194293 0
0.742443 0.196841 0.000747692
0.857237 0.204761 0.0105745
0.946792 0.219913 0.0294194
0.0133822 0.307485 0
0.100542 0.320104 0
0.20441 0.329213 0.00750744
0.335378 0.33228 0.0109407
0.47921 0.332631 0.0112917
0.624292 0.332952 0.01178
0.757168 0.336751 0.0166476
0.87216 0.344945 0.027039
0.961151 0.360159 0.0441444
0.0126955 0.446738 0
0.102022 0.461753 0
0.20705 0.473045 0.00953689
0.338354 0.477211 0.0141146
0.482429 0.477699 0.0145418
0.627466 0.477501 0.0143435
0.76051 0.480507 0.0180362
0.875212 0.487831 0.0273747
0.963165 0.501732 0.0432746
0.0161746 0.591546 0
0.106004 0.606241 0.000656138
0.210468 0.617182 0.0128634
0.34052 0.620798 0.0167697
0.483772 0.620447 0.016083
0.628199 0.619181 0.0145113
0.760952 0.620691 0.0162356
0.874525 0.626154 0.0226291
0.961074 0.638041 0.037232
0.0252537 0.731792 0
0.116075 0.744976 0.0123903
0.219715 0.754635 0.0238956
0.347936 0.757076 0.0262913
0.489281 0.754894 0.0228428
0.631769 0.751568 0.0183261
0.762188 0.749844 0.0158541
0.873381 0.752178 0.0182803
0.956954 0.760449 0.028275
0.0442817 0.861738 0.0246281
0.135927 0.872526 0.0383001
0.237781 0.879316 0.0462348
0.362966 0.878706 0.0449073
0.501183 0.873426 0.037583
0.63978 0.866468 0.0273289
0.767132 0.86125 0.0201419
0.874983 0.859831 0.0177768
0.95523 0.864424 0.0234073
0.0736095 0.975662 0.064683
0.16405 0.982315 0.0729534
0.263676 0.985199 0.0761578
0.386389 0.980667 0.0703899
0.520867 0.971679 0.0590372
0.655589 0.961257 0.0454108
0.779248 0.953002 0.0332647
0.883955 0.94873 0.0269474
0.961257 0.950423 0.0289616
0 0 0.0523842
0.0714885 0 0.0622416
0.170596 0 0.0675059
0.294041 0 0.0641794
0.430472 0 0.0576028
0.567849 0 0.0501411
0.693858 0 0.0460059
0.803174 0 0.048188
0.887312 0 0.0587472
0.00901808 0.0802014 0.0773632
0.09131 0.0869764 0.0849317
0.19028 0.0899214 0.0882734
0.314488 0.0863661 0.0843824
0.451347 0.0807813 0.0782483
0.589883 0.075639 0.0726177
0.718059 0.0749828 0.0720989
0.830213 0.0799725 0.0779431
0.918013 0.0928817 0.0923934
0.0171817 0.186801 0.0862745
0.101122 0.19585 0.0956588
0.202548 0.20119 0.101259
0.330709 0.200961 0.101091
0.471763 0.198901 0.0990768
0.614511 0.197559 0.0978714
0.745907 0.200473 0.101244
0.860868 0.208698 0.110216
0.950469 0.223865 0.126177
0.0157015 0.310552 0.0842451
0.103075 0.323354 0.0970169
0.20763 0.332815 0.10663
0.339117 0.336095 0.110109
0.483192 0.336614 0.110933
0.628138 0.336934 0.11165
0.760708 0.340749 0.116014
0.875685 0.34905 0.124849
0.96463 0.364157 0.140002
0.0150912 0.450462 0.082887
0.105165 0.465705 0.0983291
0.210651 0.477028 0.109865
0.342184 0.481025 0.113985
0.486198 0.481392 0.114504
0.631174 0.481239 0.11458
0.763836 0.484169 0.117876
0.878462 0.491554 0.125719
0.966415 0.505455 0.139849
0.0187381 0.595529 0.0868238
0.109209 0.610071 0.102098
0.213947 0.62089 0.113359
0.344182 0.624308 0.116854
0.48716 0.623606 0.116075
0.631586 0.622415 0.114778
0.763912 0.623804 0.116182
0.87715 0.629084 0.121691
0.963577 0.640787 0.134035
0.027985 0.735424 0.0981613
0.119265 0.748425 0.112825
0.223072 0.7579 0.12314
0.351125 0.759808 0.12491
0.492439 0.757519 0.121965
0.634501 0.753841 0.117372
0.764355 0.751827 0.114443
0.875074 0.753872 0.116106
0.958114 0.761578 0.124926
0.0470283 0.864881 0.122393
0.138766 0.875334 0.134905
0.240421 0.881636 0.141924
0.365576 0.880674 0.140444
0.50338 0.874968 0.133379
0.641428 0.867552 0.123934
0.768231 0.862028 0.116243
0.875669 0.860334 0.112825
0.95552 0.864576 0.118059
0.0757153 0.977752 0.158785
0.165789 0.983917 0.166278
0.265293 0.98645 0.169085
0.387747 0.981491 0.163226
0.521843 0.972137 0.152087
0.656123 0.961379 0.138796
0.779324 0.952819 0.127367
0.883711 0.948318 0.12018
0.960266 0.94934 0.120974
0 0 0.155886
0.0727092 0 0.165881
0.171572 0 0.170535
0.295216 0 0.167437
0.431281 0 0.160754
0.568658 0 0.153719
0.69485 0 0.150134
0.80441 0 0.15256
0.888975 0 0.162875
0.00968948 0.080827 0.17998
0.0920577 0.0877089 0.187503
0.19118 0.0907454 0.190875
0.315847 0.0875715 0.187503
0.452857 0.0821088 0.181643
0.59176 0.0773327 0.176562
0.720363 0.0771649 0.176577
0.832853 0.0825208 0.182559
0.921065 0.0958419 0.196841
0.0184939 0.188266 0.189441
0.102541 0.197406 0.198779
0.20444 0.203128 0.204685
0.333318 0.203479 0.205097
0.474617 0.201617 0.203281
0.6177 0.200641 0.202411
0.749279 0.203861 0.205936
0.864393 0.212284 0.214786
0.954025 0.227481 0.230335
0.0178531 0.313146 0.188556
0.105653 0.326314 0.201419
0.210681 0.33608 0.211124
0.34255 0.339544 0.214694
0.486549 0.33994 0.215351
0.631693 0.34052 0.216251
0.764065 0.344274 0.220371
0.879026 0.352636 0.228977
0.96788 0.36759 0.243626
0.0177462 0.454032 0.188403
0.108339 0.469398 0.203418
0.213993 0.480644 0.214557
0.345663 0.48452 0.218479
0.489632 0.484779 0.218921
0.634562 0.484611 0.219013
0.766995 0.487419 0.222141
0.881285 0.494499 0.229435
0.969375 0.508553 0.243244
0.0213321 0.599039 0.192584
0.112276 0.613581 0.207126
0.217105 0.624231 0.217853
0.347433 0.627497 0.221164
0.490349 0.626673 0.220417
0.634592 0.625315 0.21915
0.766323 0.62623 0.220203
0.879515 0.63151 0.22562
0.965652 0.642893 0.237018
0.0303044 0.738338 0.203632
0.122087 0.751476 0.217578
0.225925 0.760769 0.227283
0.353902 0.762387 0.228824
0.494926 0.759747 0.225879
0.636286 0.755444 0.221149
0.765927 0.753277 0.218631
0.876219 0.754955 0.220157
0.958938 0.76231 0.227939
0.0492103 0.867399 0.226947
0.140902 0.877531 0.238346
0.242329 0.883467 0.244739
0.367224 0.882078 0.243061
0.504326 0.875761 0.235904
0.642145 0.868086 0.227222
0.768444 0.862135 0.220249
0.875441 0.860044 0.217456
0.95491 0.863874 0.221683
0.0770275 0.979156 0.260426
0.166827 0.984939 0.267247
0.265995 0.987091 0.269612
0.388083 0.98172 0.26363
0.52163 0.971908 0.252674
0.65565 0.960891 0.240223
0.778485 0.95198 0.229847
0.882506 0.947082 0.223789
0.958022 0.947143 0.223636
0 0 0.278889
0.0724498 0 0.28893
0.171023 0 0.293355
0.294591 0 0.290105
0.430777 0 0.283314
0.568078 0 0.275822
0.694789 0 0.272282
0.804501 0 0.274449
0.889464 0 0.285328
0.00894179 0.0798962 0.302937
0.0915694 0.0870985 0.311086
0.190524 0.0900587 0.314397
0.315557 0.0872969 0.311299
0.452811 0.0820935 0.305409
0.592187 0.0777142 0.300404
0.721279 0.0780041 0.300465
0.834211 0.0837568 0.306538
0.922759 0.0974136 0.321324
0.0183108 0.188006 0.313085
0.102678 0.197467 0.323049
0.204944 0.203601 0.329427
0.334234 0.204379 0.330144
0.475959 0.20293 0.328481
0.61941 0.202274 0.327611
0.751263 0.205768 0.331029
0.866361 0.214191 0.339605
0.9561 0.229526 0.355505
0.0188144 0.314275 0.313146
0.107012 0.327779 0.326696
0.21236 0.337819 0.336782
0.344228 0.341238 0.3402
0.488579 0.341955 0.340932
0.633722 0.342535 0.341527
0.766018 0.346242 0.345266
0.88101 0.354589 0.353643
0.969772 0.369436 0.368429
0.0194705 0.456184 0.3131
0.110231 0.471504 0.328557
0.215885 0.482628 0.339742
0.347585 0.486458 0.343572
0.491463 0.48658 0.343633
0.636408 0.486412 0.34342
0.768765 0.489143 0.346075
0.882963 0.496117 0.352987
0.970916 0.510018 0.366918
0.022858 0.600961 0.316182
0.114061 0.615549 0.331319
0.218814 0.626017 0.342016
0.348928 0.628992 0.344945
0.491981 0.62826 0.343999
0.636072 0.626749 0.342229
0.76762 0.627436 0.342657
0.880522 0.632425 0.347509
0.966155 0.643244 0.358633
0.0317998 0.7402 0.326146
0.123583 0.753094 0.340383
0.22707 0.761975 0.349813
0.355016 0.7635 0.351156
0.49575 0.760555 0.347616
0.636805 0.755932 0.342168
0.766125 0.753414 0.338888
0.87599 0.754604 0.339559
0.958419 0.761685 0.34725
0.0501411 0.868544 0.348074
0.141314 0.878004 0.359243
0.242649 0.883833 0.365667
0.367147 0.882094 0.363455
0.503868 0.875425 0.355566
0.641337 0.867414 0.346059
0.767346 0.861097 0.338216
0.874113 0.858686 0.334676
0.953292 0.862257 0.338659
0.076585 0.97879 0.380484
0.166247 0.984375 0.387518
0.265003 0.986175 0.389532
0.386587 0.980484 0.38291
0.519738 0.970352 0.371054
0.65362 0.959167 0.357839
0.776318 0.949996 0.346548
0.880034 0.944701 0.339498
0.954681 0.943954 0.33817
0 0 0.419089
0.0713664 0 0.428199
0.169299 0 0.432044
0.292882 0 0.429099
0.428916 0 0.42237
0.566232 0 0.415045
0.693294 0 0.411826
0.803388 0 0.414267
0.888884 0 0.425467
0.0071107 0.0778363 0.441093
0.0898604 0.0851453 0.449134
0.188846 0.0883803 0.452644
0.314031 0.0859388 0.450019
0.451621 0.0810864 0.444709
0.591562 0.0771496 0.44036
0.721096 0.0777295 0.440803
0.83447 0.0838636 0.447181
0.923369 0.0978561 0.461982
0.0172122 0.186679 0.451942
0.102007 0.196536 0.462058
0.204532 0.203128 0.468772
0.334157 0.204349 0.469978
0.476249 0.20325 0.468788
0.62005 0.202869 0.468299
0.752102 0.20647 0.471839
0.867216 0.214862 0.480232
0.957107 0.230365 0.495918
0.0188449 0.314275 0.45359
0.107561 0.328161 0.467185
0.213107 0.338521 0.477363
0.345144 0.342138 0.48098
0.489494 0.34284 0.481758
0.634592 0.343313 0.482307
0.766918 0.346975 0.486
0.881666 0.354986 0.493935
0.970611 0.370016 0.508553
0.020264 0.457023 0.454582
0.111116 0.472343 0.469688
0.216663 0.483375 0.480552
0.348104 0.486976 0.484123
0.492164 0.487282 0.484459
0.636988 0.486931 0.484138
0.76936 0.489555 0.486717
0.883513 0.496406 0.493431
0.971298 0.51014 0.506889
0.0235294 0.601678 0.457649
0.114717 0.616175 0.472358
0.219318 0.62652 0.482734
0.349203 0.629343 0.485512
0.49221 0.628534 0.484611
0.636133 0.626795 0.482734
0.767514 0.627176 0.482948
0.880171 0.63183 0.487419
0.965408 0.642267 0.497902
0.0321202 0.740566 0.46714
0.123751 0.753307 0.480949
0.226917 0.761883 0.489906
0.354559 0.763226 0.491112
0.494804 0.759823 0.487251
0.63566 0.754925 0.481727
0.764721 0.75201 0.478126
0.874189 0.752682 0.478264
0.956344 0.759487 0.485527
0.0497139 0.868116 0.487892
0.140505 0.877256 0.498527
0.241413 0.882734 0.504494
0.36527 0.880583 0.50193
0.50164 0.87361 0.493935
0.638727 0.865217 0.484199
0.764523 0.858488 0.47602
0.870939 0.855589 0.471901
0.949981 0.859007 0.47567
0.0749828 0.977188 0.518441
0.164218 0.982391 0.524926
0.26247 0.983856 0.526574
0.383474 0.97789 0.519844
0.516228 0.967453 0.507958
0.649821 0.955978 0.494667
0.772427 0.946471 0.483116
0.875517 0.940398 0.475074
0.949523 0.93904 0.472923
0 0 0.556786
0.0700999 0 0.565316
0.168078 0 0.569345
0.291173 0 0.566232
0.427085 0 0.559701
0.564569 0 0.552758
0.692042 0 0.54992
0.802563 0 0.552728
0.888579 0 0.564172
0.00552377 0.0759136 0.577417
0.0883955 0.0834058 0.585306
0.187488 0.0869917 0.589136
0.312764 0.0848554 0.586954
0.450721 0.0803388 0.5823
0.591196 0.0768444 0.578668
0.721233 0.0777142 0.579583
0.835035 0.0842145 0.586297
0.924239 0.0985428 0.601022
0.0162966 0.185641 0.589059
0.101625 0.195895 0.599222
0.204715 0.203265 0.606531
0.33434 0.204593 0.607935
0.476783 0.203815 0.607248
0.620905 0.203677 0.607202
0.753262 0.207462 0.611002
0.868406 0.215839 0.619318
0.958251 0.231296 0.63447
0.0192569 0.314641 0.592462
0.108339 0.32874 0.605798
0.213931 0.339239 0.615839
0.346075 0.343069 0.619654
0.490532 0.343862 0.620645
0.635569 0.344182 0.621225
0.767956 0.347768 0.624933
0.88275 0.355764 0.632792
0.971588 0.370657 0.64683
0.02121 0.457984 0.594415
0.112123 0.473259 0.609003
0.217594 0.484276 0.619547
0.348928 0.487831 0.623087
0.492943 0.48806 0.623499
0.63769 0.487541 0.623194
0.769818 0.489769 0.625513
0.884138 0.496727 0.632319
0.971756 0.510292 0.645212
0.0243229 0.602472 0.597559
0.11545 0.616846 0.611749
0.219928 0.627115 0.62182
0.349645 0.629877 0.624567
0.492485 0.628885 0.623652
0.63595 0.626612 0.621454
0.767437 0.626932 0.621729
0.879835 0.631205 0.625849
0.964752 0.641306 0.635752
0.0325017 0.740963 0.606699
0.123964 0.753552 0.62002
0.226856 0.761913 0.628595
0.35407 0.762966 0.629587
0.493782 0.759075 0.625406
0.63444 0.753902 0.619852
0.763272 0.750561 0.616007
0.87245 0.75082 0.615839
0.954253 0.757259 0.622553
0.0492256 0.867628 0.626307
0.139666 0.876493 0.636408
0.240131 0.881621 0.641917
0.363226 0.879011 0.638972
0.499306 0.871778 0.630976
0.635996 0.862974 0.621149
0.761624 0.855863 0.612863
0.867842 0.852567 0.60853
0.946654 0.855756 0.611963
0.0733196 0.975555 0.655024
0.162158 0.980407 0.66096
0.259876 0.981537 0.662242
0.380041 0.975143 0.655268
0.512642 0.964569 0.643626
0.645945 0.952804 0.630411
0.768475 0.942931 0.61886
0.87068 0.935836 0.609903
0.943969 0.933791 0.607019
0 0 0.682673
0.0697795 0 0.690379
0.167681 0 0.694301
0.290455 0 0.691356
0.426261 0 0.685344
0.564157 0 0.679423
0.691814 0 0.67715
0.802762 0 0.680522
0.889296 0 0.691875
0.00503548 0.0753185 0.70161
0.087953 0.0826886 0.708751
0.187381 0.0868391 0.712932
0.312612 0.0848249 0.711223
0.45095 0.0806592 0.7075
0.592065 0.0776684 0.704967
0.722454 0.0787213 0.706538
0.836652 0.0855268 0.713664
0.926207 0.100191 0.727901
0.0164797 0.185687 0.713634
0.102327 0.196384 0.723461
0.205753 0.204227 0.730877
0.335668 0.205951 0.732815
0.478416 0.205447 0.732815
0.622827 0.205509 0.733394
0.755123 0.209079 0.737331
0.870573 0.217716 0.745892
0.960357 0.233127 0.760098
0.0205539 0.316014 0.718944
0.110185 0.330495 0.731655
0.215793 0.341054 0.741268
0.348104 0.345098 0.745296
0.492531 0.345815 0.746517
0.637537 0.346029 0.747387
0.769924 0.349462 0.751293
0.884764 0.357427 0.759152
0.973526 0.372244 0.772274
0.0229191 0.459892 0.722408
0.113985 0.475105 0.735882
0.219425 0.486107 0.745861
0.350698 0.489662 0.749432
0.494606 0.489723 0.750042
0.639277 0.489036 0.750088
0.77142 0.491112 0.752682
0.885634 0.497887 0.759396
0.972885 0.511025 0.771145
0.025803 0.604105 0.726284
0.116945 0.618357 0.739345
0.221103 0.628305 0.748669
0.350896 0.631235 0.751675
0.493553 0.630014 0.750973
0.636805 0.627436 0.74905
0.768078 0.62739 0.749462
0.879988 0.631022 0.753185
0.964797 0.641032 0.762402
0.0335088 0.742107 0.73579
0.12462 0.754269 0.747784
0.227481 0.762676 0.756008
0.354269 0.763424 0.756878
0.493599 0.759136 0.752895
0.633875 0.753536 0.7476
0.762203 0.749508 0.74374
0.871321 0.749523 0.743755
0.952773 0.755627 0.749752
0.0491188 0.867628 0.754314
0.139437 0.876402 0.763592
0.239475 0.881209 0.768551
0.361975 0.878233 0.765652
0.497581 0.870573 0.757977
0.633844 0.861326 0.748592
0.759197 0.853712 0.740642
0.865309 0.850111 0.736629
0.943877 0.85304 0.739666
0.0722667 0.974609 0.780713
0.160739 0.979126 0.785794
0.257816 0.979812 0.786664
0.377508 0.973266 0.780194
0.509682 0.962356 0.769192
0.642649 0.950225 0.756741
0.764843 0.939788 0.745678
0.866316 0.931762 0.736675
0.938735 0.928862 0.733242
0 0 0.78735
0.0710613 0 0.794156
0.168765 0 0.797787
0.291585 0 0.795209
0.427237 0 0.789517
0.565454 0 0.784344
0.693416 0 0.782727
0.804837 0 0.786664
0.891859 0 0.79794
0.00578317 0.0760815 0.804501
0.0890822 0.08365 0.811399
0.188769 0.0881361 0.815778
0.31429 0.0864881 0.814618
0.453071 0.0826886 0.811643
0.594644 0.0800641 0.809857
0.72549 0.0814527 0.81207
0.840055 0.0885634 0.819547
0.92987 0.103517 0.833417
0.0180209 0.187564 0.817334
0.104616 0.198611 0.826978
0.208453 0.206912 0.834562
0.33872 0.208988 0.836896
0.481819 0.208759 0.837415
0.626245 0.208759 0.838239
0.758831 0.212573 0.842603
0.874281 0.22118 0.851102
0.964065 0.236561 0.864652
0.0233005 0.319158 0.824155
0.11342 0.333822 0.836347
0.219333 0.34464 0.845853
0.35172 0.34873 0.849882
0.496101 0.349325 0.851194
0.641108 0.349477 0.852277
0.773358 0.352682 0.856229
0.888258 0.360647 0.864134
0.976974 0.375387 0.876616
0.0259709 0.463478 0.828702
0.11725 0.478584 0.84126
0.222553 0.489311 0.850675
0.354055 0.493065 0.854429
0.497826 0.492927 0.855131
0.642298 0.491981 0.855299
0.774533 0.494026 0.858183
0.888609 0.500618 0.86479
0.975631 0.513497 0.875761
0.0285801 0.607431 0.833112
0.119905 0.62153 0.845289
0.224063 0.631403 0.8542
0.353735 0.634165 0.85713
0.496071 0.632563 0.856428
0.639216 0.629801 0.85478
0.77023 0.629374 0.855238
0.881834 0.632624 0.858839
0.966339 0.642298 0.867247
0.035874 0.74493 0.842939
0.126986 0.756863 0.853971
0.229633 0.764965 0.861616
0.355749 0.765133 0.862119
0.494987 0.760693 0.858442
0.634897 0.754681 0.853376
0.762905 0.750179 0.849699
0.871702 0.749752 0.849699
0.952819 0.755505 0.855055
0.0505837 0.869398 0.860655
0.140658 0.877836 0.868971
0.240116 0.882078 0.873228
0.362295 0.87892 0.870497
0.497459 0.870832 0.863096
0.633341 0.861189 0.85417
0.758297 0.853025 0.84654
0.864347 0.84918 0.842969
0.942672 0.851835 0.845624
0.0726024 0.975174 0.884794
0.160754 0.979339 0.889128
0.25742 0.979721 0.889784
0.376562 0.972885 0.883574
0.50837 0.961639 0.873137
0.64097 0.949142 0.861387
0.762417 0.937835 0.850538
0.863325 0.929061 0.841917
0.935042 0.925444 0.838331
0 0 0.870604
0.0737163 0 0.877287
0.171221 0 0.880629
0.294118 0 0.878111
0.429953 0 0.872663
0.568475 0 0.867842
0.696788 0 0.866636
0.808728 0 0.871092
0.896147 0 0.882582
0.00799573 0.0784619 0.887343
0.0916762 0.0862287 0.894347
0.19176 0.0910353 0.899001
0.317754 0.0897383 0.898207
0.457008 0.0863508 0.895659
0.599008 0.0841077 0.894286
0.73019 0.0858778 0.896864
0.845029 0.0932937 0.904601
0.935042 0.108431 0.918486
0.0212253 0.191089 0.901061
0.108492 0.202747 0.911131
0.212665 0.211185 0.918837
0.343435 0.213596 0.921462
0.48687 0.213611 0.922194
0.63151 0.213825 0.923232
0.764004 0.217639 0.927596
0.879332 0.226184 0.935988
0.969116 0.241535 0.949401
0.0273289 0.323888 0.908858
0.117845 0.338674 0.92105
0.224231 0.349783 0.930694
0.356786 0.353811 0.934661
0.501122 0.354284 0.935866
0.64593 0.354238 0.936843
0.778256 0.35761 0.940948
0.892973 0.365408 0.948684
0.981643 0.380072 0.960998
0.0302586 0.468727 0.913863
0.121813 0.48368 0.926162
0.227314 0.494347 0.935454
0.358907 0.497932 0.939086
0.502602 0.497642 0.939696
0.646876 0.496468 0.939742
0.779004 0.498512 0.942626
0.892866 0.504906 0.94905
0.979675 0.517525 0.959686
0.0326085 0.612421 0.918257
0.124163 0.626215 0.930022
0.228489 0.636042 0.938811
0.35816 0.63859 0.941558
0.500175 0.636606 0.940581
0.643183 0.633677 0.938872
0.773739 0.632822 0.939071
0.885039 0.635782 0.942443
0.969207 0.64509 0.950408
0.0395361 0.749355 0.927855
0.130816 0.761013 0.938445
0.233326 0.768765 0.945693
0.359213 0.768521 0.945876
0.498116 0.763699 0.941985
0.637568 0.757244 0.936675
0.765225 0.752407 0.932891
0.873655 0.751598 0.932662
0.954421 0.756985 0.937606
0.0534829 0.87277 0.944671
0.14342 0.880781 0.952422
0.242557 0.884596 0.956252
0.364401 0.881056 0.953262
0.499168 0.872572 0.945708
0.634684 0.862577 0.936721
0.759365 0.854078 0.929107
0.865156 0.849928 0.92549
0.943191 0.852308 0.927855
0.074403 0.977234 0.967285
0.162249 0.980972 0.97116
0.258549 0.980972 0.971466
0.377432 0.973922 0.965225
0.508934 0.962402 0.954772
0.641215 0.949615 0.943084
0.761593 0.937285 0.931701
0.86186 0.927764 0.922835
0.93312 0.923674 0.919066
