Grain/Grain/Resources/Luts/Film Emulation/MODERN_FILM_01.cube
LUT_3D_SIZE 33
0 0 0
0.00689708 0 0
0.026688 0 0
0.0477913 0 0
0.0696727 0 0
0.0928969 0 0
0.116823 0 0
0.142275 0 0
0.1691 0 0
0.19794 0 0
0.227955 0 0
0.260029 0 0
0.292973 0 0
0.32697 0 0
0.361059 0 0
0.395071 0 0
0.42948 0 0
0.463798 0 0
0.498543 0 0
0.532784 0 0
0.566842 0 0
0.599802 0 0
0.631754 0 0
0.662989 0 0
0.692805 0 0
0.721599 0 0
0.749081 0 0
0.775662 0 0
0.801923 0 0
0.826352 0 0
0.848112 0 0
0.867628 0 0
0.885679 0 0
0 0.000793469 0
0.0139925 0.00297551 0
0.0347601 0.00549325 0
0.0557565 0.00729381 0
0.0778973 0.00915541 0
0.100481 0.0103761 0
0.124529 0.0116121 0
0.149569 0.0120851 0
0.176684 0.0124056 0
0.205188 0.011902 0
0.235233 0.010956 0
0.267292 0.00987259 0
0.300206 0.00813306 0
0.334127 0.0065156 0
0.367971 0.00453193 0
0.402335 0.00280766 0
0.436484 0.000762951 0
0.470741 0 0
0.50547 0 0
0.539742 0 0
0.573861 0 0
0.606928 0 0
0.639033 0 0
0.670451 0 0
0.700481 0 0
0.729274 0 0
0.757275 0 0
0.784131 0 0
0.810605 0 0
0.83537 0 0
0.857404 0 0
0.877089 0 0
0.895491 0.000137331 0
0 0.0272374 0
0.0194705 0.0294194 0
0.039826 0.0315099 0
0.0607462 0.0333104 0
0.0826123 0.0348669 0
0.105074 0.035996 0
0.129046 0.0371099 0
0.15404 0.0375219 0
0.181109 0.0377661 0
0.209567 0.0372473 0
0.239841 0.0365759 0
0.27155 0.0352483 0
0.304356 0.0335851 0
0.338125 0.0320745 0
0.371832 0.0301976 0
0.405875 0.0284276 0
0.440146 0.0266728 0
0.474495 0.0247196 0
0.509285 0.0230869 0
0.543603 0.0212406 0
0.577493 0.0196078 0
0.610834 0.0184482 0
0.642969 0.0173495 0
0.674449 0.0168765 0
0.70454 0.0164797 0
0.733379 0.016495 0
0.761517 0.0171664 0
0.78854 0.0178225 0
0.814984 0.0187228 0
0.840146 0.0204623 0
0.862287 0.0227359 0
0.881849 0.0257877 0
0.900496 0.029572 0
0.00386053 0.0532692 0
0.0240024 0.0554513 0
0.0440528 0.0572213 0
0.0650339 0.0591135 0
0.0866712 0.0604105 0
0.109102 0.0614939 0
0.133043 0.062562 0
0.158053 0.0629587 0
0.185153 0.0631876 0
0.213672 0.0626841 0
0.2439 0.0619516 0
0.275761 0.0607614 0
0.308583 0.0591745 0
0.342382 0.0577401 0
0.376135 0.0559854 0
0.410269 0.0543832 0
0.444602 0.0527352 0
0.479026 0.0509499 0
0.513909 0.049485 0
0.548287 0.047837 0
0.582193 0.0463874 0
0.615671 0.0455177 0
0.647883 0.0446784 0
0.679133 0.0441749 0
0.709575 0.044358 0
0.738506 0.0446479 0
0.766476 0.0452888 0
0.793912 0.04654 0
0.820508 0.0477302 0
0.845609 0.0494087 0
0.86833 0.0522164 0
0.888258 0.0554818 0
0.907027 0.0591287 0
0.00766003 0.0789807 0
0.0278019 0.0810712 0
0.0477913 0.0827802 0
0.0687572 0.0846571 0
0.0903792 0.0859388 0
0.112993 0.0872053 0
0.136843 0.0881208 0
0.161898 0.0885328 0
0.18909 0.0888075 0
0.217716 0.088365 0
0.248127 0.0877699 0
0.280018 0.0866102 0
0.312978 0.0851301 0
0.346899 0.0838331 0
0.380758 0.0822309 0
0.414893 0.0806134 0
0.449577 0.0793011 0
0.484169 0.0777142 0
0.519005 0.0762646 0
0.55378 0.0750439 0
0.587854 0.0738231 0
0.621195 0.0729229 0
0.653864 0.0726024 0
0.685283 0.0723735 0
0.715724 0.0726329 0
0.745007 0.0733806 0
0.773159 0.0742809 0
0.800519 0.0755016 0
0.827619 0.0772564 0
0.852964 0.0792096 0
0.875654 0.0819562 0
0.896132 0.0857099 0
0.915206 0.0896468 0
0.0110323 0.10486 0
0.0309453 0.106844 0
0.0509346 0.108583 0
0.0719158 0.110475 0
0.0935836 0.111803 0
0.116106 0.112947 0
0.140169 0.114092 0
0.165362 0.114595 0
0.192676 0.114977 0
0.221454 0.114626 0
0.251789 0.113924 0
0.284108 0.11313 0
0.317235 0.111818 0
0.351354 0.110689 0
0.385428 0.109285 0
0.419776 0.107866 0
0.454688 0.106752 0
0.489509 0.105379 0
0.524483 0.104067 0
0.559579 0.103166 0
0.593896 0.102205 0
0.62742 0.101534 0
0.660212 0.101396 0
0.691936 0.101518 0
0.722469 0.10193 0
0.751904 0.102876 0
0.780468 0.10425 0
0.808057 0.105714 0
0.835096 0.107439 0
0.860853 0.109834 0
0.883894 0.112902 0
0.904341 0.116609 0
0.923308 0.120775 0.00158694
0.0134127 0.130907 0
0.033402 0.133043 0
0.0534524 0.134859 0
0.074464 0.136812 0
0.0962081 0.138262 0
0.118853 0.139528 0
0.143038 0.14078 0
0.168368 0.141405 0
0.195727 0.141802 0
0.224826 0.141741 0
0.255375 0.141207 0
0.287938 0.140612 0
0.321324 0.139498 0
0.355352 0.138277 0
0.38996 0.137362 0
0.424598 0.136172 0
0.459449 0.134997 0
0.494881 0.134157 0
0.530114 0.133059 0
0.565148 0.132113 0
0.599985 0.131655 0
0.633799 0.131273 0
0.666621 0.131212 0
0.698604 0.131609 0
0.729549 0.132479 0
0.759091 0.133562 0
0.787686 0.134966 0
0.815778 0.136995 0
0.84303 0.138933 0
0.868788 0.141329 0
0.891905 0.144503 0.000976577
0.912749 0.148608 0.00619516
0.931899 0.153002 0.0122377
0.0151369 0.157763 0
0.035111 0.15993 0
0.0552377 0.161883 0
0.0763409 0.163973 0
0.0982071 0.16556 0
0.120974 0.166979 0
0.145327 0.168414 0
0.170855 0.169238 0.000900282
0.198245 0.16965 0.00135805
0.227756 0.16997 0.00169375
0.258534 0.16965 0.00120546
0.291035 0.168963 0.000274662
0.325002 0.168353 0
0.359289 0.167361 0
0.393881 0.1664 0
0.429129 0.165728 0
0.464271 0.164782 0
0.499672 0.163882 0
0.535515 0.163348 0
0.57084 0.162646 0
0.605676 0.162173 0
0.639796 0.162097 0
0.673091 0.162478 0
0.70518 0.162997 0
0.736141 0.163897 0
0.766186 0.165515 0
0.794965 0.167132 0
0.822934 0.169039 0
0.85037 0.17116 0.00250248
0.87657 0.17406 0.00610361
0.899809 0.177371 0.0104219
0.920516 0.181384 0.0158083
0.939696 0.185885 0.0213779
0.0158694 0.185321 0
0.0360876 0.187762 0
0.0563363 0.189868 0
0.0774548 0.19202 0
0.0996109 0.193957 0
0.12253 0.19559 0
0.146929 0.197086 0.00164797
0.172793 0.198291 0.00306706
0.200412 0.198932 0.00378424
0.230137 0.199481 0.0043946
0.261189 0.19939 0.00422675
0.293965 0.198947 0.00358587
0.327932 0.198322 0.00276188
0.362783 0.197818 0.00209049
0.39765 0.197086 0.00115969
0.432868 0.196368 0.000228885
0.468635 0.195972 0
0.504326 0.195315 0
0.540124 0.194705 0
0.575784 0.194278 0
0.611139 0.194293 0
0.645411 0.194339 0
0.678706 0.19472 0
0.711192 0.195651 0
0.742443 0.196841 0.000747692
0.772351 0.198322 0.00254826
0.801297 0.200122 0.00474556
0.829541 0.202335 0.00747692
0.857237 0.204761 0.0105745
0.883223 0.207431 0.0142367
0.906538 0.210864 0.0185855
0.927321 0.215015 0.0236057
0.946792 0.219913 0.0294194
0.0159457 0.214099 0
0.0363928 0.216724 0
0.0567941 0.219074 0
0.0779583 0.221286 0
0.100404 0.223621 0
0.123522 0.225483 0.000717174
0.147982 0.227085 0.00259403
0.174166 0.228702 0.00448615
0.202014 0.229587 0.00550851
0.231693 0.230091 0.00605783
0.263081 0.23035 0.00630198
0.296315 0.230335 0.00622568
0.33051 0.229923 0.00564584
0.365393 0.229419 0.0049897
0.40087 0.229236 0.0047303
0.436362 0.228733 0.00410468
0.472084 0.228275 0.00354009
0.508309 0.228092 0.00329595
0.544411 0.227726 0.0028687
0.58027 0.227466 0.00256352
0.615579 0.22739 0.00250248
0.650111 0.227665 0.00285344
0.683848 0.228489 0.00384527
0.716304 0.229374 0.00494392
0.747616 0.23061 0.00646983
0.777646 0.232227 0.00848402
0.806958 0.23444 0.0112612
0.835142 0.236591 0.0141451
0.86273 0.238911 0.0172427
0.888792 0.241672 0.0206607
0.912154 0.245197 0.0248722
0.933165 0.249683 0.0301061
0.9523 0.254322 0.0354162
0.015671 0.244007 0
0.0360266 0.246571 0
0.0568856 0.249485 0
0.0782177 0.251957 0
0.100603 0.254246 0
0.124178 0.256687 0.00112917
0.148821 0.258549 0.00328069
0.17496 0.260121 0.00509651
0.203281 0.261585 0.00679026
0.233188 0.262333 0.00766003
0.264729 0.262745 0.00808728
0.298009 0.262791 0.00808728
0.332769 0.262913 0.00817884
0.367926 0.262638 0.00779736
0.403326 0.262364 0.0074464
0.439231 0.262242 0.00727855
0.475334 0.262104 0.00712596
0.511513 0.261845 0.00680552
0.547799 0.261616 0.00656138
0.584009 0.261677 0.00665293
0.619654 0.261906 0.00697337
0.654292 0.262272 0.0074464
0.687922 0.262959 0.00831617
0.7205 0.263935 0.00953689
0.752163 0.265568 0.0115816
0.782254 0.267247 0.0137484
0.811322 0.269184 0.016434
0.839536 0.271366 0.0192721
0.867155 0.273732 0.0221714
0.893462 0.276814 0.0258488
0.916747 0.280324 0.0298924
0.937423 0.284504 0.0346532
0.956466 0.289097 0.0398108
0.0145876 0.275349 0
0.0353552 0.278111 0
0.0561685 0.280964 0
0.0779583 0.284016 0
0.100557 0.28658 0
0.124056 0.288975 0.000442512
0.149157 0.291432 0.00325017
0.175479 0.293278 0.00535592
0.203723 0.294697 0.00697337
0.233814 0.295705 0.00813306
0.265843 0.296666 0.00923171
0.299336 0.296925 0.00949111
0.33402 0.296956 0.00947585
0.36939 0.296895 0.0093843
0.405295 0.297093 0.00958267
0.44123 0.296986 0.00944533
0.477363 0.296864 0.00932326
0.513726 0.296757 0.00920119
0.550469 0.296971 0.00946059
0.586679 0.296971 0.00950637
0.622309 0.297154 0.00976577
0.657053 0.297597 0.0103456
0.690898 0.298466 0.0114443
0.72369 0.299641 0.0129397
0.755108 0.300999 0.0146944
0.785214 0.302678 0.0169528
0.814282 0.304616 0.0195621
0.842542 0.306859 0.0223545
0.870298 0.309407 0.0254368
0.896269 0.312139 0.0286259
0.919463 0.315572 0.0325475
0.940063 0.319722 0.0372015
0.959045 0.324315 0.0422827
0.0133822 0.307485 0
0.0346532 0.310842 0
0.0557259 0.313939 0
0.0775006 0.316945 0
0.100542 0.320104 0
0.124239 0.322774 0.000183108
0.149248 0.32517 0.00288396
0.175814 0.327352 0.00535592
0.20441 0.329213 0.00750744
0.234653 0.330449 0.00889601
0.26656 0.331304 0.00987259
0.300206 0.331762 0.0103609
0.335378 0.33228 0.0109407
0.370901 0.332357 0.0109865
0.406683 0.332418 0.0110323
0.442741 0.332433 0.0110628
0.47921 0.332631 0.0112917
0.51577 0.332723 0.0113832
0.5523 0.332692 0.0113832
0.588586 0.332738 0.0114748
0.624292 0.332952 0.01178
0.659327 0.333669 0.0126802
0.693111 0.334447 0.0136721
0.72575 0.335439 0.0149538
0.757168 0.336751 0.0166476
0.787228 0.338369 0.0188907
0.816327 0.340352 0.0214694
0.844633 0.342657 0.0243076
0.87216 0.344945 0.027039
0.898116 0.347646 0.0302129
0.921324 0.35111 0.0341344
0.941924 0.355276 0.0387579
0.961151 0.360159 0.0441444
0.0124666 0.341161 0
0.0336461 0.344472 0
0.0552529 0.34815 0
0.0772412 0.351385 0
0.100221 0.354452 0
0.124071 0.357351 0
0.149508 0.360296 0.00271611
0.176104 0.362585 0.00531014
0.204623 0.364446 0.00741588
0.234989 0.365866 0.00903334
0.267277 0.367224 0.0105592
0.301045 0.367819 0.0112154
0.336019 0.368154 0.0115663
0.371649 0.368338 0.0117342
0.407782 0.368704 0.0121462
0.443976 0.368872 0.0123293
0.480278 0.368917 0.0123751
0.516777 0.368917 0.0123903
0.553338 0.368902 0.0123751
0.589868 0.369177 0.012726
0.62565 0.369436 0.0130617
0.660441 0.369848 0.0135958
0.694148 0.370504 0.014435
0.726772 0.37142 0.01561
0.75819 0.372702 0.0172274
0.788479 0.374563 0.0196536
0.817517 0.376425 0.0221714
0.84567 0.378546 0.0248112
0.873213 0.380835 0.0275578
0.899168 0.38352 0.0307164
0.922408 0.387015 0.0346838
0.94316 0.391363 0.0395209
0.962081 0.395895 0.0445106
0.0121462 0.375738 0
0.0333867 0.379309 0
0.055024 0.382834 0
0.0772412 0.386282 0
0.100664 0.389868 0
0.124681 0.39295 0
0.14995 0.395743 0.00280766
0.176654 0.398215 0.0055848
0.205509 0.400504 0.00817884
0.23595 0.40209 0.0099794
0.267994 0.403235 0.0112612
0.301823 0.403937 0.0120394
0.336843 0.404334 0.0124514
0.372824 0.404868 0.0130159
0.408759 0.40502 0.0131685
0.444877 0.405127 0.0132601
0.481163 0.405173 0.0132906
0.517647 0.405142 0.0132448
0.554452 0.405356 0.0134737
0.590738 0.405356 0.013489
0.626398 0.405478 0.0136416
0.661189 0.405814 0.0140841
0.694926 0.406455 0.0148775
0.727596 0.407401 0.0160372
0.759304 0.408927 0.0179294
0.789395 0.410513 0.0199435
0.818418 0.412345 0.0224613
0.846571 0.414405 0.0250706
0.874067 0.416632 0.0277867
0.899992 0.419303 0.0309148
0.923354 0.422919 0.03505
0.943847 0.426932 0.0395514
0.962722 0.431342 0.0444495
0.0121462 0.410727 0
0.0333562 0.414542 0
0.0555581 0.41854 0
0.0779583 0.422156 0
0.101259 0.425559 0
0.125368 0.428779 7.62951e-05
0.150744 0.431724 0.00334173
0.177722 0.434592 0.00656138
0.206348 0.436698 0.00892653
0.236759 0.438315 0.0107576
0.268803 0.439521 0.0121004
0.302693 0.440314 0.0129702
0.337911 0.44094 0.0136568
0.373587 0.441154 0.0138399
0.409522 0.44126 0.0139315
0.445579 0.441321 0.0139773
0.481804 0.441291 0.0139162
0.518532 0.441505 0.0141451
0.555047 0.441398 0.0140078
0.591333 0.441367 0.0139773
0.62707 0.441474 0.0141299
0.661906 0.44181 0.0145571
0.695949 0.442695 0.0156252
0.728634 0.443595 0.0167239
0.760098 0.444785 0.018204
0.790188 0.446311 0.0200961
0.819211 0.448081 0.0224155
0.847288 0.450065 0.0250553
0.874952 0.452461 0.0280003
0.900786 0.455009 0.0310063
0.923842 0.458274 0.0347601
0.944259 0.462226 0.0392157
0.963104 0.46659 0.0440681
0.0126955 0.446738 0
0.0338293 0.450752 0
0.0560311 0.454505 0
0.078584 0.458213 0
0.102022 0.461753 0
0.12639 0.465324 0.0009308
0.151751 0.468299 0.00422675
0.178485 0.470924 0.00715648
0.20705 0.473045 0.00953689
0.237446 0.474723 0.0114137
0.269673 0.476173 0.0130312
0.30341 0.47686 0.0137789
0.338354 0.477211 0.0141146
0.373968 0.477348 0.0142214
0.409873 0.477394 0.0142519
0.446113 0.477623 0.0144961
0.482429 0.477699 0.0145418
0.518883 0.477623 0.0144503
0.555428 0.477501 0.014313
0.59173 0.47744 0.0142519
0.627466 0.477501 0.0143435
0.662562 0.478004 0.0149691
0.696391 0.478614 0.0157015
0.729076 0.479408 0.0166934
0.76051 0.480507 0.0180362
0.79057 0.48191 0.0197604
0.819547 0.483589 0.0218357
0.847761 0.485695 0.0246586
0.875212 0.487831 0.0273747
0.900984 0.490303 0.0303502
0.92398 0.493523 0.0340887
0.94435 0.497429 0.0384833
0.963165 0.501732 0.0432746
0.0133211 0.482811 0
0.034287 0.486976 0
0.0567636 0.490745 0
0.0795758 0.494682 0
0.103105 0.498299 0
0.127275 0.50161 0.00163272
0.152605 0.504585 0.00491341
0.179263 0.507195 0.00781262
0.207828 0.509361 0.0102388
0.23827 0.511162 0.012253
0.270146 0.512291 0.0135042
0.303822 0.512947 0.0142061
0.33872 0.513283 0.0145266
0.374365 0.51342 0.0146487
0.410468 0.513664 0.0148623
0.446601 0.513802 0.0149996
0.482811 0.513756 0.0149233
0.519234 0.513634 0.0147707
0.555749 0.513466 0.0145876
0.592035 0.513329 0.0144503
0.628031 0.513603 0.0147707
0.662867 0.513771 0.0149996
0.696605 0.514199 0.0155337
0.729259 0.514885 0.0163882
0.760693 0.515892 0.0176089
0.790845 0.517357 0.0193637
0.819974 0.519158 0.0215457
0.848005 0.521004 0.0238651
0.875334 0.523003 0.0265354
0.901045 0.525414 0.0295262
0.923964 0.528542 0.0332189
0.944244 0.532357 0.0375525
0.963409 0.536675 0.0423896
0.0141451 0.519081 0
0.0348363 0.523339 0
0.0578775 0.527337 0
0.0805676 0.531029 0
0.104021 0.534493 0
0.128145 0.537743 0.00236515
0.153414 0.540658 0.0055848
0.18024 0.543496 0.00875868
0.208667 0.545571 0.0110628
0.238865 0.547158 0.0128328
0.27071 0.548318 0.0141146
0.304356 0.548989 0.0148165
0.33933 0.549401 0.0152285
0.375128 0.549706 0.0155337
0.411048 0.549722 0.0155032
0.447013 0.549691 0.0154421
0.483146 0.549584 0.0152895
0.519493 0.549386 0.0150301
0.556008 0.549203 0.0148165
0.592432 0.549157 0.0147707
0.628107 0.54905 0.0146639
0.662928 0.549142 0.0148013
0.696696 0.549508 0.015259
0.729366 0.550149 0.016022
0.760815 0.551095 0.0171664
0.791119 0.552651 0.0190127
0.82005 0.554208 0.0208591
0.84802 0.555962 0.0229953
0.875303 0.55787 0.0253758
0.900908 0.560159 0.0284123
0.92372 0.563195 0.0320745
0.944137 0.567147 0.0366522
0.962997 0.57113 0.0411536
0.0151827 0.555581 0
0.0357061 0.559899 0
0.0586557 0.563455 0
0.0814069 0.567041 0
0.104845 0.570443 0
0.129 0.573678 0.00308232
0.154513 0.576867 0.00663767
0.181064 0.579431 0.00949111
0.209445 0.581506 0.0118105
0.239582 0.583093 0.0135653
0.271336 0.584237 0.0148165
0.304952 0.584909 0.0155337
0.340002 0.585412 0.0160678
0.375525 0.585458 0.0160525
0.411383 0.585382 0.0158999
0.447242 0.58526 0.0157168
0.483268 0.585061 0.0154421
0.519585 0.584833 0.0151522
0.556237 0.584756 0.0150454
0.592432 0.584466 0.0146944
0.628092 0.584283 0.0145113
0.662943 0.584314 0.0145571
0.696696 0.584604 0.0149081
0.729519 0.585321 0.0157473
0.761028 0.586267 0.0168612
0.791043 0.587457 0.0182498
0.819913 0.588891 0.0199435
0.847822 0.590539 0.0218967
0.874998 0.592325 0.0240635
0.900496 0.594491 0.0267185
0.923308 0.597498 0.0306401
0.943435 0.601129 0.0349584
0.962173 0.604959 0.0393683
0.0161746 0.591546 0
0.0362402 0.595865 0
0.0596017 0.599298 0
0.0824903 0.602853 0
0.106004 0.606241 0.000656138
0.130419 0.609735 0.00453193
0.155673 0.612619 0.00775158
0.182162 0.615152 0.0105898
0.210468 0.617182 0.0128634
0.240497 0.618723 0.0145724
0.272404 0.620081 0.016083
0.305837 0.62063 0.0166476
0.34052 0.620798 0.0167697
0.375952 0.620768 0.0166476
0.411749 0.620615 0.0164034
0.447562 0.620447 0.016144
0.483772 0.620447 0.016083
0.520058 0.620172 0.0157168
0.556405 0.619791 0.015259
0.592569 0.61944 0.0148165
0.628199 0.619181 0.0145113
0.663005 0.619104 0.0144045
0.696742 0.619303 0.0146334
0.729595 0.619989 0.0154116
0.760952 0.620691 0.0162356
0.79089 0.621729 0.0174411
0.819669 0.623026 0.0189364
0.847471 0.624521 0.0206912
0.874525 0.626154 0.0226291
0.90013 0.628412 0.0253147
0.922652 0.631113 0.0286564
0.942504 0.634424 0.032929
0.961074 0.638041 0.037232
0.0175021 0.627222 0
0.0374304 0.631571 0
0.0610361 0.634928 0
0.0842603 0.638651 0
0.107866 0.642023 0.00270085
0.132021 0.645151 0.00621042
0.157229 0.647959 0.0093843
0.183627 0.650416 0.0121462
0.211795 0.652354 0.0143282
0.241917 0.654032 0.0162203
0.273457 0.655085 0.01738
0.306783 0.655604 0.0178683
0.34139 0.655741 0.0179446
0.376776 0.655665 0.0177462
0.412558 0.655467 0.0174258
0.448432 0.65536 0.0172122
0.484474 0.655207 0.016968
0.520607 0.65481 0.016434
0.556878 0.654337 0.0158236
0.59295 0.65388 0.0152438
0.628519 0.653513 0.014786
0.663386 0.653437 0.0146639
0.697169 0.653605 0.0148165
0.729686 0.653864 0.0151217
0.760952 0.654429 0.0157473
0.790799 0.655299 0.0167391
0.819455 0.656413 0.0180056
0.847105 0.657725 0.019501
0.874083 0.659266 0.0212863
0.899443 0.66125 0.023621
0.921813 0.663737 0.0266117
0.941497 0.666835 0.0305333
0.959854 0.670207 0.0348516
0.0194247 0.662577 0
0.039292 0.666865 0
0.0632029 0.670298 0
0.0863966 0.673762 0.00151064
0.109987 0.676951 0.00509651
0.134096 0.679957 0.00851453
0.159243 0.682658 0.0115969
0.185565 0.685039 0.014313
0.213931 0.687221 0.0168154
0.243732 0.688624 0.0184024
0.275135 0.689601 0.0194553
0.30837 0.690074 0.0198825
0.342885 0.690166 0.0198672
0.378195 0.690013 0.0195621
0.414176 0.689982 0.0194095
0.449836 0.689662 0.0189212
0.485603 0.689281 0.0183719
0.521614 0.688777 0.0176699
0.557763 0.688182 0.016907
0.593713 0.687587 0.0161288
0.62916 0.687068 0.0154574
0.664042 0.686931 0.0152438
0.697597 0.686824 0.0150607
0.730007 0.686915 0.0151217
0.761135 0.687282 0.0154879
0.790845 0.687953 0.0162203
0.819379 0.688869 0.0172427
0.847013 0.69015 0.0187076
0.873793 0.691447 0.0201877
0.898802 0.693049 0.022034
0.920989 0.695323 0.0247349
0.94052 0.698207 0.0282597
0.958694 0.701335 0.0324102
0.0220188 0.697475 0
0.0420233 0.701839 0
0.0658122 0.704921 0.00102235
0.0890364 0.708141 0.00468452
0.112657 0.711238 0.00823987
0.136797 0.714168 0.0116121
0.161975 0.716884 0.0147555
0.188479 0.719432 0.0177462
0.216495 0.721263 0.0198672
0.246204 0.722622 0.0214084
0.27747 0.723537 0.022385
0.310582 0.723918 0.0226902
0.344991 0.723918 0.0225376
0.380316 0.723781 0.0222171
0.416068 0.723522 0.0217594
0.451606 0.723079 0.0210727
0.487205 0.72256 0.020325
0.523064 0.721904 0.01944
0.55906 0.721172 0.0184634
0.594949 0.720485 0.0175631
0.630442 0.719966 0.016846
0.664912 0.719402 0.0161135
0.698314 0.719081 0.0156405
0.730571 0.718975 0.0154421
0.761547 0.719112 0.0155337
0.791104 0.71957 0.0159762
0.819471 0.720287 0.0167544
0.846967 0.721386 0.0179751
0.873487 0.722393 0.0191043
0.898314 0.723766 0.0206912
0.920287 0.725795 0.0230869
0.939635 0.728466 0.0263218
0.957656 0.73138 0.029984
0.0252537 0.731792 0
0.0451362 0.735866 0.00177005
0.0690166 0.738857 0.00523384
0.0923934 0.74197 0.00886549
0.116075 0.744976 0.0123903
0.14023 0.747829 0.0157473
0.165591 0.750683 0.0191501
0.191806 0.752895 0.0218204
0.219715 0.754635 0.0238956
0.249317 0.755901 0.0253758
0.280446 0.756695 0.0262303
0.31342 0.756985 0.0263676
0.347936 0.757076 0.0262913
0.383032 0.756725 0.0256352
0.418479 0.756176 0.0247501
0.45388 0.755581 0.0238346
0.489281 0.754894 0.0228428
0.524956 0.754086 0.0217136
0.560769 0.75317 0.0204776
0.596567 0.752377 0.0194095
0.631769 0.751568 0.0183261
0.666087 0.750805 0.0173037
0.69929 0.75024 0.0165408
0.73138 0.749905 0.0160372
0.762188 0.749844 0.0158541
0.791714 0.750195 0.0161898
0.819959 0.750744 0.0167544
0.847059 0.7514 0.0174411
0.873381 0.752178 0.0182803
0.897993 0.753338 0.0195926
0.919768 0.755138 0.0217288
0.938918 0.757549 0.0246586
0.956954 0.760449 0.028275
0.0291142 0.765332 0.00244144
0.0491035 0.769299 0.0071107
0.0730449 0.772198 0.0105898
0.0965286 0.775158 0.0141451
0.120333 0.778134 0.017731
0.14464 0.781033 0.0213169
0.169696 0.783475 0.0243992
0.195804 0.785565 0.0271305
0.223606 0.787167 0.0290532
0.253056 0.788296 0.0303197
0.284047 0.788968 0.0309911
0.31693 0.789166 0.0310521
0.351232 0.789075 0.0307317
0.386114 0.788525 0.0297551
0.421408 0.787808 0.0284428
0.456626 0.78703 0.0272068
0.491829 0.786191 0.0259403
0.527306 0.785183 0.0245212
0.563149 0.784268 0.0232547
0.59855 0.783108 0.0216831
0.633463 0.78201 0.0202182
0.667567 0.781033 0.0188907
0.700587 0.780255 0.0178225
0.732479 0.77969 0.0170138
0.763119 0.7794 0.016556
0.792538 0.779599 0.0166781
0.820508 0.779828 0.016846
0.847395 0.780255 0.0172427
0.873503 0.780804 0.017792
0.897902 0.78172 0.0188144
0.919478 0.783291 0.020676
0.938628 0.785672 0.0236057
0.956237 0.788098 0.026627
0.0335851 0.798291 0.0087129
0.053666 0.802106 0.0133516
0.0776226 0.804852 0.0167697
0.101198 0.80766 0.0202945
0.12517 0.810636 0.0242008
0.149233 0.813184 0.0275578
0.174197 0.815473 0.0303655
0.200229 0.817426 0.0327153
0.227909 0.818891 0.0343938
0.257206 0.819852 0.0354314
0.288182 0.820493 0.0360876
0.320897 0.820539 0.0359655
0.354788 0.820081 0.0352026
0.389487 0.819333 0.0340581
0.424552 0.818402 0.032639
0.459571 0.817411 0.0309911
0.49456 0.816373 0.0292821
0.529915 0.815259 0.0276493
0.565423 0.814054 0.0259403
0.600595 0.81268 0.0240635
0.635279 0.811353 0.0222629
0.669184 0.810147 0.0206455
0.702022 0.80914 0.0192721
0.733883 0.808499 0.0183566
0.764385 0.808026 0.0176394
0.793378 0.807767 0.0171969
0.821134 0.807767 0.0170596
0.847822 0.807965 0.0171664
0.873701 0.80827 0.0174105
0.897978 0.809049 0.018265
0.919448 0.810483 0.0199588
0.938186 0.812421 0.0223545
0.955596 0.814618 0.0251164
0.0387579 0.830442 0.0161288
0.0589303 0.834058 0.0207675
0.082948 0.836667 0.0243992
0.106722 0.839475 0.0280919
0.130404 0.842023 0.031281
0.154421 0.844419 0.0342107
0.179294 0.846525 0.0367132
0.205188 0.848295 0.0387884
0.232715 0.849561 0.0402075
