Grain/Grain/Resources/Luts/Film Emulation/MODERN_FILM_01.cube
LUT_3D_SIZE 5
0 0 0
0.1691 0 0
0.42948 0 0
0.692805 0 0
0.885679 0 0
0.0158694 0.185321 0
0.200412 0.198932 0.00378424
0.468635 0.195972 0
0.742443 0.196841 0.000747692
0.946792 0.219913 0.0294194
0.0126955 0.446738 0
0.20705 0.473045 0.00953689
0.482429 0.477699 0.0145418
0.76051 0.480507 0.0180362
0.963165 0.501732 0.0432746
0.0252537 0.731792 0
0.219715 0.754635 0.0238956
0.489281 0.754894 0.0228428
0.762188 0.749844 0.0158541
0.956954 0.760449 0.028275
0.0736095 0.975662 0.064683
0.263676 0.985199 0.0761578
0.520867 0.971679 0.0590372
0.779248 0.953002 0.0332647
0.961257 0.950423 0.0289616
0 0 0.155886
0.171572 0 0.170535
0.431281 0 0.160754
0.69485 0 0.150134
0.888975 0 0.162875
0.0184939 0.188266 0.189441
0.20444 0.203128 0.204685
0.474617 0.201617 0.203281
0.749279 0.203861 0.205936
0.954025 0.227481 0.230335
0.0177462 0.454032 0.188403
0.213993 0.480644 0.214557
0.489632 0.484779 0.218921
0.766995 0.487419 0.222141
0.969375 0.508553 0.243244
0.0303044 0.738338 0.203632
0.225925 0.760769 0.227283
0.494926 0.759747 0.225879
0.765927 0.753277 0.218631
0.958938 0.76231 0.227939
0.0770275 0.979156 0.260426
0.265995 0.987091 0.269612
0.52163 0.971908 0.252674
0.778485 0.95198 0.229847
0.958022 0.947143 0.223636
0 0 0.419089
0.169299 0 0.432044
0.428916 0 0.42237
0.693294 0 0.411826
0.888884 0 0.425467
0.0172122 0.186679 0.451942
0.204532 0.203128 0.468772
0.476249 0.20325 0.468788
0.752102 0.20647 0.471839
0.957107 0.230365 0.495918
0.020264 0.457023 0.454582
0.216663 0.483375 0.480552
0.492164 0.487282 0.484459
0.76936 0.489555 0.486717
0.971298 0.51014 0.506889
0.0321202 0.740566 0.46714
0.226917 0.761883 0.489906
0.494804 0.759823 0.487251
0.764721 0.75201 0.478126
0.956344 0.759487 0.485527
0.0749828 0.977188 0.518441
0.26247 0.983856 0.526574
0.516228 0.967453 0.507958
0.772427 0.946471 0.483116
0.949523 0.93904 0.472923
0 0 0.682673
0.167681 0 0.694301
0.426261 0 0.685344
0.691814 0 0.67715
0.889296 0 0.691875
0.0164797 0.185687 0.713634
0.205753 0.204227 0.730877
0.478416 0.205447 0.732815
0.755123 0.209079 0.737331
0.960357 0.233127 0.760098
0.0229191 0.459892 0.722408
0.219425 0.486107 0.745861
0.494606 0.489723 0.750042
0.77142 0.491112 0.752682
0.972885 0.511025 0.771145
0.0335088 0.742107 0.73579
0.227481 0.762676 0.756008
0.493599 0.759136 0.752895
0.762203 0.749508 0.74374
0.952773 0.755627 0.749752
0.0722667 0.974609 0.780713
0.257816 0.979812 0.786664
0.509682 0.962356 0.769192
0.764843 0.939788 0.745678
0.938735 0.928862 0.733242
0 0 0.870604
0.171221 0 0.880629
0.429953 0 0.872663
0.696788 0 0.866636
0.896147 0 0.882582
0.0212253 0.191089 0.901061
0.212665 0.211185 0.918837
0.48687 0.213611 0.922194
0.764004 0.217639 0.927596
0.969116 0.241535 0.949401
0.0302586 0.468727 0.913863
0.227314 0.494347 0.935454
0.502602 0.497642 0.939696
0.779004 0.498512 0.942626
0.979675 0.517525 0.959686
0.0395361 0.749355 0.927855
0.233326 0.768765 0.945693
0.498116 0.763699 0.941985
0.765225 0.752407 0.932891
0.954421 0.756985 0.937606
0.074403 0.977234 0.967285
0.258549 0.980972 0.971466
0.508934 0.962402 0.954772
0.761593 0.937285 0.931701
0.93312 0.923674 0.919066
