Grain/Grain/Resources/Luts/Cinema/CINECOLOR_PSYCHO.cube
TITLE "Generated by Resolve"
LUT_3D_SIZE 5
0.104234 0.104234 0.104234
0.116365 0.116365 0.116365
0.133227 0.133227 0.133227
0.15314 0.15314 0.15314
0.177981 0.177981 0.177981
0.16144 0.16144 0.16144
0.189639 0.189639 0.189639
0.22974 0.22974 0.22974
0.287495 0.287495 0.287495
0.357382 0.357382 0.357382
0.309575 0.309575 0.309575
0.382696 0.382696 0.382696
0.460075 0.460075 0.460075
0.545525 0.545525 0.545525
0.632868 0.632868 0.632868
0.574182 0.574182 0.574182
0.660578 0.660578 0.660578
0.735454 0.735454 0.735454
0.797787 0.797787 0.797787
0.849668 0.849668 0.849668
0.815717 0.815717 0.815717
0.865629 0.865629 0.865629
0.91162 0.91162 0.91162
0.957916 0.957916 0.957916
1 1 1
0.108766 0.108766 0.108766
0.123659 0.123659 0.123659
0.141527 0.141527 0.141527
0.162844 0.162844 0.162844
0.190707 0.190707 0.190707
0.171954 0.171954 0.171954
0.203937 0.203937 0.203937
0.250645 0.250645 0.250645
0.313558 0.313558 0.313558
0.386206 0.386206 0.386206
0.336645 0.336645 0.336645
0.411643 0.411643 0.411643
0.491676 0.491676 0.491676
0.578927 0.578927 0.578927
0.664057 0.664057 0.664057
0.607385 0.607385 0.607385
0.690517 0.690517 0.690517
0.760555 0.760555 0.760555
0.818555 0.818555 0.818555
0.868025 0.868025 0.868025
0.835386 0.835386 0.835386
0.883421 0.883421 0.883421
0.9299 0.9299 0.9299
0.975677 0.975677 0.975677
1 1 1
0.116564 0.116564 0.116564
0.132647 0.132647 0.132647
0.151751 0.151751 0.151751
0.175296 0.175296 0.175296
0.207294 0.207294 0.207294
0.185641 0.185641 0.185641
0.22269 0.22269 0.22269
0.276707 0.276707 0.276707
0.343526 0.343526 0.343526
0.418219 0.418219 0.418219
0.367864 0.367864 0.367864
0.44387 0.44387 0.44387
0.52726 0.52726 0.52726
0.61445 0.61445 0.61445
0.696574 0.696574 0.696574
0.642405 0.642405 0.642405
0.720989 0.720989 0.720989
0.786389 0.786389 0.786389
0.840467 0.840467 0.840467
0.887861 0.887861 0.887861
0.856382 0.856382 0.856382
0.902953 0.902953 0.902953
0.949126 0.949126 0.949126
0.995468 0.995468 0.995468
1 1 1
0.125643 0.125643 0.125643
0.142748 0.142748 0.142748
0.163378 0.163378 0.163378
0.189654 0.189654 0.189654
0.227146 0.227146 0.227146
0.201678 0.201678 0.201678
0.245563 0.245563 0.245563
0.305486 0.305486 0.305486
0.375799 0.375799 0.375799
0.451286 0.451286 0.451286
0.40058 0.40058 0.40058
0.478477 0.478477 0.478477
0.56408 0.56408 0.56408
0.650538 0.650538 0.650538
0.727901 0.727901 0.727901
0.677226 0.677226 0.677226
0.750698 0.750698 0.750698
0.811093 0.811093 0.811093
0.861769 0.861769 0.861769
0.907713 0.907713 0.907713
0.877012 0.877012 0.877012
0.922896 0.922896 0.922896
0.969314 0.969314 0.969314
1 1 1
1 1 1
0.134569 0.134569 0.134569
0.153109 0.153109 0.153109
0.175586 0.175586 0.175586
0.205737 0.205737 0.205737
0.249912 0.249912 0.249912
0.219959 0.219959 0.219959
0.270848 0.270848 0.270848
0.335134 0.335134 0.335134
0.407919 0.407919 0.407919
0.4851 0.4851 0.4851
0.432746 0.432746 0.432746
0.513649 0.513649 0.513649
0.600305 0.600305 0.600305
0.684184 0.684184 0.684184
0.756786 0.756786 0.756786
0.709422 0.709422 0.709422
0.7776 0.7776 0.7776
0.833799 0.833799 0.833799
0.882231 0.882231 0.882231
0.927413 0.927413 0.927413
0.897047 0.897047 0.897047
0.943099 0.943099 0.943099
0.989013 0.989013 0.989013
1 1 1
1 1 1
