Grain/Grain/Resources/Luts/Cinema/CINECOLOR_CLOCKWORK_ORANGE.cube
TITLE "Generated by Resolve"
LUT_3D_SIZE 9
0.083238 0.0951247 0.109926
0.162493 0.0951705 0.109987
0.243519 0.0911269 0.106004
0.376562 0.0717021 0.0864729
0.529854 0.046479 0.0612497
0.648157 0.0310979 0.0453956
0.75317 0.0197147 0.0343938
0.851698 0.0116884 0.0263828
0.948959 0.00605783 0.0207675
0.0800336 0.164584 0.106722
0.155154 0.160281 0.102739
0.234668 0.155383 0.097673
0.368719 0.136538 0.0791638
0.524804 0.113603 0.0563821
0.647715 0.101854 0.0449378
0.759091 0.0966354 0.0394903
0.865507 0.0967727 0.0396277
0.972549 0.100908 0.0437476
0.065507 0.232853 0.0924086
0.143526 0.231632 0.0912337
0.22768 0.231373 0.0910201
0.369329 0.219364 0.0795605
0.53547 0.205066 0.0659342
0.668803 0.20354 0.0644236
0.790311 0.209323 0.0698863
0.905837 0.219959 0.0798962
1 0.233036 0.092195
0.0247349 0.336568 0.0510719
0.110826 0.345037 0.0586252
0.204364 0.356374 0.0687114
0.356405 0.355215 0.0675059
0.532921 0.350561 0.0631723
0.673991 0.356924 0.0686351
0.799161 0.367559 0.0783093
0.915175 0.379767 0.0892653
1 0.390417 0.0986343
0 0.483238 0.0246128
0.0924697 0.501472 0.0405737
0.191775 0.519295 0.0564126
0.347234 0.52166 0.0583658
0.523659 0.517174 0.0539712
0.661341 0.519936 0.0564431
0.781003 0.5243 0.0603342
0.890379 0.528527 0.0641794
0.996735 0.531319 0.066743
0.0178683 0.638834 0.0441901
0.111635 0.655497 0.0595407
0.208255 0.66862 0.0716869
0.357397 0.663569 0.0669108
0.525399 0.65098 0.0552071
0.65594 0.646723 0.0511025
0.770962 0.646021 0.0504311
0.877134 0.646738 0.051133
0.981506 0.647166 0.0515297
0.0369268 0.772869 0.063798
0.123934 0.780911 0.0714122
0.214939 0.787335 0.0776989
0.359701 0.778332 0.068864
0.524376 0.763043 0.0540932
0.652613 0.756664 0.0479286
0.765591 0.753796 0.0451057
0.869825 0.752544 0.0438849
0.972351 0.751141 0.0425116
0.0448463 0.883619 0.0717327
0.12987 0.889403 0.0775311
0.218906 0.893431 0.0815747
0.361166 0.882277 0.0703899
0.523674 0.865248 0.0533761
0.649851 0.857237 0.045304
0.761273 0.852705 0.0408484
0.864118 0.850034 0.0381781
0.965698 0.847639 0.0357977
0.0467536 0.986435 0.0734264
0.129961 0.990494 0.0773785
0.216983 0.992844 0.0798047
0.357977 0.980148 0.0671092
0.519341 0.961501 0.0492256
0.644953 0.952483 0.0406653
0.75555 0.947021 0.0352178
0.857801 0.943664 0.031693
0.958755 0.940826 0.0290379
0.0842756 0.0964065 0.176715
0.162402 0.095079 0.175494
0.242985 0.0906081 0.171008
0.376211 0.0713817 0.151141
0.529427 0.046067 0.125719
0.647761 0.0307164 0.109758
0.753109 0.0196384 0.0984665
0.852018 0.0120851 0.0908827
0.949996 0.00703441 0.0856794
0.0792859 0.163836 0.171603
0.15462 0.159747 0.167498
0.234318 0.155032 0.162768
0.368933 0.136721 0.144396
0.525521 0.114229 0.121859
0.649042 0.103227 0.110842
0.761685 0.0990005 0.106584
0.869474 0.100511 0.10811
0.977371 0.105577 0.113191
0.0660563 0.233295 0.158114
0.144671 0.232609 0.157519
0.229725 0.233234 0.158099
0.372427 0.222232 0.147341
0.539498 0.208881 0.134569
0.674296 0.208713 0.134112
0.796399 0.215503 0.140597
0.912535 0.2271 0.151995
1 0.240146 0.164523
0.027985 0.340124 0.119081
0.11487 0.349798 0.127611
0.209659 0.361776 0.138613
0.362997 0.361715 0.13843
0.539925 0.35758 0.134508
0.680629 0.363851 0.140047
0.805554 0.374533 0.149752
0.921218 0.386557 0.161089
1 0.396353 0.169924
0.00415045 0.49015 0.0949264
0.0987869 0.508537 0.111696
0.198749 0.526711 0.127855
0.354192 0.528618 0.129671
0.529686 0.523217 0.124346
0.666667 0.525444 0.126497
0.785046 0.528832 0.129458
0.893629 0.532433 0.132723
1 0.534844 0.135149
0.0236515 0.645716 0.115465
0.117311 0.661555 0.130098
0.213092 0.673442 0.141588
0.361608 0.667811 0.135973
0.528756 0.654276 0.123293
0.659175 0.649973 0.119173
0.773877 0.649104 0.118334
0.879805 0.649714 0.118929
0.983993 0.649958 0.11899
0.040589 0.776638 0.132738
0.127474 0.784482 0.140322
0.218341 0.7906 0.146456
0.362966 0.781308 0.137255
0.527443 0.765789 0.121721
0.655283 0.75935 0.115343
0.767849 0.756298 0.112322
0.872053 0.754833 0.110872
0.974365 0.753277 0.109346
0.0477302 0.886488 0.139757
0.13254 0.892012 0.145403
0.221393 0.895872 0.149401
0.364065 0.884611 0.13814
0.526101 0.867369 0.120623
0.652247 0.859205 0.112383
0.763134 0.854658 0.107561
0.865965 0.851881 0.104753
0.967407 0.849409 0.102525
0.0489052 0.988739 0.140963
0.131945 0.992615 0.145068
0.219135 0.994766 0.147158
0.359991 0.981964 0.134325
0.521401 0.963439 0.116075
0.647013 0.954116 0.107301
0.75729 0.948699 0.101732
0.859663 0.945525 0.0986496
0.960418 0.942473 0.0954299
0.0838178 0.0959487 0.261585
0.161028 0.0937209 0.259342
0.241032 0.0889601 0.254108
0.374166 0.0693065 0.233402
0.527626 0.0441901 0.206943
0.646159 0.0292668 0.190829
0.752071 0.0186618 0.179675
0.851408 0.0115053 0.172259
0.950011 0.00708019 0.167803
0.0772412 0.161761 0.254551
0.152865 0.158007 0.250614
0.232853 0.15346 0.245884
0.367895 0.135744 0.227344
0.5252 0.113924 0.204608
0.649607 0.103792 0.194125
0.763272 0.100526 0.190982
0.871717 0.102998 0.193332
0.981094 0.109483 0.200076
0.0648508 0.232181 0.241443
0.144381 0.232303 0.24181
0.230472 0.234073 0.243595
0.374701 0.224247 0.233722
0.542718 0.211749 0.221073
0.678218 0.212558 0.221988
0.801297 0.220554 0.230045
0.917815 0.232654 0.242206
1 0.245624 0.255222
0.029984 0.342519 0.204364
0.118349 0.353567 0.214801
0.21413 0.366491 0.227085
0.368231 0.366796 0.227298
0.545388 0.362829 0.223423
0.686305 0.369787 0.230015
0.81059 0.380102 0.240146
0.925322 0.391211 0.25066
1 0.400137 0.259403
0.009308 0.495933 0.182879
0.104356 0.514611 0.200412
0.204105 0.532403 0.217273
0.359426 0.533852 0.218585
0.534249 0.527764 0.212711
0.669917 0.529076 0.213657
0.787747 0.531685 0.216388
0.89575 0.534585 0.219181
1 0.536782 0.221317
0.028687 0.650965 0.204044
0.121263 0.665736 0.218616
0.216114 0.676432 0.229175
0.364263 0.670176 0.223026
0.53109 0.656535 0.209293
0.661112 0.651896 0.204898
0.775464 0.650797 0.2038
0.881117 0.651164 0.204166
0.985092 0.651225 0.203998
0.0425574 0.778668 0.218906
0.129412 0.786435 0.227024
0.220157 0.792309 0.233234
0.36463 0.782803 0.223331
0.528862 0.767102 0.207065
0.656565 0.760449 0.200366
0.768826 0.75729 0.197024
0.872847 0.755673 0.195392
0.97499 0.753979 0.193668
0.0494087 0.887938 0.226123
0.133898 0.893111 0.231693
0.222431 0.896803 0.235523
0.364828 0.885466 0.223743
0.52694 0.86807 0.205371
0.652934 0.8598 0.196765
0.763638 0.855161 0.191775
0.86659 0.852506 0.189166
0.967742 0.84976 0.186374
0.0497292 0.989548 0.226535
0.132601 0.993225 0.230549
0.219684 0.995209 0.232776
0.360433 0.982361 0.219409
0.521904 0.963851 0.200443
0.647395 0.954421 0.191257
0.757595 0.948974 0.185626
0.859937 0.9458 0.182345
0.9608 0.942702 0.179156
0.0778058 0.0899367 0.407187
0.154299 0.0870985 0.404181
0.233967 0.0820783 0.398703
0.366659 0.0626078 0.377188
0.5205 0.0378271 0.350042
0.639338 0.0229496 0.333181
0.746059 0.0128328 0.321965
0.846372 0.00642405 0.3149
0.945388 0.00294499 0.310567
0.070634 0.155016 0.399237
0.146075 0.151202 0.395331
0.226032 0.147066 0.390631
0.361501 0.12987 0.371878
0.519661 0.108858 0.349126
0.645624 0.0998245 0.339376
0.760464 0.0978103 0.337163
0.869963 0.101091 0.340871
0.980148 0.108522 0.349035
0.0594797 0.226261 0.387152
0.139345 0.227314 0.388205
0.226505 0.230091 0.391318
0.371756 0.221439 0.382376
0.541253 0.210468 0.370718
0.677867 0.212207 0.372686
0.801343 0.220645 0.381552
0.918303 0.233341 0.394812
1 0.246311 0.408255
0.0276951 0.339986 0.351843
0.11725 0.3523 0.364355
0.213855 0.366247 0.378302
0.368917 0.367483 0.379294
0.54612 0.36379 0.375616
0.686824 0.370367 0.382177
0.810697 0.380301 0.392355
0.924804 0.390692 0.402502
1 0.398566 0.410605
0.00973526 0.496529 0.332494
0.104906 0.515465 0.351415
0.204471 0.53283 0.368795
0.359625 0.534035 0.370214
0.533471 0.526986 0.362936
0.668208 0.527077 0.363043
0.785397 0.529168 0.365286
0.892821 0.531655 0.36762
0.998718 0.533486 0.369619
0.0282444 0.650553 0.354299
0.120333 0.664698 0.368917
0.214084 0.674525 0.379141
0.361395 0.667384 0.372015
0.527932 0.653468 0.357412
0.657969 0.648753 0.352819
0.772213 0.647395 0.351431
0.877806 0.647471 0.351492
0.981491 0.647334 0.351125
0.0398108 0.77586 0.367575
0.126375 0.783398 0.375769
0.216724 0.788998 0.381933
0.360906 0.779324 0.371527
0.524956 0.763394 0.354421
0.652522 0.756649 0.347295
0.764981 0.753185 0.343664
0.868727 0.751461 0.341833
0.970825 0.749615 0.33991
0.0455177 0.884291 0.373816
0.129976 0.889494 0.379644
0.21825 0.892836 0.383505
0.360433 0.881422 0.370901
0.522423 0.86389 0.351888
0.648188 0.855543 0.342901
0.759274 0.85069 0.337713
0.862058 0.847959 0.334997
0.963165 0.845151 0.33196
0.045594 0.985382 0.373892
0.128328 0.988846 0.377737
0.214923 0.990768 0.380148
0.355688 0.977844 0.366217
0.517143 0.959304 0.346593
0.642573 0.949859 0.336934
0.752865 0.94432 0.331273
0.855283 0.941146 0.327626
0.956039 0.938079 0.324376
0.0699016 0.0820172 0.57055
0.145815 0.0787518 0.567224
0.225406 0.0739757 0.562005
0.357809 0.0544442 0.540444
0.511299 0.0298619 0.512779
0.630808 0.0151064 0.496498
0.738262 0.00535592 0.485908
0.839109 0 0.478935
0.939696 0 0.476463
0.0623484 0.146593 0.562341
0.137942 0.143038 0.558541
0.218082 0.139467 0.55462
0.353735 0.122744 0.536385
0.512657 0.102434 0.514382
0.639719 0.0944533 0.505745
0.756069 0.0936599 0.504967
0.867002 0.098024 0.509834
0.978134 0.106508 0.518898
0.0529946 0.219425 0.552193
0.133547 0.221302 0.554162
0.221576 0.225116 0.558206
0.367529 0.217578 0.550393
0.538445 0.207767 0.540169
0.676066 0.210407 0.543053
0.800473 0.21976 0.552895
0.917479 0.232532 0.566186
1 0.245365 0.579446
0.0246586 0.336599 0.520775
0.11487 0.349752 0.534066
0.212436 0.364797 0.548852
0.367773 0.366339 0.550393
0.54519 0.36286 0.546914
0.685695 0.369238 0.553277
0.809415 0.378958 0.56318
0.922774 0.38851 0.572457
1 0.395285 0.579187
0.00877394 0.495567 0.503777
0.104143 0.514702 0.522911
0.203449 0.531792 0.539986
0.357626 0.532082 0.540246
0.530938 0.524453 0.532662
0.664805 0.523568 0.531777
0.78146 0.524926 0.53312
0.888808 0.52697 0.53518
0.994324 0.528847 0.537057
0.0263218 0.648524 0.524498
0.117372 0.661479 0.53785
0.210544 0.670726 0.547433
0.356558 0.662852 0.53933
0.5234 0.648875 0.524971
0.653178 0.643946 0.519921
0.767361 0.642329 0.518257
0.872724 0.642222 0.518151
0.976226 0.641855 0.517769
0.035523 0.771481 0.534905
0.121782 0.77882 0.542824
0.211765 0.784207 0.54873
0.355535 0.774319 0.53814
0.519478 0.758267 0.520958
0.646906 0.751232 0.513542
0.759152 0.747585 0.509957
0.86302 0.745617 0.507897
0.964889 0.743664 0.505852
0.0404822 0.879011 0.540291
0.124681 0.884077 0.545907
0.21265 0.887526 0.549767
0.354513 0.875776 0.537133
0.516289 0.858137 0.517861
0.64213 0.849592 0.508705
0.753094 0.844633 0.50341
0.855924 0.841825 0.500389
0.956588 0.839063 0.497459
0.0398566 0.979614 0.53994
0.122271 0.983001 0.543709
0.208789 0.984817 0.545754
0.349416 0.971984 0.532036
0.510948 0.953094 0.51252
0.635874 0.943771 0.502586
0.746746 0.938354 0.496803
0.849119 0.934844 0.493202
0.948898 0.932067 0.490105
0.0654612 0.077348 0.694942
0.140871 0.0737621 0.691264
0.219577 0.0686351 0.685695
0.352102 0.0492409 0.665125
0.50576 0.0249943 0.638239
0.626062 0.0106355 0.62269
0.733959 0.00125124 0.612375
0.835416 0 0.606424
0.937148 0 0.60499
0.0572976 0.141573 0.686564
0.133013 0.138201 0.682857
0.213748 0.135058 0.679805
0.349722 0.119051 0.662806
0.509514 0.0995651 0.641901
0.637797 0.0924697 0.634424
0.754986 0.0925765 0.634623
0.867338 0.0983597 0.640894
0.979507 0.107774 0.650889
0.0494545 0.215747 0.678294
0.131136 0.218784 0.681178
0.22031 0.223819 0.686275
0.367132 0.217166 0.679545
0.538994 0.208255 0.670512
0.67776 0.21207 0.674449
0.802548 0.221973 0.684703
0.919524 0.234577 0.697261
1 0.247745 0.710124
0.0247959 0.336858 0.65153
0.115953 0.351095 0.665354
0.214099 0.366583 0.680049
0.369787 0.368353 0.681926
0.547723 0.365393 0.678767
0.687861 0.371405 0.684565
0.810391 0.380316 0.693202
0.923262 0.389136 0.701381
1 0.394903 0.706905
0.0108492 0.498085 0.636866
0.106142 0.517006 0.655268
0.205341 0.533593 0.671504
0.358816 0.533242 0.670985
0.531029 0.524559 0.662455
0.664225 0.523003 0.660914
0.780163 0.523583 0.661463
0.887327 0.525399 0.663478
0.99266 0.527047 0.664836
0.026978 0.649302 0.655192
0.117037 0.661173 0.667277
0.209598 0.669779 0.675624
0.355535 0.661692 0.667552
0.521767 0.647456 0.653346
0.651438 0.642206 0.648112
0.765423 0.640314 0.64622
0.870619 0.640009 0.645914
0.973983 0.639445 0.645365
0.0341955 0.770123 0.66331
0.120272 0.777249 0.670726
0.209949 0.782452 0.676204
0.353414 0.772305 0.66569
0.517113 0.756008 0.648737
0.644388 0.748791 0.641291
0.756741 0.74493 0.637324
0.860319 0.74284 0.635172
0.962097 0.740749 0.633036
0.0382544 0.876921 0.667567
0.12221 0.881819 0.672801
0.210132 0.885115 0.676387
0.351629 0.873228 0.663905
0.513252 0.855421 0.644938
0.638911 0.846754 0.635828
0.750256 0.841856 0.630671
0.852888 0.838697 0.627604
0.95288 0.836072 0.624613
0.0371862 0.976959 0.666514
0.119615 0.980179 0.669947
0.205768 0.981964 0.672023
0.346273 0.9691 0.658656
0.507622 0.950057 0.639399
0.632792 0.940597 0.62945
0.743374 0.935225 0.62385
0.845838 0.931701 0.620096
0.945922 0.928862 0.617136
0.0615702 0.0737011 0.802884
0.136751 0.06981 0.799161
0.215656 0.0646982 0.793927
0.347967 0.0455024 0.774197
0.501686 0.0211948 0.74844
0.622354 0.00729381 0.733989
0.730831 0 0.724422
0.833509 0 0.719722
0.936248 0 0.719387
0.0534676 0.137591 0.794614
0.129488 0.134569 0.791562
0.210422 0.131914 0.788998
0.34728 0.116609 0.773281
0.50811 0.0982376 0.754406
0.63769 0.0923323 0.748379
0.755795 0.0933547 0.749462
0.868833 0.100114 0.756451
0.982223 0.110613 0.767254
0.0472877 0.213703 0.788327
0.130098 0.217731 0.792477
0.220386 0.223941 0.798428
0.368811 0.218708 0.793133
0.541741 0.210727 0.78555
0.68069 0.215106 0.789593
0.805844 0.225437 0.799649
0.92311 0.23856 0.812161
1 0.251133 0.823987
0.0260777 0.338445 0.766247
0.118212 0.353841 0.780468
0.217563 0.370245 0.795468
0.373632 0.372198 0.797116
0.551217 0.368902 0.793927
0.690837 0.374655 0.799008
0.812726 0.38294 0.806561
0.924605 0.390692 0.81387
1 0.395789 0.818387
0.0140688 0.501671 0.753826
0.109102 0.520348 0.771313
0.208133 0.536782 0.786374
0.360754 0.535378 0.78497
0.531929 0.52546 0.775738
0.664591 0.523384 0.773754
0.780194 0.523644 0.773709
0.887129 0.525185 0.775433
0.992233 0.526589 0.776761
0.0284886 0.651209 0.76968
0.117876 0.662058 0.780056
0.209628 0.669902 0.787503
0.355322 0.661601 0.779553
0.521477 0.64715 0.765515
0.650889 0.641657 0.760433
0.764645 0.639521 0.758373
0.869642 0.638987 0.757855
0.972839 0.638254 0.757153
0.0340887 0.770031 0.77528
0.119921 0.776898 0.782132
0.209384 0.781888 0.787121
0.352529 0.77145 0.776699
0.516045 0.754986 0.760266
0.643122 0.747555 0.75285
0.755322 0.743511 0.74905
0.858778 0.741283 0.746838
0.960464 0.739071 0.74461
0.0374304 0.876188 0.778698
0.121157 0.880781 0.783383
0.208896 0.883909 0.786862
0.350118 0.871885 0.77438
0.511604 0.853864 0.755978
0.637354 0.845029 0.746975
0.74844 0.84007 0.742153
0.851011 0.836866 0.738689
0.951095 0.834134 0.735866
0.035874 0.975479 0.777142
0.118044 0.978637 0.780255
0.204059 0.980346 0.782101
0.344442 0.967407 0.768902
0.505669 0.948226 0.750515
0.630808 0.938689 0.74081
0.741512 0.933272 0.735027
0.843885 0.929732 0.731685
0.944137 0.927092 0.728969
0.0582589 0.0703746 0.902403
0.133761 0.0666209 0.898894
0.212055 0.0615244 0.893538
0.344457 0.0423285 0.87454
0.498344 0.0182498 0.849699
0.619547 0.00477607 0.835889
0.728832 0 0.827329
0.832776 0 0.824231
0.936782 0 0.824964
0.0504921 0.134569 0.894636
0.126757 0.132036 0.891936
0.208118 0.129747 0.889616
0.345724 0.115145 0.875364
0.507652 0.0977951 0.857816
0.638239 0.0930495 0.8533
0.758038 0.0953384 0.855528
0.872099 0.103151 0.863386
0.986725 0.114 0.874174
0.0464637 0.212833 0.890608
0.130266 0.217914 0.895384
0.221424 0.225177 0.902174
0.371466 0.221042 0.898436
0.545129 0.214069 0.891493
0.685115 0.219348 0.896391
0.810071 0.229862 0.906462
0.927199 0.242817 0.918517
1 0.255055 0.929839
0.0281224 0.341283 0.872251
0.121813 0.357534 0.886961
0.22118 0.374182 0.901732
0.377966 0.376532 0.903639
0.555428 0.3729 0.900175
0.694591 0.378515 0.905028
0.815641 0.385901 0.911604
0.92639 0.39263 0.917723
1 0.396933 0.921736
0.0179751 0.506004 0.861479
0.112902 0.524544 0.87808
0.211353 0.539925 0.891981
0.363516 0.537942 0.890089
0.533639 0.527153 0.880049
0.665431 0.524254 0.877317
0.780453 0.524178 0.877226
0.887434 0.525628 0.878828
0.992401 0.526802 0.879667
0.030396 0.653071 0.874525
0.119112 0.663615 0.884169
0.210163 0.670588 0.890593
0.35584 0.662226 0.88275
0.521935 0.647379 0.869093
0.65095 0.641733 0.863523
0.764508 0.639399 0.861326
0.869322 0.638651 0.860624
0.972335 0.63772 0.859724
0.0345769 0.77052 0.878721
0.120119 0.777157 0.885176
0.209384 0.781903 0.889799
0.352407 0.771344 0.879454
0.515618 0.754574 0.863081
0.642527 0.746975 0.855634
0.754589 0.742763 0.851514
0.857923 0.740414 0.84921
0.959106 0.738186 0.847028
0.0371557 0.875837 0.8813
0.120897 0.880507 0.885878
0.208286 0.883345 0.888777
0.34934 0.871138 0.876509
0.510643 0.852964 0.858351
0.636316 0.844022 0.849409
0.747326 0.838956 0.844602
0.849821 0.835706 0.841108
0.949996 0.832975 0.838361
0.0350805 0.974685 0.879088
0.117113 0.977722 0.882124
0.203265 0.979477 0.883894
0.343297 0.966339 0.870756
0.504479 0.947082 0.852506
0.629801 0.937728 0.843168
0.740322 0.932036 0.837461
0.842664 0.928527 0.833951
0.942962 0.925917 0.831571
0.0554665 0.0673381 1
0.130129 0.0632792 0.997055
0.208927 0.05832 0.991363
0.341283 0.0396124 0.972335
0.49575 0.016022 0.948211
0.617487 0.00285344 0.935058
0.727428 0 0.92697
0.832532 0 0.924834
0.937911 0 0.927092
0.0475776 0.131807 0.992935
0.124453 0.129778 0.990463
0.206653 0.128222 0.989044
0.344945 0.114443 0.975418
0.507927 0.0980392 0.95906
0.639612 0.0943313 0.955123
0.76051 0.0979019 0.958923
0.875395 0.106691 0.967437
0.991012 0.118425 0.979339
0.0460517 0.212406 0.991943
0.130892 0.21857 0.997833
0.223255 0.226856 1
0.373999 0.223682 1
0.54902 0.217777 0.996979
0.689281 0.223484 1
0.814237 0.234119 1
0.930953 0.247135 1
1 0.259022 1
0.0313725 0.344854 0.97615
0.125322 0.361486 0.992248
0.225376 0.378454 1
0.382544 0.381109 1
0.559426 0.377157 1
0.697658 0.381811 1
0.817853 0.388586 1
0.927794 0.394202 1
1 0.397971 1
0.0216526 0.510765 0.966522
0.116487 0.528527 0.98349
0.214282 0.543236 0.99675
0.365682 0.540093 0.99382
0.535134 0.528618 0.983352
0.665904 0.524987 0.979782
0.78117 0.524712 0.97969
0.887678 0.52607 0.980911
0.992538 0.526986 0.981704
0.0320745 0.654826 0.977874
0.120027 0.664591 0.986954
0.210986 0.671412 0.993332
0.356451 0.662821 0.985153
0.522286 0.647715 0.971084
0.651118 0.641886 0.964462
0.764462 0.639353 0.962036
0.869093 0.638437 0.961181
0.971954 0.637324 0.960128
0.0351263 0.770993 0.980972
0.120333 0.777401 0.98735
0.209369 0.781872 0.991653
0.352209 0.771145 0.981109
0.515297 0.754253 0.964019
0.642069 0.746517 0.955962
0.753994 0.742168 0.951705
0.857191 0.739681 0.949248
0.957961 0.737575 0.947082
0.0369421 0.875532 0.982864
0.120439 0.880064 0.987335
0.207675 0.882734 0.990173
0.348577 0.87042 0.977615
0.50985 0.852216 0.958373
0.635645 0.843397 0.949554
0.74638 0.838041 0.944442
0.848844 0.83473 0.940887
0.949157 0.83212 0.938293
0.0343023 0.973907 0.980179
0.116213 0.976852 0.983124
0.202441 0.978576 0.984848
0.342214 0.965331 0.971603
0.503441 0.946105 0.9523
0.628748 0.936721 0.942946
0.739284 0.931014 0.937194
0.841657 0.92752 0.9337
0.942 0.924941 0.93138
