Grain/Grain/Resources/Luts/Cinema/CINECOLOR_JAWS.cube
TITLE "Generated by Resolve"
LUT_3D_SIZE 5
0.190112 0.188373 0.191028
0.271885 0.182818 0.185519
0.499962 0.137682 0.140902
0.72256 0.095613 0.0991531
0.864973 0.0799115 0.0834516
0.176165 0.258305 0.177462
0.264942 0.260197 0.178729
0.519402 0.230411 0.1514
0.792859 0.213291 0.133516
0.995392 0.228244 0.14374
0.106523 0.446418 0.109895
0.219806 0.490089 0.136629
0.506462 0.491463 0.135607
0.803647 0.495491 0.132662
1 0.523339 0.145922
0.101289 0.741146 0.102586
0.221592 0.790875 0.130388
0.513726 0.782116 0.127153
0.792447 0.765118 0.114885
0.963867 0.768627 0.113283
0.131426 0.981064 0.129259
0.240406 0.998779 0.140993
0.524178 0.960754 0.125231
0.790768 0.924331 0.105516
0.951003 0.916884 0.0992142
0.18822 0.186511 0.272129
0.269963 0.181079 0.266392
0.498268 0.136492 0.217884
0.722408 0.095491 0.174136
0.868696 0.08159 0.160494
0.176135 0.258335 0.259571
0.267689 0.262821 0.26392
0.529793 0.237675 0.239002
0.809735 0.223316 0.224491
1 0.240101 0.240604
0.115785 0.460822 0.196109
0.231891 0.505699 0.22855
0.523415 0.507744 0.228748
0.822904 0.511193 0.227436
1 0.537026 0.243366
0.111864 0.759197 0.196155
0.23183 0.805646 0.226108
0.523323 0.792798 0.219471
0.800519 0.772961 0.20473
0.969711 0.774105 0.202701
0.136156 0.988067 0.22475
0.244205 1 0.236164
0.527565 0.96434 0.216434
0.794064 0.927642 0.19411
0.954391 0.920256 0.187716
0.172396 0.171054 0.526787
0.252689 0.16582 0.520241
0.47924 0.123323 0.462913
0.7037 0.0845502 0.414481
0.853391 0.0728771 0.404974
0.163592 0.244862 0.516411
0.257664 0.253025 0.527733
0.524376 0.232776 0.505257
0.808423 0.221363 0.496895
1 0.239185 0.524742
0.115373 0.461067 0.457771
0.23209 0.506355 0.502129
0.52549 0.509712 0.505348
0.824369 0.512444 0.507744
1 0.535653 0.530236
0.112825 0.760128 0.473503
0.230549 0.803021 0.509544
0.518761 0.787243 0.497337
0.792187 0.765103 0.478126
0.958846 0.764858 0.476753
0.131243 0.977081 0.511528
0.237293 0.99089 0.523568
0.518242 0.952041 0.495689
0.782849 0.915877 0.467582
0.942428 0.90898 0.461219
0.156695 0.155612 0.778805
0.23621 0.150774 0.771923
0.461952 0.110079 0.708659
0.687724 0.0733654 0.658122
0.842756 0.0644999 0.655116
0.151705 0.232441 0.773388
0.24947 0.244862 0.793866
0.521218 0.228595 0.775464
0.809537 0.219577 0.772915
1 0.23801 0.809384
0.114015 0.461845 0.725658
0.232013 0.507698 0.779171
0.527489 0.511467 0.784085
0.825849 0.512978 0.78793
1 0.533532 0.813535
0.111772 0.760571 0.750713
0.227481 0.79971 0.789166
0.513115 0.781033 0.770977
0.783825 0.757046 0.747372
0.948028 0.755169 0.745403
0.124727 0.966461 0.790387
0.229252 0.978805 0.802213
0.508446 0.940124 0.767803
0.771908 0.90457 0.735348
0.931533 0.898558 0.729473
0.14966 0.148638 0.924651
0.229191 0.14403 0.917693
0.456077 0.104524 0.852537
0.68545 0.0697795 0.803525
0.847593 0.0640269 0.808011
0.148867 0.229908 0.926802
0.251682 0.246769 0.956481
0.529809 0.233295 0.942184
0.823178 0.225971 0.943511
1 0.245304 0.984817
0.11899 0.471855 0.891752
0.239506 0.518547 0.950286
0.53843 0.521813 0.955077
0.836759 0.521157 0.957336
1 0.538552 0.981598
0.115587 0.769726 0.917723
0.229923 0.804807 0.954498
0.514672 0.783123 0.931289
0.784054 0.757198 0.904128
0.946807 0.753902 0.900984
0.123369 0.965759 0.951705
0.227237 0.976761 0.962615
0.506249 0.937789 0.924559
0.770062 0.902693 0.89012
0.930114 0.897154 0.884611
