Grain/Grain/Resources/Luts/Cinema/CINECOLOR_SAVING_PRIVATE_RYAN.cube
TITLE "Generated by Resolve"
LUT_3D_SIZE 9
0 0 0
0 0 0
4.57771e-05 0 0
0.0559396 0 0
0.114809 0.0104372 0.0109102
0.179919 0.0212711 0.0213321
0.253483 0.030457 0.0302129
0.334478 0.0386358 0.0381323
0.413397 0.0479438 0.0468147
0 0.0567178 0.00927749
0 0.0641947 0.0128176
0.0629435 0.0679484 0.0149538
0.137148 0.0760357 0.0368963
0.199313 0.0890059 0.0543374
0.272343 0.100481 0.0654765
0.353658 0.110811 0.0742046
0.438437 0.121614 0.0837262
0.51783 0.135485 0.0956741
0 0.157733 0.029099
0 0.164416 0.0269627
0.0958572 0.169055 0.0256809
0.200214 0.172671 0.0401617
0.295048 0.17969 0.0646982
0.373999 0.192309 0.0936141
0.454154 0.207477 0.114397
0.536324 0.22388 0.131914
0.612329 0.243824 0.150561
0 0.275334 0.028809
0.00459297 0.283162 0.0268559
0.115358 0.289754 0.0272984
0.234928 0.294789 0.039353
0.357778 0.299123 0.0644541
0.467262 0.308461 0.0962844
0.554742 0.324742 0.138689
0.633066 0.345556 0.174121
0.701579 0.37026 0.204852
0 0.4094 0.0236057
0.0171359 0.419318 0.0268711
0.13518 0.429084 0.033814
0.262455 0.436744 0.0471504
0.398917 0.441688 0.0725109
0.526024 0.449332 0.105882
0.637232 0.461738 0.144564
0.722377 0.48188 0.198062
0.786847 0.508812 0.249393
0 0.555673 0.0310674
0.0437324 0.567239 0.0399481
0.164218 0.578912 0.0517433
0.294896 0.588525 0.0679942
0.43505 0.595132 0.092607
0.571344 0.602411 0.131777
0.689937 0.614282 0.177844
0.785748 0.63183 0.230274
0.853376 0.655512 0.295811
0 0.704845 0.0560616
0.091371 0.717006 0.0729381
0.216754 0.729183 0.0942855
0.351614 0.738262 0.119097
0.490211 0.744793 0.151843
0.62414 0.750561 0.198245
0.737911 0.759289 0.259434
0.828428 0.773053 0.327245
0.896681 0.792462 0.396094
0.058732 0.843122 0.117906
0.184665 0.853346 0.14902
0.315358 0.860548 0.183841
0.448646 0.865187 0.223911
0.578256 0.869139 0.272847
0.696529 0.873869 0.332555
0.795956 0.882429 0.403525
0.877317 0.895018 0.477913
0.941344 0.912978 0.549294
0.212253 0.950607 0.239429
0.340993 0.954238 0.28719
0.467216 0.957382 0.339055
0.585184 0.961471 0.394049
0.692882 0.968017 0.452079
0.787717 0.977279 0.514611
0.870604 0.990188 0.580911
0.943358 1 0.647654
1 1 0.707378
0 0 0.00865187
0 0 0.0166323
0.0159609 0 0.021622
0.0936751 0 0.0283207
0.166979 0.00416571 0.0355383
0.224216 0.017731 0.0442969
0.291066 0.0291295 0.0537881
0.368338 0.0383612 0.0628672
0.44448 0.0488594 0.073518
0 0.061738 0.0516518
0 0.068864 0.057908
0.0689555 0.07364 0.0612039
0.136965 0.0844892 0.0764935
0.203052 0.0971695 0.0884413
0.278676 0.108263 0.0988937
0.361822 0.118563 0.108583
0.447456 0.129595 0.119265
0.52694 0.143587 0.132174
0 0.163241 0.0816052
0.00123598 0.169787 0.0821241
0.100633 0.175387 0.0820172
0.207584 0.179019 0.0939345
0.294163 0.188586 0.123415
0.370977 0.203143 0.145205
0.453742 0.218631 0.161563
0.537942 0.235233 0.177584
0.615122 0.25536 0.19646
0 0.281361 0.0898756
0.0114748 0.289219 0.0900587
0.120912 0.297063 0.0917525
0.240955 0.302617 0.100267
0.365957 0.306844 0.126238
0.468894 0.31809 0.16379
0.550774 0.336706 0.203571
0.629236 0.358267 0.234272
0.699107 0.383337 0.262623
0 0.416327 0.0914015
0.0259556 0.426535 0.0962539
0.142763 0.43714 0.103609
0.269566 0.445686 0.114611
0.407401 0.45037 0.137804
0.534447 0.458061 0.173144
0.641108 0.471992 0.217609
0.72018 0.49369 0.272816
0.782818 0.521553 0.321706
0 0.562966 0.102373
0.0538949 0.574823 0.112062
0.173663 0.587274 0.124773
0.303578 0.597284 0.139422
0.443763 0.604395 0.162478
0.580743 0.61149 0.202243
0.697612 0.623468 0.251026
0.789563 0.641382 0.307729
0.853071 0.665843 0.375296
0 0.712077 0.13022
0.104662 0.724346 0.14847
0.229572 0.736629 0.170474
0.363516 0.745785 0.195254
0.501122 0.752605 0.227359
0.633707 0.758068 0.273075
0.745846 0.766735 0.335012
0.834501 0.780957 0.402365
0.900801 0.800458 0.468544
0.0769818 0.848661 0.195056
0.202029 0.858488 0.227909
0.332341 0.865217 0.263661
0.463828 0.870176 0.304173
0.590753 0.874342 0.351186
0.7066 0.879973 0.407401
0.804303 0.889052 0.473121
0.884642 0.902449 0.54374
0.947936 0.920668 0.610651
0.234058 0.953094 0.32047
0.361975 0.956573 0.367773
0.485878 0.960281 0.41735
0.601007 0.965682 0.468116
0.705852 0.973007 0.521996
0.797894 0.983948 0.578805
0.87982 0.997742 0.639399
0.95201 1 0.699153
1 1 0.752148
0 0 0.0482185
0 0 0.0577707
0.0224002 0 0.0641337
0.102617 0.00030518 0.0745098
0.190036 0.00457771 0.0825666
0.291829 0.00552377 0.0876326
0.386435 0.0096437 0.0901961
0.462531 0.0199435 0.0953689
0.529503 0.0336461 0.105516
0 0.0662547 0.101213
0 0.0729076 0.109377
0.0770733 0.0781567 0.115114
0.164263 0.0843977 0.122301
0.261265 0.0889754 0.127184
0.332799 0.102174 0.13315
0.402975 0.116747 0.143999
0.481514 0.130312 0.15639
0.557092 0.145861 0.171572
0 0.167529 0.144045
0.0110933 0.173449 0.148516
0.107973 0.179828 0.153079
0.214435 0.184695 0.159487
0.28925 0.198703 0.181689
0.371023 0.213504 0.196017
0.456733 0.228595 0.210529
0.542657 0.245289 0.226673
0.620279 0.265736 0.246433
0 0.285878 0.164309
0.0200046 0.294087 0.167422
0.127169 0.302861 0.171633
0.24593 0.309987 0.17644
0.373388 0.314214 0.201007
0.464363 0.329091 0.242908
0.544808 0.349416 0.273259
0.625437 0.370871 0.297368
0.697002 0.39588 0.323476
0 0.421759 0.173327
0.0354772 0.432517 0.180179
0.15053 0.443732 0.188663
0.275624 0.45333 0.197604
0.414527 0.458701 0.216098
0.541985 0.466194 0.25362
0.640558 0.482033 0.304906
0.714534 0.505898 0.355932
0.776883 0.534936 0.398291
0 0.569192 0.188251
0.06421 0.581109 0.199084
0.182925 0.594171 0.212696
0.311757 0.604883 0.226673
0.451209 0.61294 0.246967
0.589044 0.619669 0.285588
0.704234 0.631769 0.336034
0.791226 0.650599 0.395972
0.850126 0.676173 0.461036
0 0.717891 0.218921
0.117647 0.730449 0.238926
0.242069 0.742794 0.261784
0.375341 0.752194 0.286595
0.510735 0.759136 0.316289
0.642069 0.764828 0.358373
0.753307 0.77377 0.418082
0.839933 0.788266 0.481621
0.904097 0.80824 0.545373
0.0949874 0.852735 0.286687
0.219028 0.862287 0.320394
0.349401 0.868833 0.356039
0.478416 0.873991 0.394537
0.602716 0.87895 0.436835
0.716075 0.885679 0.486534
0.812116 0.895689 0.546563
0.891615 0.909529 0.611521
0.954665 0.92871 0.672389
0.256123 0.954528 0.410758
0.383124 0.95848 0.455024
0.50396 0.962905 0.500038
0.616999 0.969085 0.546899
0.718013 0.978332 0.594797
0.807691 0.990356 0.644831
0.888945 1 0.698268
0.96022 1 0.750301
1 1 0.79588
0 0 0.0956283
0 0 0.107362
0.0295262 0 0.116793
0.109987 0.00456245 0.129442
0.199222 0.00823987 0.140261
0.303471 0.00848402 0.147951
0.419837 0.00619516 0.153155
0.539269 0.00410468 0.157488
0.635187 0.00999466 0.164446
0 0.0707103 0.159136
0 0.0771344 0.169818
0.0823529 0.0827497 0.179049
0.170703 0.088716 0.189303
0.272816 0.0918441 0.197452
0.388968 0.0924392 0.202075
0.508247 0.0937362 0.205524
0.600824 0.104173 0.209506
0.666255 0.123995 0.22179
0 0.170977 0.21735
0.0215305 0.176226 0.224842
0.117937 0.182956 0.232685
0.219959 0.189609 0.238666
0.332052 0.194934 0.24445
0.439811 0.20325 0.24889
0.509087 0.224506 0.260578
0.581613 0.245686 0.277607
0.652323 0.268498 0.299199
0 0.288533 0.252552
0.0318456 0.296864 0.259831
0.137804 0.306065 0.268299
0.252583 0.314626 0.275578
0.376089 0.321263 0.292805
0.457099 0.3411 0.318715
0.542382 0.361318 0.338964
0.626398 0.382574 0.360479
0.699275 0.407279 0.385336
0 0.425284 0.271901
0.0472267 0.436255 0.281422
0.160021 0.4486 0.292241
0.282414 0.459236 0.301381
0.419242 0.465888 0.311696
0.547677 0.473686 0.349065
0.633494 0.4934 0.400961
0.707088 0.519234 0.438315
0.771191 0.548257 0.47219
0 0.573236 0.291432
0.0757305 0.58584 0.304448
0.192508 0.599405 0.31902
0.320439 0.610986 0.333227
0.457359 0.620035 0.34876
0.59617 0.627085 0.381064
0.709911 0.639506 0.430213
0.789548 0.66009 0.491829
0.843519 0.687205 0.549081
0.00968948 0.72166 0.324453
0.131136 0.734936 0.345754
0.255299 0.747524 0.369223
0.386603 0.756985 0.392279
0.5196 0.764569 0.417762
0.649332 0.771008 0.452125
0.760082 0.780316 0.505623
0.844938 0.795254 0.564843
0.90634 0.816297 0.625849
0.112902 0.855421 0.392111
0.236789 0.864744 0.42446
0.366369 0.871336 0.45687
0.493263 0.877028 0.491447
0.61474 0.883253 0.528237
0.724636 0.891096 0.570611
0.819562 0.902174 0.621927
0.898726 0.916747 0.679316
0.961257 0.93669 0.733227
0.278874 0.955474 0.506722
0.404044 0.959716 0.546227
0.522332 0.965377 0.586664
0.632258 0.972595 0.627634
0.729915 0.983444 0.668849
0.817655 0.997314 0.711192
0.896941 1 0.755489
0.967498 1 0.800977
1 1 0.837461
0 0 0.153048
0 0 0.167254
0.0356451 0.00241093 0.181628
0.116228 0.00794995 0.197208
0.207034 0.0111849 0.212039
0.31339 0.0106813 0.223789
0.431281 0.00794995 0.232547
0.553307 0.00512703 0.240696
0.664179 0.00663767 0.25211
0 0.0744488 0.230533
0.000350958 0.080705 0.245289
0.0865339 0.0863203 0.25951
0.176104 0.0918746 0.27393
0.279438 0.094789 0.285267
0.397223 0.0950942 0.293324
0.520775 0.0951095 0.29929
0.643229 0.0973831 0.306096
0.746868 0.106188 0.318303
0 0.173831 0.306371
0.0281224 0.178958 0.316609
0.123125 0.186145 0.327382
0.224445 0.193347 0.336522
0.338094 0.198871 0.344045
0.460655 0.203281 0.350362
0.585855 0.208743 0.356878
0.701595 0.218448 0.36553
0.779706 0.240269 0.379309
0 0.29015 0.356832
0.044007 0.298207 0.366217
0.150118 0.308217 0.376684
0.264652 0.317372 0.384894
0.386831 0.326009 0.390936
0.510994 0.335119 0.399496
0.619471 0.349508 0.408103
0.684703 0.377111 0.423621
0.742947 0.406973 0.447974
0 0.426627 0.38732
0.0616617 0.437842 0.398962
0.173892 0.450523 0.412024
0.294499 0.461738 0.423713
0.424933 0.47097 0.432746
0.543999 0.482612 0.459266
0.625559 0.506554 0.485954
0.703761 0.531991 0.5122
0.770397 0.560662 0.542031
0 0.575113 0.412055
0.0894026 0.58822 0.426719
0.205447 0.602441 0.442496
0.330861 0.614847 0.456519
0.464088 0.625345 0.469413
0.601587 0.63415 0.488411
0.71371 0.646998 0.53521
0.781811 0.670817 0.590692
0.835111 0.699168 0.632624
0.0274205 0.723568 0.44596
0.146624 0.737835 0.467597
0.269642 0.750393 0.489158
0.399313 0.760189 0.509682
0.529061 0.768688 0.53077
0.655772 0.776761 0.556008
0.766293 0.786404 0.598795
0.849729 0.802289 0.651591
0.90634 0.824659 0.70721
0.132601 0.856641 0.508598
0.256123 0.866026 0.537514
0.384192 0.872709 0.566003
0.508568 0.879423 0.5953
0.626917 0.88658 0.625895
0.733364 0.896406 0.659068
0.826444 0.90869 0.698619
0.905989 0.924208 0.74699
0.967514 0.945296 0.794858
0.302495 0.955261 0.608438
0.425803 0.960494 0.642298
0.541161 0.967269 0.675425
0.64799 0.976303 0.709285
0.742306 0.98854 0.742992
0.827802 1 0.778454
0.905379 1 0.814527
0.974777 1 0.852354
1 1 0.8822
0 0 0.223529
0 0.00108339 0.24239
0.0403143 0.00523384 0.261646
0.121706 0.0101167 0.282094
0.213596 0.0130007 0.301488
0.321721 0.0118105 0.31809
0.441001 0.00857557 0.331655
0.563638 0.00567636 0.343389
0.674159 0.00743114 0.358633
0 0.0774701 0.318853
0.00274662 0.0833906 0.338994
0.0894026 0.0887465 0.358419
0.180102 0.0939345 0.377218
0.284566 0.0965896 0.391745
0.403357 0.0966201 0.402762
0.527962 0.0970321 0.411292
0.650462 0.0997024 0.419974
0.754437 0.108949 0.434058
0 0.176074 0.411856
0.0312505 0.181262 0.425254
0.125978 0.188907 0.438926
0.228092 0.196368 0.450523
0.342641 0.201785 0.45922
0.465995 0.206744 0.466957
0.592172 0.212573 0.474311
0.710979 0.221775 0.484169
0.809949 0.237491 0.499992
0 0.291676 0.473411
0.0527504 0.300267 0.48365
0.157687 0.310903 0.494423
0.270451 0.321141 0.503075
0.391913 0.330388 0.510033
0.516564 0.339773 0.518059
0.641016 0.349966 0.527413
0.754421 0.363592 0.539605
0.848539 0.383627 0.558129
0 0.427543 0.512291
0.0768139 0.439139 0.524102
0.189014 0.45214 0.537362
0.309178 0.463478 0.547707
0.436713 0.473991 0.555917
0.562554 0.485695 0.564599
0.682155 0.500008 0.577615
0.782589 0.51989 0.593027
0.84007 0.55201 0.613886
0 0.575555 0.542397
0.106477 0.58909 0.557473
0.222827 0.603647 0.573648
0.347463 0.616297 0.587777
0.477165 0.627832 0.601068
0.607065 0.639368 0.614191
0.707622 0.65684 0.643214
0.775128 0.68304 0.671077
0.832486 0.711208 0.700923
0.0475166 0.724163 0.577096
0.165164 0.738811 0.597986
0.287938 0.751369 0.617182
0.415244 0.761685 0.634653
0.541543 0.77142 0.651698
0.662715 0.781109 0.669093
0.771557 0.792569 0.693797
0.852964 0.80943 0.738888
0.902327 0.834623 0.785077
0.154437 0.856535 0.631891
0.277836 0.865827 0.655543
0.404532 0.873045 0.678019
0.52604 0.880934 0.700755
0.640223 0.889647 0.723369
0.742702 0.901213 0.748318
0.833234 0.915572 0.776562
0.913191 0.93164 0.814481
0.974395 0.953796 0.856733
0.328191 0.954406 0.710491
0.448753 0.960998 0.736614
0.5617 0.968887 0.762951
0.664225 0.979782 0.789715
0.75552 0.993835 0.817685
0.838346 1 0.847349
0.913405 1 0.876204
0.980789 1 0.904814
1 1 0.931533
0 0 0.307668
0 0.00328069 0.332509
0.0435798 0.00721752 0.356435
0.125841 0.0115511 0.382132
0.219074 0.0135195 0.406134
0.32871 0.0121157 0.426749
0.449165 0.00859083 0.444419
0.572473 0.00529488 0.459571
0.68249 0.00750744 0.47776
0 0.0798199 0.421592
0.00419623 0.0850233 0.446067
0.090959 0.0902419 0.470268
0.18291 0.0951095 0.492988
0.289143 0.0975204 0.510445
0.40856 0.0980392 0.523323
0.533593 0.0986954 0.534325
0.656199 0.101534 0.544594
0.75996 0.11136 0.559884
0 0.1776 0.528283
0.0332341 0.183139 0.545235
0.12842 0.19115 0.561639
0.230945 0.198566 0.575387
0.346548 0.204578 0.58529
0.470405 0.209842 0.593072
0.596811 0.215976 0.601114
0.715831 0.225589 0.611124
0.814801 0.241825 0.626841
0 0.293248 0.598047
0.0586404 0.302571 0.609277
0.163134 0.314092 0.620996
0.275135 0.325048 0.630091
0.396445 0.334783 0.637186
0.521279 0.344213 0.644022
0.645426 0.354742 0.652567
0.759228 0.368933 0.664164
0.852995 0.389349 0.680934
0 0.428733 0.640452
0.0886854 0.441108 0.651652
0.199893 0.454856 0.663264
0.318547 0.467185 0.672251
0.443183 0.478859 0.679316
0.568353 0.491524 0.686824
0.687587 0.506065 0.696956
0.793942 0.524376 0.710536
0.879667 0.548348 0.727947
0.0107118 0.575586 0.672251
0.124361 0.590509 0.686366
0.241032 0.605142 0.69984
0.365728 0.618235 0.710781
0.493446 0.630945 0.720256
0.618387 0.64387 0.728359
0.72845 0.659846 0.738827
0.82208 0.679042 0.753841
0.896864 0.702602 0.772931
0.0697795 0.724544 0.706127
0.187045 0.739315 0.723186
0.310536 0.751705 0.737881
0.436652 0.762402 0.750652
0.560372 0.772869 0.762966
0.676616 0.783993 0.77586
0.778119 0.798367 0.791791
0.849958 0.819425 0.816083
0.900542 0.846128 0.843778
0.179583 0.855833 0.749142
0.303334 0.865187 0.766201
0.428534 0.87335 0.782238
0.54696 0.882017 0.798642
0.657191 0.892454 0.815885
0.754726 0.905562 0.834897
0.841016 0.921767 0.856077
0.919997 0.939605 0.881682
0.980514 0.962448 0.920211
0.356649 0.953597 0.805844
0.474174 0.961303 0.825055
0.584054 0.970779 0.845884
0.682475 0.983047 0.86743
0.770214 0.998779 0.891585
0.849332 1 0.916411
0.921782 1 0.940993
0.985519 1 0.961303
1 1 0.984222
0 0 0.400656
0 0.00503548 0.431327
0.0464637 0.00859083 0.459693
0.129442 0.0124819 0.490318
0.22443 0.0138094 0.5187
0.335088 0.0118105 0.542962
0.456199 0.00819409 0.56347
0.58027 0.00521859 0.58204
0.689937 0.00788891 0.602594
0 0.0817578 0.531975
0.00503548 0.0865492 0.56109
0.092668 0.0914473 0.589319
0.185687 0.0962234 0.614572
0.293141 0.0986801 0.634058
0.413428 0.099443 0.647944
0.53846 0.100359 0.659236
0.661799 0.103883 0.670726
0.765164 0.114458 0.68629
0 0.179263 0.649271
0.0348058 0.185321 0.668116
0.130571 0.193439 0.685389
0.234195 0.201373 0.699641
0.350759 0.207401 0.709773
0.474998 0.213413 0.717266
0.601495 0.220249 0.724514
0.720394 0.230121 0.734035
0.819562 0.246662 0.749096
0 0.295964 0.720485
0.0637064 0.305791 0.73167
0.167865 0.317876 0.742794
0.280049 0.329335 0.751461
0.401572 0.339452 0.758236
0.526741 0.349462 0.764584
0.650446 0.360189 0.77113
0.763958 0.37496 0.781582
0.85771 0.395956 0.796551
0 0.431724 0.761151
0.0986648 0.444816 0.771374
0.20856 0.459113 0.781415
0.326406 0.472221 0.789136
0.449912 0.48455 0.795254
0.574472 0.49781 0.801251
0.693111 0.512932 0.80853
0.798428 0.531823 0.818998
0.88368 0.556161 0.832853
0.0280003 0.577691 0.790707
0.139971 0.593622 0.802945
0.256474 0.608865 0.813184
0.380102 0.622873 0.821103
0.504952 0.636439 0.826978
0.626139 0.650339 0.831647
0.734234 0.666804 0.83827
0.826917 0.686641 0.848081
0.900603 0.710277 0.861769
0.0924392 0.726009 0.821073
0.209689 0.740948 0.833921
0.333486 0.753307 0.843732
0.458167 0.764706 0.851545
0.579309 0.775692 0.858289
0.691478 0.788235 0.865583
0.787518 0.804303 0.875227
0.868101 0.823713 0.889006
0.934051 0.846296 0.907912
0.207202 0.855558 0.852995
0.331502 0.864866 0.864118
0.454612 0.873747 0.874556
0.570443 0.883345 0.885557
0.676966 0.895033 0.898466
0.770977 0.909667 0.914275
0.853498 0.92694 0.932143
0.928222 0.946822 0.95288
0.988449 0.970108 0.975967
0.38674 0.953033 0.892073
0.501137 0.961898 0.906493
0.607828 0.972534 0.923033
0.702434 0.986496 0.941741
0.786923 1 0.962386
0.863066 1 0.984421
0.931868 1 1
0.991073 1 1
1 1 1
0 0.000854505 0.490166
0 0.00717174 0.524086
0.0497444 0.0102846 0.557244
0.133867 0.0137484 0.591623
0.230182 0.0147097 0.622919
0.342351 0.0125124 0.648844
0.46424 0.00903334 0.670298
0.58854 0.00650034 0.689265
0.697765 0.00988785 0.710124
0 0.0842908 0.633829
0.00688182 0.0887617 0.665263
0.0953841 0.0937057 0.694774
0.189746 0.0985275 0.7205
0.298634 0.101183 0.739742
0.419532 0.102052 0.753292
0.545342 0.103731 0.764584
0.667811 0.107897 0.775326
0.771298 0.119066 0.791043
0 0.182422 0.752926
0.0377356 0.188968 0.77203
0.13434 0.197375 0.789166
0.239139 0.205631 0.803204
0.356466 0.212238 0.81326
0.481407 0.218463 0.820401
0.60766 0.225864 0.82681
0.726238 0.23653 0.836011
0.825086 0.253437 0.850629
0 0.300145 0.822309
0.0698711 0.310811 0.833295
0.174212 0.323507 0.844251
0.286671 0.335302 0.85272
0.407965 0.345632 0.858885
0.533227 0.355901 0.864454
0.656657 0.367407 0.870497
0.769329 0.382589 0.879484
0.862669 0.404318 0.893263
0 0.436423 0.861067
0.107973 0.450462 0.870848
0.217578 0.465202 0.880369
0.334859 0.478691 0.887373
0.457801 0.491966 0.892592
0.581781 0.505394 0.897398
0.699519 0.521035 0.902647
0.803769 0.540658 0.910475
0.887205 0.565148 0.920867
0.0434119 0.582544 0.889372
0.154101 0.598962 0.899809
0.270176 0.614679 0.908232
0.392752 0.629313 0.914015
0.515602 0.643381 0.917357
0.634546 0.657816 0.919097
0.740932 0.674922 0.922545
0.831754 0.694957 0.927871
0.904387 0.718868 0.937316
0.113329 0.729747 0.915312
0.230671 0.74464 0.924865
0.354055 0.757321 0.930892
0.476524 0.768978 0.934447
0.594736 0.780819 0.936828
0.702815 0.794736 0.940246
0.795438 0.811582 0.946395
0.874678 0.831556 0.956802
0.940169 0.854749 0.971298
0.234699 0.85687 0.937377
0.358907 0.866484 0.944152
0.479561 0.875731 0.950378
0.592721 0.886473 0.957595
0.695094 0.899321 0.966033
0.785504 0.915251 0.978103
0.865629 0.933867 0.992767
0.937377 0.955077 1
0.996902 0.978424 1
0.416037 0.953735 0.963699
0.527672 0.963821 0.974197
0.631052 0.975448 0.987671
0.721996 0.990814 1
0.803311 1 1
0.877363 1 1
0.942306 1 1
1 1 1
1 1 1
