Grain/Grain/Resources/Luts/Cinema/CINECOLOR_CLOCKWORK_ORANGE.cube
TITLE "Generated by Resolve"
LUT_3D_SIZE 33
0.083238 0.0951247 0.109926
0.106844 0.0948196 0.109621
0.126757 0.0947738 0.109575
0.145083 0.0950484 0.10985
0.162493 0.0951705 0.109987
0.180331 0.0949111 0.109728
0.199222 0.0943923 0.109194
0.219867 0.0931563 0.107973
0.243519 0.0911269 0.106004
0.270878 0.088014 0.102815
0.302602 0.0835126 0.0982986
0.33817 0.0781567 0.0929274
0.376562 0.0717021 0.0864729
0.416709 0.0650492 0.0798199
0.456535 0.0581369 0.0731365
0.494759 0.0519722 0.0667277
0.529854 0.046479 0.0612497
0.562051 0.0419318 0.056733
0.591897 0.038117 0.0528878
0.620249 0.0344091 0.0487678
0.648157 0.0310979 0.0453956
0.675273 0.0278019 0.0419623
0.701869 0.024979 0.0392767
0.727871 0.0221256 0.0363317
0.75317 0.0197147 0.0343938
0.777996 0.0172732 0.0319524
0.803021 0.0153506 0.0300298
0.827298 0.0133516 0.0280308
0.851698 0.0116884 0.0263828
0.875532 0.00991836 0.0246128
0.899779 0.00846876 0.0231785
0.924102 0.00698863 0.0216983
0.948959 0.00605783 0.0207675
0.0823987 0.115496 0.109087
0.105058 0.114305 0.107836
0.124178 0.113588 0.107012
0.142 0.11339 0.106783
0.159045 0.113024 0.106386
0.176562 0.112688 0.106065
0.195102 0.111696 0.105241
0.215549 0.110475 0.104082
0.239078 0.108385 0.101991
0.266423 0.104967 0.0984512
0.298009 0.100587 0.0942092
0.333318 0.0949111 0.0884565
0.371969 0.0886244 0.0821393
0.411948 0.0816815 0.0753185
0.451835 0.0750896 0.0687266
0.489891 0.0687419 0.0623789
0.525185 0.0634318 0.0569009
0.557641 0.0589303 0.0525673
0.587274 0.0550851 0.0486458
0.616312 0.0516518 0.0452888
0.644236 0.0482948 0.0417487
0.671901 0.0452888 0.0389258
0.69839 0.0423896 0.0363775
0.724788 0.0400244 0.0339818
0.750576 0.0377203 0.0317693
0.775906 0.0359045 0.0300145
0.800534 0.0339971 0.0276493
0.82533 0.0325017 0.026154
0.850034 0.0309911 0.0246433
0.874434 0.0298314 0.0234836
0.899046 0.0287938 0.022446
0.923903 0.0278172 0.0214694
0.949111 0.0272221 0.0208743
0.0819867 0.132937 0.108675
0.104112 0.131151 0.106889
0.123262 0.130343 0.106111
0.140597 0.129641 0.105516
0.157687 0.129259 0.105196
0.174807 0.128557 0.10454
0.193408 0.127718 0.10367
0.213504 0.126345 0.102113
0.236835 0.124071 0.099855
0.264454 0.120821 0.0966201
0.295781 0.116228 0.0920424
0.331289 0.110842 0.0866712
0.369848 0.104341 0.0803388
0.410056 0.0977035 0.0735943
0.449882 0.0909895 0.0668956
0.488228 0.084947 0.060853
0.523766 0.0797131 0.0557565
0.556237 0.075349 0.0512703
0.586191 0.0717021 0.047715
0.615167 0.0682994 0.0442206
0.643656 0.0653086 0.0412146
0.671489 0.062501 0.0385138
0.698451 0.0601816 0.0360876
0.725017 0.0577096 0.034165
0.751156 0.0558633 0.0323644
0.776928 0.0544289 0.03093
0.802319 0.0529641 0.0293278
0.827466 0.0518959 0.0282902
0.852491 0.050782 0.0272068
0.877623 0.0501259 0.026566
0.903243 0.0500191 0.0264591
0.928557 0.0497139 0.026154
0.954101 0.0494545 0.0258793
0.0810864 0.148882 0.107774
0.103258 0.147127 0.106035
0.122026 0.145953 0.105013
0.139513 0.145388 0.104555
0.156298 0.144701 0.103883
0.173724 0.144137 0.103304
0.191974 0.143084 0.102266
0.212146 0.141802 0.100755
0.235645 0.139712 0.0986954
0.263096 0.136294 0.0953994
0.294697 0.131975 0.0910353
0.330251 0.126375 0.0857099
0.369039 0.120287 0.0796216
0.409247 0.113619 0.0728161
0.449439 0.107225 0.0664683
0.48777 0.101137 0.0603952
0.523812 0.0962692 0.0556344
0.556374 0.0920577 0.0513466
0.586847 0.0887617 0.0480507
0.616007 0.0855573 0.0449531
0.644739 0.0829328 0.042237
0.673014 0.0803845 0.0396887
0.700679 0.0785992 0.0381476
0.727504 0.0768749 0.0361944
0.753918 0.075227 0.0345464
0.780224 0.0741588 0.0339513
0.806165 0.0733196 0.0331426
0.831983 0.0728008 0.0326238
0.857893 0.0727398 0.0325628
0.883604 0.072694 0.0325017
0.909453 0.0728161 0.0323796
0.935546 0.0733043 0.0326238
0.962219 0.0741131 0.033463
0.0800336 0.164584 0.106722
0.101915 0.162509 0.104753
0.120867 0.161501 0.103944
0.138109 0.160708 0.103151
0.155154 0.160281 0.102739
0.172442 0.159533 0.101991
0.190906 0.15874 0.101213
0.211414 0.157443 0.0999313
0.234668 0.155383 0.097673
0.262409 0.1523 0.0947585
0.294011 0.147936 0.0903487
0.329961 0.142687 0.08542
0.368719 0.136538 0.0791638
0.40943 0.130312 0.0729381
0.449729 0.124041 0.0667277
0.488807 0.118547 0.0615396
0.524804 0.113603 0.0563821
0.557885 0.109865 0.0529183
0.588434 0.106828 0.0496529
0.618387 0.104097 0.0469368
0.647715 0.101854 0.0449378
0.676051 0.0998398 0.0426947
0.70425 0.0986191 0.041474
0.732052 0.0974136 0.0402838
0.759091 0.0966354 0.0394903
0.785794 0.0960098 0.03888
0.812436 0.0959182 0.0387884
0.839063 0.0962692 0.0391241
0.865507 0.0967727 0.0396277
0.892012 0.0974746 0.0404059
0.918441 0.0982834 0.0413672
0.945266 0.0992447 0.0422827
0.972549 0.100908 0.0437476
0.0780957 0.180133 0.104784
0.100252 0.178317 0.103258
0.119066 0.177142 0.102129
0.136568 0.176623 0.10161
0.153445 0.176043 0.101045
0.171084 0.175647 0.100649
0.189578 0.174868 0.0999008
0.21033 0.173724 0.0987869
0.233799 0.171832 0.0967575
0.26154 0.168856 0.093904
0.29369 0.164767 0.090013
0.329824 0.159838 0.0852216
0.369085 0.154131 0.0793774
0.410071 0.14789 0.0734874
0.450797 0.142123 0.0678111
0.490272 0.137041 0.062562
0.526787 0.132525 0.0583505
0.560342 0.129229 0.0548409
0.59147 0.126482 0.052369
0.621897 0.124331 0.0502327
0.652201 0.123095 0.049012
0.681315 0.121782 0.0475624
0.709667 0.12079 0.046479
0.737896 0.120119 0.0458228
0.76582 0.120272 0.0459754
0.793484 0.120546 0.0463722
0.821027 0.121309 0.0472267
0.847822 0.122103 0.0480201
0.874937 0.123125 0.0490272
0.9019 0.124636 0.0502785
0.929259 0.126314 0.051957
0.957031 0.128237 0.0540932
0.98468 0.130236 0.0558785
0.0755322 0.19646 0.102449
0.0974746 0.194553 0.100496
0.116838 0.193713 0.0996872
0.134142 0.19321 0.0991836
0.151385 0.193011 0.0990158
0.168933 0.192538 0.0985428
0.1879 0.192264 0.0982681
0.208789 0.191226 0.097261
0.232853 0.189654 0.0957504
0.260716 0.186801 0.0931258
0.293172 0.1832 0.0894942
0.329732 0.178408 0.0850385
0.36965 0.173251 0.0798352
0.410956 0.167697 0.0744335
0.452201 0.162051 0.0690013
0.492302 0.157336 0.064332
0.529503 0.15349 0.0605783
0.563668 0.150744 0.0578622
0.595666 0.148959 0.0561074
0.626825 0.147509 0.0546731
0.657267 0.146456 0.0536355
0.687282 0.145907 0.0530861
0.716686 0.1458 0.0529793
0.745754 0.146136 0.053315
0.773953 0.14667 0.0538338
0.802106 0.14789 0.055024
0.830228 0.149218 0.0563211
0.858015 0.150851 0.0579232
0.885588 0.152621 0.0596628
0.913176 0.154574 0.0615549
0.94136 0.157107 0.0640574
0.969482 0.159625 0.0664988
0.998459 0.161837 0.0686503
0.0716411 0.213748 0.0983291
0.0940566 0.212177 0.096849
0.113176 0.211322 0.0960403
0.131121 0.211246 0.095964
0.148287 0.211215 0.0959182
0.166354 0.211307 0.0960098
0.185534 0.211017 0.0957046
0.206683 0.210529 0.0952468
0.230945 0.209201 0.093904
0.25922 0.206912 0.0917678
0.292332 0.203662 0.0886702
0.329168 0.199313 0.0843519
0.36994 0.19469 0.0800488
0.411978 0.189731 0.075288
0.454231 0.184833 0.0705577
0.494484 0.18056 0.0664225
0.532555 0.177417 0.063386
0.567666 0.175418 0.0613107
0.600443 0.17438 0.0601663
0.632166 0.173678 0.0594797
0.663218 0.173266 0.0590677
0.693721 0.173266 0.0590524
0.723781 0.173831 0.0598154
0.753674 0.175082 0.0610361
0.782742 0.176425 0.0623178
0.811139 0.178027 0.0638437
0.839643 0.179843 0.0656138
0.867872 0.182116 0.0678111
0.896483 0.184955 0.0703899
0.924788 0.187686 0.073167
0.952926 0.190478 0.0758526
0.981659 0.193271 0.0785382
1 0.196094 0.0812238
0.065507 0.232853 0.0924086
0.0882582 0.231632 0.0912642
0.107866 0.231067 0.0907301
0.125765 0.231235 0.0908827
0.143526 0.231632 0.0912337
0.162142 0.232227 0.0918746
0.181582 0.232349 0.0920729
0.203021 0.232166 0.0918898
0.22768 0.231373 0.0910201
0.256641 0.229648 0.0893263
0.290639 0.227253 0.0870375
0.328603 0.223713 0.0837262
0.369329 0.219364 0.0795605
0.412222 0.214771 0.075288
0.455116 0.210895 0.071519
0.496773 0.207431 0.0681926
0.53547 0.205066 0.0659342
0.571069 0.203616 0.0645304
0.604425 0.203006 0.06392
0.637034 0.203006 0.0639048
0.668803 0.20354 0.0644236
0.700175 0.204273 0.0650645
0.73077 0.205722 0.0664225
0.760769 0.207279 0.0679026
0.790311 0.209323 0.0698863
0.819699 0.211658 0.0720378
0.848569 0.214206 0.0744488
0.877485 0.217243 0.0773175
0.905837 0.219959 0.0798962
0.934569 0.223087 0.0829633
0.963287 0.226383 0.0859541
0.992966 0.229435 0.0889448
1 0.233036 0.092195
0.057557 0.254383 0.0844434
0.0804608 0.25333 0.0834669
0.100618 0.253407 0.0835279
0.118944 0.254032 0.0841077
0.137072 0.254826 0.0846418
0.155932 0.255863 0.0857862
0.176059 0.256672 0.0865034
0.198138 0.257206 0.0869764
0.223453 0.257206 0.0869612
0.253208 0.256016 0.0858473
0.28748 0.254139 0.0840772
0.325978 0.251316 0.0814374
0.367926 0.247822 0.0781567
0.411597 0.244007 0.0745403
0.455085 0.240604 0.071397
0.497673 0.237995 0.0689097
0.537179 0.236255 0.0672618
0.573678 0.235569 0.0665904
0.607507 0.23566 0.0666361
0.640574 0.236164 0.0670787
0.673304 0.237507 0.0683146
0.704845 0.238956 0.0696269
0.735943 0.240772 0.0713054
0.7664 0.242908 0.0732891
0.796155 0.24538 0.0755779
0.826154 0.248447 0.0784314
0.855436 0.251514 0.0812695
0.884459 0.254749 0.0842908
0.913039 0.257816 0.0871138
0.941787 0.261143 0.0902419
0.970901 0.264897 0.0936599
1 0.268009 0.0965744
1 0.271336 0.0995651
0.0476234 0.278569 0.0745098
0.0708629 0.277897 0.0738689
0.0915236 0.278614 0.0745403
0.110643 0.280064 0.0758526
0.129335 0.281575 0.0769818
0.148333 0.28307 0.0783246
0.168902 0.28452 0.0797589
0.191745 0.285832 0.0810559
0.218097 0.286748 0.0818494
0.248432 0.286442 0.0815137
0.283207 0.285023 0.0802319
0.322316 0.282734 0.0780194
0.364965 0.279911 0.0752422
0.409613 0.277089 0.0727092
0.454078 0.274388 0.0703746
0.496864 0.272129 0.0680552
0.536736 0.270909 0.066865
0.573785 0.270832 0.0667582
0.608789 0.271672 0.0677195
0.642618 0.273213 0.0690776
0.675471 0.274754 0.0702373
0.707622 0.276661 0.0719463
0.73901 0.278874 0.0741894
0.769833 0.281498 0.0763256
0.800366 0.284688 0.079469
0.829892 0.287816 0.0821088
0.859358 0.290959 0.0851759
0.888197 0.294331 0.0882734
0.917159 0.297612 0.0912337
0.94609 0.301274 0.0945602
0.974899 0.304616 0.0975662
1 0.307668 0.100374
1 0.310765 0.103075
0.0361944 0.305928 0.0628367
0.0602731 0.306371 0.0632486
0.0813916 0.307378 0.0643168
0.100755 0.309209 0.0660258
0.120165 0.311559 0.0678874
0.140154 0.314199 0.0702525
0.161379 0.316365 0.0724193
0.184756 0.318486 0.0740826
0.211353 0.319738 0.0751659
0.242359 0.320211 0.0756085
0.277913 0.319722 0.0751202
0.317861 0.318135 0.07364
0.361181 0.31606 0.0717937
0.406256 0.313649 0.069749
0.451316 0.311513 0.0677806
0.494896 0.310033 0.0661784
0.535424 0.309438 0.065568
0.573022 0.309697 0.06598
0.60827 0.311009 0.0671092
0.642267 0.312749 0.068452
0.675578 0.314824 0.0702373
0.708247 0.317067 0.0724651
0.739757 0.319753 0.0746166
0.770764 0.322576 0.0773938
0.800931 0.325612 0.0801099
0.830777 0.328756 0.0829328
0.860075 0.332021 0.0858778
0.889235 0.335561 0.0890669
0.917815 0.33872 0.0919051
0.946319 0.341909 0.0947585
0.974868 0.345022 0.0975967
1 0.34786 0.10016
1 0.351125 0.10309
0.0247349 0.336568 0.0510719
0.0491951 0.337591 0.0519417
0.0708629 0.339605 0.0538033
0.0908064 0.342184 0.0560922
0.110826 0.345037 0.0586252
0.131609 0.348608 0.0618143
0.153521 0.351675 0.0647288
0.177447 0.354421 0.0669871
0.204364 0.356374 0.0687114
0.235828 0.357382 0.0696269
0.272114 0.357519 0.0699016
0.312688 0.356695 0.0690471
0.356405 0.355215 0.0675059
0.402152 0.353216 0.0656748
0.447608 0.351446 0.0640421
0.491722 0.350515 0.0631723
0.532921 0.350561 0.0631723
0.570703 0.351247 0.0637217
0.606058 0.352667 0.0649424
0.640345 0.354498 0.0666209
0.673991 0.356924 0.0686351
0.706783 0.359365 0.0710002
0.738094 0.361837 0.0729686
0.768887 0.364675 0.0754864
0.799161 0.367559 0.0783093
0.828946 0.370947 0.081117
0.858183 0.373892 0.0839857
0.886717 0.377005 0.0865492
0.915175 0.379767 0.0892653
0.943313 0.382773 0.0919661
0.97203 0.385794 0.0946975
1 0.388067 0.0967422
1 0.390417 0.0986343
0.0139467 0.370199 0.040177
0.0386664 0.371847 0.0416571
0.0609445 0.374609 0.0438849
0.0818494 0.378042 0.0471656
0.102785 0.381979 0.0506294
0.123644 0.385672 0.0539559
0.146029 0.389242 0.0571145
0.170428 0.392645 0.0601511
0.19823 0.395377 0.0627604
0.230564 0.397421 0.0643778
0.267002 0.398001 0.0648661
0.307942 0.397528 0.0644236
0.351965 0.396185 0.0631571
0.398047 0.394751 0.0618143
0.444282 0.393774 0.0608988
0.488457 0.392905 0.06009
0.529793 0.392844 0.059968
0.567605 0.393576 0.0605478
0.602914 0.395178 0.0619364
0.637491 0.397467 0.0639811
0.671016 0.399542 0.0657511
0.703471 0.401816 0.0677653
0.734752 0.403983 0.0698863
0.765545 0.406638 0.0720226
0.795621 0.409628 0.0747234
0.825025 0.412406 0.0772106
0.853864 0.415137 0.0796826
0.882185 0.4177 0.0822461
0.910643 0.420432 0.0844739
0.938186 0.422766 0.0865949
0.966064 0.425101 0.0889754
0.994553 0.426841 0.0902876
1 0.428611 0.0918898
0.00527962 0.406394 0.0314794
0.0306249 0.408789 0.0335546
0.0534981 0.41207 0.0364233
0.0750744 0.416327 0.0402686
0.0962081 0.420722 0.0443275
0.117739 0.425208 0.0480964
0.140612 0.429343 0.0520333
0.165286 0.43299 0.0551308
0.193668 0.436454 0.058381
0.226093 0.438636 0.0603189
0.263157 0.439673 0.0612345
0.304463 0.439597 0.0611276
0.348669 0.438453 0.060029
0.395071 0.437476 0.0589761
0.440955 0.436255 0.057908
0.485191 0.435477 0.0572213
0.526574 0.435462 0.0570535
0.564614 0.436149 0.0576944
0.600031 0.437858 0.0591745
0.634195 0.439506 0.0605936
0.667216 0.441398 0.0623178
0.699626 0.443412 0.0640574
0.730953 0.445838 0.0661936
0.761486 0.447929 0.0682689
0.790875 0.450126 0.0700236
0.819547 0.452323 0.0720073
0.848203 0.454505 0.0741131
0.876387 0.456977 0.0762036
0.90396 0.458961 0.0780194
0.931243 0.460624 0.0796521
0.958206 0.462104 0.0810864
0.986358 0.463539 0.0821698
1 0.464805 0.0833143
0 0.443839 0.025742
0.0259098 0.447379 0.0283665
0.0491188 0.451469 0.0320439
0.0708782 0.455985 0.0361944
0.0924086 0.460761 0.0403449
0.114458 0.465583 0.044892
0.137957 0.47071 0.0493935
0.162966 0.474784 0.0528267
0.191348 0.478187 0.0560922
0.22388 0.480507 0.0581521
0.260868 0.481743 0.0589914
0.302495 0.481987 0.0591745
0.346853 0.480995 0.0582132
0.393011 0.479637 0.057023
0.438865 0.478279 0.0559243
0.483101 0.477485 0.0551766
0.524407 0.477394 0.055024
0.561898 0.477775 0.0550851
0.596948 0.479042 0.0562142
0.631006 0.480415 0.057557
0.663996 0.482231 0.0591592
0.695674 0.483742 0.0603799
0.726314 0.48539 0.0616922
0.756481 0.487053 0.0634165
0.785702 0.488792 0.0649729
0.814237 0.490791 0.0665293
0.84213 0.492149 0.0679942
0.869398 0.493492 0.0692302
0.896406 0.49485 0.0704509
0.923293 0.496239 0.0716869
0.950149 0.49752 0.0728161
0.977218 0.498268 0.0735637
1 0.498894 0.0741283
0 0.483238 0.0246128
0.0247807 0.486549 0.0272526
0.0481727 0.491112 0.0310979
0.0704967 0.496117 0.0358129
0.0924697 0.501472 0.0405737
0.114778 0.506844 0.0451362
0.138247 0.511635 0.0496376
0.163455 0.515724 0.053254
0.191775 0.519295 0.0564126
0.224796 0.521874 0.0586557
0.261891 0.52311 0.0597696
0.303059 0.52285 0.0594797
0.347234 0.52166 0.0583658
0.393149 0.520058 0.0568856
0.439033 0.518883 0.0556497
0.482826 0.517739 0.0545052
0.523659 0.517174 0.0539712
0.560937 0.517311 0.0540475
0.595514 0.517968 0.0547799
0.628977 0.518898 0.0555581
0.661341 0.519936 0.0564431
0.692653 0.520989 0.0573892
0.722789 0.521996 0.0581979
0.752529 0.523171 0.0592966
0.781003 0.5243 0.0603342
0.808835 0.52549 0.0614176
0.836469 0.526528 0.0623636
0.863355 0.527703 0.0634318
0.890379 0.528527 0.0641794
0.916548 0.529335 0.0649271
0.942916 0.530053 0.0655985
0.969238 0.530724 0.0662089
0.996735 0.531319 0.066743
0.000534066 0.522622 0.0267185
0.0272526 0.526299 0.0300145
0.0510567 0.530877 0.0342107
0.0737774 0.53637 0.0390173
0.0958572 0.541619 0.0437018
0.118257 0.546761 0.0485389
0.141466 0.551614 0.0526131
0.166644 0.555703 0.0564126
0.195407 0.55938 0.0597696
0.227878 0.561486 0.0616312
0.264668 0.562341 0.0623484
0.305806 0.561975 0.0619669
0.349798 0.560586 0.0607004
0.395575 0.558862 0.0590982
0.440681 0.556756 0.0571756
0.48397 0.554986 0.0553445
0.524132 0.553979 0.0543679
0.561471 0.554009 0.0543526
0.595499 0.554162 0.0546273
0.62826 0.554314 0.0547951
0.659846 0.554543 0.054963
0.690684 0.555032 0.0553902
0.72047 0.555749 0.0560159
0.749432 0.556298 0.0564584
0.777432 0.556878 0.0567941
0.805127 0.557626 0.057496
0.832456 0.558434 0.0583658
0.859174 0.55903 0.0590219
0.885557 0.559655 0.0596017
0.911757 0.560235 0.0601511
0.938003 0.561074 0.060914
0.964385 0.561563 0.0612345
0.991577 0.561959 0.0615091
0.00544747 0.561746 0.031632
0.0323339 0.565866 0.0350958
0.0565805 0.57052 0.0395209
0.0790265 0.575601 0.0440833
0.100755 0.580835 0.0485542
0.123018 0.585763 0.0532082
0.146639 0.59057 0.0575113
0.171466 0.594491 0.0610513
0.2 0.597543 0.0637827
0.232136 0.599405 0.0654765
0.268986 0.599954 0.0659342
0.30956 0.599207 0.0652323
0.353262 0.597269 0.063447
0.398383 0.594888 0.0612497
0.442908 0.592447 0.0589609
0.485908 0.590448 0.0571603
0.525475 0.588632 0.0554818
0.561502 0.587579 0.05449
0.595026 0.587167 0.054078
0.627344 0.586938 0.0538338
0.658824 0.58706 0.0539254
0.689067 0.586938 0.0538033
0.718227 0.586969 0.0538033
0.746792 0.587091 0.0539254
0.774823 0.587686 0.0544747
0.80238 0.58822 0.0548714
0.829358 0.588556 0.0552834
0.855833 0.588983 0.0556802
0.8822 0.589578 0.0562448
0.90837 0.590143 0.0567483
0.934417 0.590616 0.0571908
0.960647 0.591073 0.0576486
0.987625 0.59118 0.0577249
0.0118105 0.600977 0.0380713
0.0383612 0.604547 0.0411231
0.0623789 0.608957 0.0453193
0.0846571 0.613779 0.0496834
0.106432 0.618952 0.0543679
0.12874 0.623804 0.0588083
0.151949 0.628016 0.0626383
0.176654 0.631434 0.0657511
0.204349 0.633722 0.0678874
0.236576 0.635309 0.0692607
0.272725 0.635294 0.0692302
0.312932 0.63389 0.0679179
0.35584 0.631388 0.0657816
0.400107 0.628458 0.0628824
0.44419 0.625345 0.0599985
0.486534 0.622492 0.0574197
0.525643 0.620493 0.0555123
0.561395 0.619165 0.0542763
0.594644 0.618479 0.0536202
0.626459 0.617761 0.0529335
0.657313 0.617243 0.0524453
0.687358 0.616907 0.0521096
0.716594 0.617029 0.0522164
0.74519 0.617166 0.0523384
0.772961 0.617243 0.05243
0.799969 0.617472 0.0526284
0.826856 0.61767 0.0528878
0.853452 0.618204 0.053315
0.879774 0.618479 0.0535744
0.905669 0.618967 0.0540475
0.931579 0.619196 0.0542611
0.957656 0.619638 0.0546731
0.984482 0.619516 0.0545357
0.0178683 0.638834 0.0441901
0.0443427 0.642222 0.0471046
0.0681773 0.646342 0.0511025
0.090486 0.651118 0.0554971
0.111635 0.655497 0.0595407
0.133333 0.659571 0.0632944
0.156161 0.663249 0.0669261
0.180835 0.666499 0.0697185
0.208255 0.66862 0.0716869
0.239521 0.669154 0.0721599
0.274907 0.66833 0.0713664
0.314473 0.66627 0.0694438
0.357397 0.663569 0.0669108
0.401221 0.660044 0.0638132
0.444526 0.656458 0.0602579
0.486442 0.653162 0.0571908
0.525399 0.65098 0.0552071
0.560662 0.649271 0.0535439
0.593469 0.648142 0.0524758
0.625116 0.647257 0.0516213
0.65594 0.646723 0.0511025
0.685878 0.646281 0.0506752
0.714931 0.646174 0.0505837
0.743252 0.646021 0.0504311
0.770962 0.646021 0.0504311
0.79794 0.64622 0.0506142
0.824689 0.646235 0.0506447
0.850889 0.646601 0.0509957
0.877134 0.646738 0.051133
0.90309 0.64712 0.0514839
0.928862 0.647181 0.0515297
0.954787 0.647196 0.0515602
0.981506 0.647166 0.0515297
0.0237125 0.675395 0.0505837
0.0505684 0.678584 0.0533303
0.073991 0.682139 0.0568856
0.095552 0.686137 0.0605173
0.116472 0.690044 0.0643015
0.13785 0.693675 0.0677043
0.159899 0.696681 0.0705272
0.183795 0.699031 0.0726635
0.210941 0.700328 0.0739452
0.241856 0.70045 0.0740673
0.277165 0.699519 0.073167
0.31603 0.697032 0.0708019
0.357992 0.693584 0.0675364
0.401511 0.689662 0.0637675
0.444602 0.685908 0.0602731
0.486549 0.682673 0.0572213
0.524956 0.680049 0.0545663
0.560037 0.678111 0.052903
0.592676 0.676829 0.0516823
0.62443 0.676051 0.0509194
0.654948 0.675212 0.0501259
0.684871 0.674754 0.0496834
0.713573 0.674281 0.0492409
0.741909 0.674159 0.0491188
0.769421 0.67393 0.0488899
0.796124 0.673838 0.0488136
0.822965 0.673961 0.0489357
0.849058 0.674205 0.0491646
0.875059 0.674144 0.0491188
0.900587 0.674174 0.049134
0.926421 0.674372 0.0493172
0.952422 0.674479 0.0493019
0.978836 0.674113 0.0489052
0.0293278 0.710124 0.056199
0.0554665 0.712505 0.0584726
0.0781567 0.71548 0.0610513
0.0990768 0.718608 0.0642557
0.119615 0.722103 0.0673381
0.140551 0.725002 0.0703441
0.162249 0.727581 0.0725567
0.18584 0.729534 0.0744488
0.21265 0.730709 0.0757916
0.243107 0.730343 0.0754253
0.277897 0.728786 0.0738079
0.316655 0.726101 0.0710918
0.358526 0.722667 0.06804
0.401831 0.71873 0.0640421
0.444953 0.714824 0.0605631
0.48632 0.711162 0.0569924
0.524559 0.708309 0.0540932
0.559747 0.706493 0.0525521
0.592187 0.705028 0.0511788
0.623728 0.704051 0.050248
0.654093 0.703075 0.0492866
0.683879 0.70248 0.0487068
0.712459 0.7019 0.0481575
0.740459 0.701427 0.0476997
0.767987 0.701213 0.0474861
0.794751 0.701167 0.0474403
0.821302 0.700969 0.0472725
0.847059 0.700877 0.0471656
0.873167 0.700908 0.0472114
0.898863 0.700938 0.0472419
0.924239 0.700862 0.0471656
0.949905 0.700618 0.0469368
0.976486 0.700359 0.0466773
0.0335851 0.742245 0.0602274
0.0589456 0.74403 0.0619516
0.0816663 0.746746 0.064683
0.102312 0.749523 0.0672465
0.122225 0.752224 0.0699779
0.142473 0.754681 0.072221
0.164004 0.757031 0.0744945
0.187442 0.758816 0.0762188
0.213886 0.759396 0.0769513
0.244144 0.758877 0.0764019
0.278553 0.757183 0.0746166
0.317449 0.754528 0.0720378
0.359197 0.750774 0.0684977
0.402228 0.746838 0.0645914
0.445151 0.742596 0.0605325
0.486259 0.739086 0.0570993
0.524407 0.736019 0.0541238
0.559411 0.733806 0.0520027
0.591821 0.732433 0.0508278
0.623041 0.731411 0.0496681
0.653315 0.730251 0.0485389
0.682734 0.729274 0.0475929
0.711376 0.728756 0.0470893
0.739284 0.728191 0.04654
0.766705 0.727855 0.0462043
0.793133 0.727489 0.0458534
0.81973 0.727321 0.0457008
0.845548 0.727138 0.0455177
0.871366 0.727047 0.0454261
0.896803 0.726787 0.045182
0.922255 0.726787 0.0451667
0.947875 0.726497 0.044892
0.974258 0.72604 0.0444343
0.0369268 0.772869 0.063798
0.0620279 0.774121 0.0647898
0.0840162 0.776043 0.0669108
0.104112 0.778454 0.0692607
0.123934 0.780911 0.0714122
0.144366 0.783383 0.0740826
0.165728 0.785534 0.076173
0.188769 0.786877 0.0773938
0.214939 0.787335 0.0776989
0.245365 0.786923 0.0772869
0.279698 0.785031 0.0756695
0.318379 0.782208 0.0729076
0.359701 0.778332 0.068864
0.402731 0.774197 0.0650492
0.445365 0.769924 0.0606394
0.486229 0.765988 0.0570382
0.524376 0.763043 0.0540932
0.559228 0.760861 0.0517891
0.591318 0.759213 0.0502785
0.622248 0.757778 0.0489967
0.652613 0.756664 0.0479286
0.6822 0.755779 0.0470588
0.710536 0.754971 0.0462501
0.738247 0.754208 0.0455024
0.765591 0.753796 0.0451057
0.791943 0.753338 0.0446632
0.818418 0.753063 0.0444038
0.844175 0.752712 0.0440528
0.869825 0.752544 0.0438849
0.895155 0.752178 0.043534
0.920577 0.752041 0.0433967
0.94609 0.751766 0.0431373
0.972351 0.751141 0.0425116
0.0392767 0.801465 0.0659953
0.0640421 0.802533 0.0670329
0.0857557 0.804364 0.0688487
0.106264 0.806714 0.0711528
0.125872 0.809171 0.073579
0.146075 0.811292 0.075761
0.167239 0.813031 0.0773938
0.190402 0.814466 0.0788128
0.21622 0.814801 0.0791485
0.246296 0.814054 0.0784009
0.280812 0.812116 0.0764782
0.319051 0.809049 0.0735027
0.360479 0.805188 0.0696269
0.403006 0.800717 0.0652628
0.445624 0.79649 0.0610513
0.486336 0.792508 0.0571298
0.524376 0.78938 0.0540475
0.559014 0.786877 0.0515755
0.591043 0.785306 0.0500343
0.62179 0.78381 0.0485542
0.651926 0.78262 0.0473793
0.68127 0.781369 0.0461433
0.709667 0.780621 0.0454108
0.737346 0.779812 0.0446174
0.764492 0.779217 0.0440223
0.790738 0.778653 0.043473
0.817121 0.778271 0.0431067
0.842741 0.777783 0.0426184
0.86833 0.777554 0.0423896
0.893782 0.777325 0.0421607
0.919005 0.776837 0.0416876
0.944152 0.776333 0.0411994
0.970596 0.775876 0.0407263
0.0413519 0.829252 0.0682231
0.0663462 0.830381 0.0691081
0.087892 0.832044 0.0707561
0.107958 0.834287 0.0730755
0.127596 0.836362 0.075288
