Grain/Grain/Resources/Luts/Cinema/CINECOLOR_JAWS.cube
TITLE "Generated by Resolve"
LUT_3D_SIZE 9
0.190112 0.188373 0.191028
0.224765 0.187259 0.189914
0.271885 0.182818 0.185519
0.369451 0.164614 0.167544
0.499962 0.137682 0.140902
0.628626 0.111513 0.114961
0.72256 0.095613 0.0991531
0.794553 0.0866865 0.0902266
0.864973 0.0799115 0.0834516
0.187198 0.219974 0.188113
0.221958 0.218967 0.187121
0.269581 0.214893 0.18323
0.369299 0.197681 0.166995
0.503807 0.172396 0.142992
0.638956 0.148959 0.1205
0.741665 0.137057 0.108766
0.826642 0.134325 0.105577
0.914427 0.135729 0.106172
0.176165 0.258305 0.177462
0.213138 0.260075 0.178851
0.264942 0.260197 0.178729
0.372183 0.248447 0.168078
0.519402 0.230411 0.1514
0.671824 0.215717 0.137148
0.792859 0.213291 0.133516
0.894347 0.219486 0.137499
0.995392 0.228244 0.14374
0.139116 0.328649 0.141817
0.182513 0.340978 0.150561
0.242878 0.352834 0.158846
0.360952 0.352193 0.157565
0.520363 0.343542 0.149279
0.683772 0.3364 0.141329
0.812421 0.340093 0.141634
0.918456 0.351293 0.147921
1 0.364645 0.155947
0.106523 0.446418 0.109895
0.154986 0.469581 0.12401
0.219806 0.490089 0.136629
0.342748 0.495781 0.13991
0.506462 0.491463 0.135607
0.673167 0.488029 0.130663
0.803647 0.495491 0.132662
0.909072 0.50927 0.139132
1 0.523339 0.145922
0.0896315 0.591684 0.0926528
0.140322 0.619806 0.108324
0.207492 0.644526 0.122408
0.33373 0.652552 0.127535
0.500191 0.649073 0.124865
0.666087 0.64419 0.119982
0.791394 0.648402 0.119982
0.888747 0.657618 0.12311
0.979431 0.665644 0.125628
0.101289 0.741146 0.102586
0.153826 0.769009 0.117906
0.221592 0.790875 0.130388
0.348775 0.793378 0.133059
0.513726 0.782116 0.127153
0.674693 0.768811 0.118669
0.792447 0.765118 0.114885
0.881315 0.767025 0.114183
0.963867 0.768627 0.113283
0.122881 0.875608 0.122042
0.173358 0.895582 0.13341
0.237903 0.908125 0.141161
0.362753 0.900999 0.139269
0.524956 0.881102 0.129625
0.682353 0.860838 0.118303
0.795636 0.851545 0.112093
0.879866 0.848798 0.109239
0.958358 0.846662 0.106615
0.131426 0.981064 0.129259
0.178637 0.992966 0.136568
0.240406 0.998779 0.140993
0.363592 0.985733 0.136629
0.524178 0.960754 0.125231
0.679652 0.936522 0.112703
0.790768 0.924331 0.105516
0.873503 0.919951 0.102113
0.951003 0.916884 0.0992142
0.189563 0.187839 0.224384
0.224491 0.186969 0.223529
0.271595 0.182528 0.218967
0.369146 0.16434 0.200183
0.499825 0.13756 0.172595
0.628901 0.11165 0.145968
0.723186 0.0959487 0.129946
0.795972 0.0873732 0.12134
0.867521 0.0811017 0.115145
0.186908 0.219684 0.221714
0.221729 0.218738 0.220768
0.269673 0.214939 0.217014
0.369772 0.198001 0.200305
0.505058 0.173175 0.175769
0.641474 0.150393 0.15317
0.745968 0.139376 0.142168
0.832975 0.137591 0.140276
0.922515 0.139803 0.14229
0.176608 0.258824 0.211368
0.214115 0.261097 0.213367
0.266621 0.261814 0.213855
0.37557 0.25124 0.203861
0.525109 0.234424 0.187778
0.679423 0.220523 0.17406
0.80206 0.218769 0.171511
0.904509 0.225376 0.176699
1 0.23473 0.184421
0.141955 0.332418 0.17641
0.186618 0.345998 0.186801
0.248005 0.358557 0.196323
0.367803 0.35877 0.195819
0.528954 0.350637 0.187884
0.693416 0.343542 0.180148
0.822965 0.347478 0.181292
0.929793 0.358984 0.188769
1 0.372305 0.197803
0.111406 0.454032 0.145678
0.160678 0.477684 0.161242
0.226398 0.498604 0.175128
0.350195 0.504067 0.178576
0.51548 0.500114 0.174517
0.68333 0.496803 0.169863
0.813916 0.503838 0.172274
0.919478 0.517464 0.179553
1 0.530938 0.186862
0.0952621 0.601282 0.129656
0.146441 0.629358 0.146517
0.21416 0.654017 0.161593
0.341375 0.661952 0.166949
0.508217 0.657633 0.163745
0.674357 0.65214 0.158511
0.799359 0.655634 0.158526
0.895872 0.66389 0.161669
0.985412 0.670802 0.16405
0.106935 0.750881 0.141741
0.159625 0.778241 0.157824
0.227329 0.799252 0.170596
0.354513 0.800687 0.172686
0.519326 0.788388 0.165789
0.679957 0.774182 0.156451
0.797238 0.769757 0.152285
0.88542 0.770901 0.151385
0.967529 0.772015 0.150423
0.127169 0.88275 0.162127
0.177172 0.901442 0.173434
0.24155 0.913314 0.181186
0.366262 0.90544 0.178515
0.528389 0.884978 0.167865
0.685557 0.864164 0.155627
0.798535 0.854459 0.148989
0.882536 0.851408 0.146014
0.960998 0.84921 0.143404
0.134203 0.985382 0.169131
0.18117 0.996658 0.176425
0.242741 1 0.180652
0.36585 0.988479 0.175525
0.526421 0.963241 0.163134
0.681987 0.938964 0.149828
0.792966 0.926558 0.142214
0.875685 0.922133 0.138735
0.953384 0.919219 0.135912
0.18822 0.186511 0.272129
0.22298 0.18555 0.271199
0.269963 0.181079 0.266392
0.36762 0.163119 0.246784
0.498268 0.136492 0.217884
0.627726 0.110933 0.190402
0.722408 0.095491 0.174136
0.795926 0.0872969 0.165896
0.868696 0.08159 0.160494
0.185519 0.218265 0.269444
0.220386 0.217426 0.268605
0.268574 0.213916 0.264973
0.369131 0.197421 0.247761
0.505165 0.173159 0.222553
0.642634 0.150988 0.199695
0.749096 0.140978 0.189685
0.838376 0.140307 0.189532
0.929549 0.143267 0.19324
0.176135 0.258335 0.259571
0.214267 0.261265 0.262425
0.267689 0.262821 0.26392
0.378225 0.253376 0.254566
0.529793 0.237675 0.239002
0.685771 0.224475 0.225834
0.809735 0.223316 0.224491
0.913603 0.23061 0.231479
1 0.240101 0.240604
0.144259 0.335531 0.225589
0.189899 0.350057 0.237736
0.252522 0.363607 0.249027
0.373693 0.364416 0.249256
0.536126 0.356558 0.241505
0.70193 0.349859 0.234302
0.831754 0.353658 0.23621
0.939315 0.365484 0.245182
1 0.37911 0.255787
0.115785 0.460822 0.196109
0.165759 0.484886 0.213458
0.231891 0.505699 0.22855
0.356924 0.511543 0.232654
0.523415 0.507744 0.228748
0.691844 0.504173 0.22417
0.822904 0.511193 0.227436
0.927916 0.524147 0.23537
1 0.537026 0.243366
0.10016 0.609491 0.181323
0.15201 0.637964 0.199939
0.220066 0.662318 0.216129
0.347753 0.669749 0.22153
0.51519 0.665064 0.21796
0.681254 0.658793 0.212238
0.805646 0.661402 0.212161
0.901259 0.668696 0.215381
0.989944 0.674769 0.217838
0.111864 0.759197 0.196155
0.16434 0.78555 0.21294
0.23183 0.805646 0.226108
0.358816 0.806073 0.227512
0.523323 0.792798 0.219471
0.683757 0.778042 0.209277
0.800519 0.772961 0.20473
0.888151 0.773526 0.203738
0.969711 0.774105 0.202701
0.130617 0.888273 0.217792
0.180194 0.905882 0.229236
0.24419 0.916884 0.236896
0.368627 0.908248 0.233295
0.530587 0.887358 0.221424
0.68748 0.866133 0.208133
0.800122 0.856031 0.200992
0.883848 0.85272 0.197879
0.962112 0.850355 0.195224
0.136156 0.988067 0.22475
0.182834 0.998718 0.232059
0.244205 1 0.236164
0.367132 0.989746 0.230076
0.527565 0.96434 0.216434
0.683055 0.939971 0.202106
0.794064 0.927642 0.19411
0.876646 0.92311 0.190509
0.954391 0.920256 0.187716
0.18201 0.180468 0.378943
0.216419 0.179431 0.377935
0.263081 0.175051 0.372793
0.360342 0.157473 0.351415
0.490669 0.131395 0.320134
0.620035 0.106355 0.290822
0.715084 0.0914168 0.274128
0.789212 0.0836805 0.266423
0.863005 0.0785534 0.262196
0.179446 0.212085 0.376349
0.214267 0.211475 0.375799
0.262455 0.208301 0.372259
0.363134 0.192523 0.353964
0.499641 0.169177 0.327352
0.638041 0.147951 0.303883
0.746166 0.13901 0.295216
0.837247 0.13933 0.297597
0.929747 0.142992 0.304051
0.171359 0.253162 0.367117
0.209888 0.256779 0.371298
0.264256 0.259464 0.374548
0.375967 0.251286 0.365866
0.528771 0.236667 0.350515
0.686122 0.224414 0.338186
0.811276 0.223957 0.338979
0.915526 0.231464 0.348501
1 0.241321 0.360555
0.143023 0.334188 0.333761
0.189364 0.349599 0.348837
0.252537 0.363729 0.362661
0.37464 0.365286 0.364126
0.538064 0.358099 0.356939
0.704097 0.351431 0.35021
0.834592 0.355627 0.354131
0.942504 0.367636 0.365743
1 0.381018 0.378698
0.116884 0.462593 0.305425
0.167117 0.48687 0.325841
0.233585 0.507881 0.343557
0.359045 0.513878 0.348562
0.526116 0.510353 0.344976
0.695033 0.506996 0.341039
0.825574 0.513497 0.34548
0.930236 0.526146 0.355322
1 0.538293 0.364782
0.102296 0.612757 0.293156
0.154192 0.641047 0.314611
0.222278 0.665202 0.333104
0.350011 0.672328 0.338933
0.51696 0.666865 0.334524
0.682368 0.659922 0.328191
0.805753 0.661646 0.328283
0.900389 0.668177 0.332158
0.988159 0.673564 0.335195
0.113619 0.761517 0.312856
0.165835 0.78732 0.33167
0.232776 0.80647 0.345922
0.359075 0.805966 0.346502
0.522774 0.791928 0.33669
0.682353 0.776562 0.325017
0.798123 0.770748 0.31986
0.885237 0.771008 0.319066
0.96614 0.771191 0.318181
0.130831 0.887541 0.338018
0.179797 0.904234 0.35024
0.243046 0.914244 0.357992
0.366949 0.905348 0.353155
0.528206 0.884169 0.339178
0.684596 0.862913 0.324163
0.796536 0.852445 0.316167
0.879805 0.848951 0.312917
0.957702 0.846464 0.310277
0.135012 0.984619 0.346166
0.181201 0.994675 0.353796
0.242161 0.999222 0.357885
0.364492 0.985245 0.350195
0.524407 0.95993 0.33431
0.679408 0.935714 0.318105
0.790188 0.923537 0.309377
0.872526 0.91902 0.305623
0.950134 0.916304 0.302937
0.172396 0.171054 0.526787
0.20647 0.170108 0.525841
0.252689 0.16582 0.520241
0.349386 0.14873 0.496834
0.47924 0.123323 0.462913
0.608347 0.0989242 0.431525
0.7037 0.0845502 0.414481
0.778592 0.0773938 0.407675
0.853391 0.0728771 0.404974
0.170169 0.202625 0.524453
0.204913 0.20235 0.524361
0.25301 0.199557 0.521019
0.353643 0.184558 0.501549
0.490501 0.162264 0.473518
0.629999 0.142245 0.44979
0.739605 0.134356 0.442817
0.832029 0.13547 0.448081
0.925658 0.139773 0.457786
0.163592 0.244862 0.516411
0.202441 0.249134 0.52221
0.257664 0.253025 0.527733
0.370565 0.246326 0.520272
0.524376 0.232776 0.505257
0.682567 0.221302 0.493767
0.808423 0.221363 0.496895
0.913481 0.229404 0.509789
1 0.239185 0.524742
0.138979 0.329641 0.484382
0.185809 0.3458 0.502846
0.249714 0.360845 0.520073
0.372427 0.363088 0.522957
0.536126 0.356176 0.516014
0.702556 0.349889 0.51014
0.833341 0.35433 0.516274
0.941176 0.366323 0.530709
1 0.379812 0.546746
0.115373 0.461067 0.457771
0.165728 0.485496 0.481697
0.23209 0.506355 0.502129
0.358144 0.513008 0.508644
0.52549 0.509712 0.505348
0.694057 0.506081 0.501656
0.824369 0.512444 0.507744
0.928084 0.524422 0.519341
1 0.535653 0.530236
0.101686 0.612146 0.448112
0.153628 0.640482 0.473014
0.221561 0.664363 0.494087
0.348821 0.670893 0.500069
0.515404 0.665202 0.494972
0.679957 0.657633 0.487816
0.802152 0.658473 0.487984
0.895445 0.663996 0.492302
0.982238 0.668757 0.495964
0.112825 0.760128 0.473503
0.164416 0.784939 0.49424
0.230549 0.803021 0.509544
0.356054 0.801862 0.509209
0.518761 0.787243 0.497337
0.677287 0.771359 0.483864
0.792187 0.765103 0.478126
0.878492 0.764904 0.477394
0.958846 0.764858 0.476753
0.128161 0.882445 0.501945
0.176532 0.898451 0.51516
0.239109 0.907805 0.523186
0.362203 0.898573 0.516762
0.522545 0.877241 0.500298
0.678096 0.855909 0.483192
0.789395 0.845335 0.474311
0.872267 0.841794 0.47097
0.94966 0.839139 0.468269
0.131243 0.977081 0.511528
0.176898 0.986664 0.519539
0.237293 0.99089 0.523568
0.358923 0.976928 0.514046
0.518242 0.952041 0.495689
0.67248 0.927886 0.47718
0.782849 0.915877 0.467582
0.865125 0.911696 0.463874
0.942428 0.90898 0.461219
0.162799 0.161639 0.674388
0.196536 0.160693 0.673396
0.242527 0.156634 0.667597
0.33872 0.139925 0.642451
0.46833 0.115206 0.6065
0.597299 0.0913558 0.573465
0.693034 0.0775006 0.556313
0.768856 0.0709697 0.550683
0.845182 0.0672465 0.550011
0.160937 0.19324 0.672419
0.195697 0.193301 0.672892
0.243854 0.190967 0.669947
0.344594 0.176715 0.649775
0.481773 0.155291 0.620676
0.622721 0.136538 0.597452
0.734218 0.129839 0.592737
0.827924 0.131685 0.600748
0.922698 0.136599 0.613519
0.155993 0.236851 0.66627
0.195422 0.241978 0.674098
0.251575 0.246998 0.682063
0.365652 0.241581 0.67602
0.520333 0.22887 0.661372
0.679759 0.21828 0.651102
0.806577 0.218952 0.656535
0.911788 0.227085 0.671885
1 0.237049 0.689586
0.134936 0.325429 0.637034
0.182437 0.342458 0.658854
0.246799 0.357992 0.678782
0.370138 0.360754 0.682918
0.534585 0.354406 0.676555
0.701076 0.348089 0.671016
0.832456 0.352941 0.679286
0.940597 0.365118 0.696361
1 0.378225 0.714443
0.113466 0.459586 0.61236
0.163897 0.483986 0.639124
0.23064 0.505226 0.662364
0.357 0.511986 0.669764
0.524575 0.508766 0.66656
0.693355 0.505226 0.663294
0.822919 0.510964 0.670176
0.925902 0.522377 0.683146
1 0.532998 0.695232
0.100755 0.611887 0.605234
0.152544 0.639796 0.632593
0.220325 0.663325 0.65568
0.347463 0.669581 0.661845
0.513542 0.663294 0.65568
0.677226 0.654994 0.647456
0.798352 0.654978 0.647364
0.890578 0.659709 0.651911
0.97641 0.663798 0.655848
0.111208 0.758297 0.634287
0.16231 0.782269 0.656489
0.227787 0.79942 0.67245
0.352377 0.797284 0.670802
0.514397 0.782345 0.657176
0.672068 0.766018 0.641993
0.786206 0.759365 0.635615
0.871763 0.758709 0.63476
0.951446 0.758282 0.634119
0.125032 0.877546 0.664927
0.172747 0.892638 0.678569
0.234714 0.901381 0.686656
0.357107 0.891814 0.678737
0.516686 0.870314 0.660014
0.671519 0.84889 0.640986
0.782254 0.838193 0.631281
0.86479 0.834638 0.627848
0.941756 0.831846 0.625071
0.126955 0.969665 0.674952
0.172122 0.97879 0.683177
0.232059 0.982757 0.687053
0.353079 0.96878 0.675898
0.511803 0.944106 0.655314
0.665568 0.920226 0.634943
0.775586 0.908339 0.624552
0.857664 0.904295 0.620798
0.935088 0.901976 0.618463
0.156695 0.155612 0.778805
0.19028 0.154696 0.777798
0.23621 0.150774 0.771923
0.33228 0.134371 0.745785
0.461952 0.110079 0.708659
0.591302 0.0867323 0.674937
0.687724 0.0733654 0.658122
0.764523 0.0673381 0.65359
0.842756 0.0644999 0.655116
0.155184 0.187427 0.77731
0.190066 0.187762 0.778286
0.23856 0.185885 0.775982
0.339925 0.172366 0.755901
0.478187 0.151827 0.726909
0.620829 0.134127 0.704662
0.734234 0.12842 0.702007
0.829297 0.130938 0.71223
0.925139 0.136385 0.727169
0.151705 0.232441 0.773388
0.192157 0.238727 0.783566
0.24947 0.244862 0.793866
0.364858 0.24036 0.789075
0.521218 0.228595 0.775464
0.682033 0.218631 0.766171
0.809537 0.219577 0.772915
0.915557 0.228122 0.790295
1 0.23801 0.809384
0.133928 0.325093 0.748425
0.182101 0.342702 0.772488
0.247425 0.35903 0.794812
0.371786 0.362234 0.799908
0.536873 0.355825 0.793439
0.704463 0.34995 0.788647
0.836469 0.355016 0.798245
0.944488 0.366995 0.816526
1 0.380118 0.836118
0.114015 0.461845 0.725658
0.164843 0.486381 0.754345
0.232013 0.507698 0.779171
0.359289 0.514794 0.787427
0.527489 0.511467 0.784085
0.696345 0.507515 0.780529
0.825849 0.512978 0.78793
0.928115 0.52372 0.801297
1 0.533532 0.813535
0.101808 0.615183 0.71989
0.153903 0.643107 0.749035
0.221698 0.666148 0.773053
0.348699 0.671519 0.778546
0.514549 0.664485 0.771206
0.677638 0.655314 0.761807
0.797909 0.654459 0.761105
0.88954 0.658656 0.765667
0.974624 0.662135 0.769482
0.111772 0.760571 0.750713
0.162509 0.783612 0.773342
0.227481 0.79971 0.789166
0.351598 0.796658 0.786267
0.513115 0.781033 0.770977
0.67013 0.764065 0.754314
0.783825 0.757046 0.747372
0.868833 0.755947 0.746242
0.948028 0.755169 0.745403
0.123919 0.876585 0.781033
0.171115 0.89073 0.794507
0.232761 0.89897 0.802457
0.354742 0.888945 0.793286
0.513985 0.867262 0.773007
0.668345 0.845548 0.752529
0.778744 0.834684 0.742184
0.861021 0.831006 0.738567
0.937942 0.82829 0.735851
0.124727 0.966461 0.790387
0.169635 0.975204 0.798627
0.229252 0.978805 0.802213
0.349996 0.964736 0.789899
0.508446 0.940124 0.767803
0.662135 0.916487 0.746334
0.771908 0.90457 0.735348
0.853986 0.900649 0.731594
0.931533 0.898558 0.729473
0.153002 0.151949 0.854414
0.186481 0.151003 0.853269
0.232441 0.147189 0.847364
0.328664 0.131029 0.820722
0.45864 0.107073 0.782956
0.588663 0.0841688 0.749111
0.686107 0.0713359 0.732998
0.764218 0.0659037 0.729809
0.84448 0.0639506 0.733501
0.151812 0.184024 0.853361
0.186954 0.184665 0.854917
0.235889 0.183215 0.85333
0.338125 0.170352 0.833738
0.478019 0.150805 0.805661
0.622614 0.134081 0.784726
0.737743 0.129168 0.783764
0.834348 0.132403 0.795956
0.931655 0.138521 0.812955
0.149905 0.230747 0.852232
0.191424 0.238087 0.864561
0.250233 0.245472 0.877394
0.367132 0.241794 0.873869
0.524971 0.230549 0.860838
0.687312 0.221118 0.852445
0.816129 0.222629 0.860655
0.922347 0.231144 0.878889
1 0.241413 0.899519
0.135012 0.327291 0.831846
0.184237 0.34583 0.858198
0.250401 0.362615 0.882048
0.375799 0.365988 0.887633
0.542107 0.359777 0.881392
0.710597 0.353948 0.876814
0.843305 0.359197 0.887282
0.951858 0.371359 0.906737
1 0.384039 0.92668
0.116289 0.466529 0.810849
0.167575 0.491127 0.840757
0.235645 0.512978 0.867231
0.363775 0.520012 0.8757
0.532723 0.516411 0.871992
0.702037 0.512169 0.868177
0.831022 0.516854 0.875151
0.932601 0.526864 0.888365
1 0.535836 0.900267
0.10457 0.621271 0.806271
0.156802 0.648676 0.836027
0.224689 0.671168 0.860334
0.352041 0.676051 0.865431
0.517891 0.668162 0.85687
0.680537 0.658045 0.846174
0.800076 0.656291 0.844648
0.890959 0.659739 0.848737
0.975219 0.66247 0.852049
0.113588 0.764965 0.836805
0.164019 0.787015 0.859281
0.228733 0.802304 0.87483
0.352621 0.798398 0.870756
0.513741 0.781903 0.85388
0.670558 0.764523 0.836179
0.783795 0.756985 0.828534
0.868559 0.755642 0.827237
0.947219 0.754376 0.826001
0.124193 0.87808 0.865797
0.171099 0.891508 0.879026
0.232471 0.899153 0.88658
0.354223 0.888609 0.876326
0.513329 0.866651 0.854841
0.66743 0.844633 0.833249
0.777676 0.833616 0.8224
0.85977 0.82977 0.818601
0.93666 0.827054 0.815885
0.123964 0.965927 0.873991
0.168719 0.974365 0.882155
0.228122 0.977554 0.885359
0.348898 0.963561 0.872389
0.507164 0.93872 0.849042
0.660853 0.915145 0.826719
0.770855 0.903487 0.815595
0.852857 0.899519 0.811719
0.930556 0.897597 0.809781
0.14966 0.148638 0.924651
0.183169 0.147753 0.923613
0.229191 0.14403 0.917693
0.325704 0.128176 0.890806
0.456077 0.104524 0.852537
0.586816 0.0820478 0.818692
0.68545 0.0697795 0.803525
0.765347 0.0651408 0.802167
0.847593 0.0640269 0.808011
0.148943 0.18117 0.924453
0.184436 0.182132 0.926696
0.233921 0.18117 0.925963
0.337011 0.168902 0.906889
0.478752 0.150378 0.880079
0.625666 0.134752 0.860883
0.742458 0.130571 0.86157
0.840406 0.134401 0.875486
0.938735 0.140978 0.894026
0.148867 0.229908 0.926802
0.19147 0.238239 0.941283
0.251682 0.246769 0.956481
0.370031 0.243763 0.954055
0.529809 0.233295 0.942184
0.693706 0.224353 0.934615
0.823178 0.225971 0.943511
0.930068 0.234745 0.962921
1 0.245304 0.984817
0.136797 0.330419 0.91136
0.18677 0.349432 0.939269
0.25391 0.366781 0.964721
0.380514 0.370413 0.970901
0.547677 0.364019 0.96437
0.717662 0.358663 0.960586
0.851011 0.363989 0.971725
0.959381 0.375814 0.991485
1 0.388373 1
0.11899 0.471855 0.891752
0.170901 0.496712 0.922988
0.239506 0.518547 0.950286
0.368612 0.525597 0.959045
0.53843 0.521813 0.955077
0.70782 0.516884 0.950454
0.836759 0.521157 0.957336
0.937652 0.530449 0.970245
1 0.538552 0.981598
0.107469 0.627543 0.887724
0.160021 0.654795 0.918273
0.228031 0.676707 0.942733
0.355505 0.68072 0.946929
0.521218 0.671824 0.93695
0.683543 0.660868 0.925048
0.802472 0.65832 0.922698
0.892668 0.661051 0.926238
0.976287 0.663188 0.929122
0.115587 0.769726 0.917723
0.165698 0.790738 0.939803
0.229923 0.804807 0.954498
0.35375 0.80029 0.949508
0.514672 0.783123 0.931289
0.671229 0.76524 0.912474
0.784054 0.757198 0.904128
0.868437 0.755459 0.902449
0.946807 0.753902 0.900984
0.124514 0.879698 0.944686
0.171206 0.892561 0.957702
0.232349 0.899626 0.964813
0.353933 0.888609 0.953567
0.512886 0.866316 0.930907
0.666865 0.844083 0.908339
0.777111 0.833051 0.897169
0.858946 0.828946 0.89305
0.93579 0.8262 0.890303
0.123369 0.965759 0.951705
0.167971 0.973846 0.959686
0.227237 0.976761 0.962615
0.347982 0.962661 0.948882
0.506249 0.937789 0.924559
0.659998 0.91426 0.901503
0.770062 0.902693 0.89012
0.852338 0.898985 0.886442
0.930114 0.897154 0.884611
