Grain/Grain/Resources/Luts/Cinema/CINECOLOR_SIN_CITY.cube
TITLE "Generated by Resolve"
LUT_3D_SIZE 33
0 0 0
0 0 0
0 0 0
0 0 0
0.0252384 0 0
0.0600443 0 0
0.0948653 0 0
0.129671 0 0
0.164492 0 0
0.199298 0 0
0.234119 0 0
0.268925 0 0
0.303746 0 0
0.338552 0 0
0.373373 0 0
0.408179 0 0
0.442985 0 0
0.477806 0 0
0.512612 0 0
0.547433 0 0
0.582238 0 0
0.61706 0 0
0.651865 0 0
0.686687 0 0
0.721492 0 0
0.756313 0 0
0.791119 0 0
0.82594 0 0
0.860746 0 0
0.895567 0 0
0.930373 0 0
0.965194 0 0
1 0 0
0 0 0
0 0 0
0 0 0
0 0 0
0.0252384 0 0
0.0600443 0 0
0.0948653 0 0
0.129671 0 0
0.164492 0 0
0.199298 0 0
0.234119 0 0
0.268925 0 0
0.303746 0 0
0.338552 0 0
0.373373 0 0
0.408179 0 0
0.442985 0 0
0.477806 0 0
0.512612 0 0
0.547433 0 0
0.582238 0 0
0.61706 0 0
0.651865 0 0
0.686687 0 0
0.721492 0 0
0.756313 0 0
0.791119 0 0
0.82594 0 0
0.860746 0 0
0.895567 0 0
0.930373 0 0
0.965194 0 0
1 0 0
0 0 0
0 0 0
0 0 0
0 0 0
0.0252384 0 0
0.0600443 0 0
0.0948653 0 0
0.129671 0 0
0.164492 0 0
0.199298 0 0
0.234119 0 0
0.268925 0 0
0.303746 0 0
0.338552 0 0
0.373373 0 0
0.408179 0 0
0.442985 0 0
0.477806 0 0
0.512612 0 0
0.547433 0 0
0.582238 0 0
0.61706 0 0
0.651865 0 0
0.686687 0 0
0.721492 0 0
0.756313 0 0
0.791119 0 0
0.82594 0 0
0.860746 0 0
0.895567 0 0
0.930373 0 0
0.965194 0 0
1 0 0
0 0 0
0 0 0
0 0 0
0 0 0
0.0252384 0 0
0.0600443 0 0
0.0948653 0 0
0.129671 0 0
0.164492 0 0
0.199298 0 0
0.234119 0 0
0.268925 0 0
0.303746 0 0
0.338552 0 0
0.373373 0 0
0.408179 0 0
0.442985 0 0
0.477806 0 0
0.512612 0 0
0.547433 0 0
0.582238 0 0
0.61706 0 0
0.651865 0 0
0.686687 0 0
0.721492 0 0
0.756313 0 0
0.791119 0 0
0.82594 0 0
0.860746 0 0
0.895567 0 0
0.930373 0 0
0.965194 0 0
1 0 0
0 0.0252384 0
0 0.0252384 0
0 0.0252384 0
0 0.0252384 0
0.0252384 0.0252384 0
0.0600443 0.0252384 0
0.0948653 0.0252384 0
0.129671 0.0252384 0
0.164492 0.0252384 0
0.199298 0.0252384 0
0.234119 0.0252384 0
0.268925 0.0252384 0
0.303746 0.0252384 0
0.338552 0.0252384 0
0.373373 0.0252384 0
0.408179 0.0252384 0
0.442985 0.0252384 0
0.477806 0.0252384 0
0.512612 0.0252384 0
0.547433 0.0252384 0
0.582238 0.0252384 0
0.61706 0.0252384 0
0.651865 0.0252384 0
0.686687 0.0252384 0
0.721492 0.0252384 0
0.756313 0.0252384 0
0.791119 0.0252384 0
0.82594 0.0252384 0
0.860746 0.0252384 0
0.895567 0.0252384 0
0.930373 0.0252384 0
0.965194 0.0252384 0
1 0.0252384 0
0 0.0600443 0
0 0.0600443 0
0 0.0600443 0
0 0.0600443 0
0.0252384 0.0600443 0
0.0600443 0.0600443 0
0.0948653 0.0600443 0
0.129671 0.0600443 0
0.164492 0.0600443 0
0.199298 0.0600443 0
0.234119 0.0600443 0
0.268925 0.0600443 0
0.303746 0.0600443 0
0.338552 0.0600443 0
0.373373 0.0600443 0
0.408179 0.0600443 0
0.442985 0.0600443 0
0.477806 0.0600443 0
0.512612 0.0600443 0
0.547433 0.0600443 0
0.582238 0.0600443 0
0.61706 0.0600443 0
0.651865 0.0600443 0
0.686687 0.0600443 0
0.721492 0.0600443 0
0.756313 0.0600443 0
0.791119 0.0600443 0
0.82594 0.0600443 0
0.860746 0.0600443 0
0.895567 0.0600443 0
0.930373 0.0600443 0
0.965194 0.0600443 0
1 0.0600443 0
0 0.0948653 0
0 0.0948653 0
0 0.0948653 0
0 0.0948653 0
0.0252384 0.0948653 0
0.0600443 0.0948653 0
0.0948653 0.0948653 0
0.129671 0.0948653 0
0.164492 0.0948653 0
0.199298 0.0948653 0
0.234119 0.0948653 0
0.268925 0.0948653 0
0.303746 0.0948653 0
0.338552 0.0948653 0
0.373373 0.0948653 0
0.408179 0.0948653 0
0.442985 0.0948653 0
0.477806 0.0948653 0
0.512612 0.0948653 0
0.547433 0.0948653 0
0.582238 0.0948653 0
0.61706 0.0948653 0
0.651865 0.0948653 0
0.686687 0.0948653 0
0.721492 0.0948653 0
0.756313 0.0948653 0
0.791119 0.0948653 0
0.82594 0.0948653 0
0.860746 0.0948653 0
0.895567 0.0948653 0
0.930373 0.0948653 0
0.965194 0.0948653 0
1 0.0948653 0
0 0.129671 0
0 0.129671 0
0 0.129671 0
0 0.129671 0
0.0252384 0.129671 0
0.0600443 0.129671 0
0.0948653 0.129671 0
0.129671 0.129671 0
0.164492 0.129671 0
0.199298 0.129671 0
0.234119 0.129671 0
0.268925 0.129671 0
0.303746 0.129671 0
0.338552 0.129671 0
0.373373 0.129671 0
0.408179 0.129671 0
0.442985 0.129671 0
0.477806 0.129671 0
0.512612 0.129671 0
0.547433 0.129671 0
0.582238 0.129671 0
0.61706 0.129671 0
0.651865 0.129671 0
0.686687 0.129671 0
0.721492 0.129671 0
0.756313 0.129671 0
0.791119 0.129671 0
0.82594 0.129671 0
0.860746 0.129671 0
0.895567 0.129671 0
0.930373 0.129671 0
0.965194 0.129671 0
1 0.129671 0
0 0.164492 0
0 0.164492 0
0 0.164492 0
0 0.164492 0
0.0252384 0.164492 0
0.0600443 0.164492 0
0.0948653 0.164492 0
0.129671 0.164492 0
0.164492 0.164492 0
0.199298 0.164492 0
0.234119 0.164492 0
0.268925 0.164492 0
0.303746 0.164492 0
0.338552 0.164492 0
0.373373 0.164492 0
0.408179 0.164492 0
0.442985 0.164492 0
0.477806 0.164492 0
0.512612 0.164492 0
0.547433 0.164492 0
0.582238 0.164492 0
0.61706 0.164492 0
0.651865 0.164492 0
0.686687 0.164492 0
0.721492 0.164492 0
0.756313 0.164492 0
0.791119 0.164492 0
0.82594 0.164492 0
0.860746 0.164492 0
0.895567 0.164492 0
0.930373 0.164492 0
0.965194 0.164492 0
1 0.164492 0
0 0.199298 0
0 0.199298 0
0 0.199298 0
0 0.199298 0
0.0252384 0.199298 0
0.0600443 0.199298 0
0.0948653 0.199298 0
0.129671 0.199298 0
0.164492 0.199298 0
0.199298 0.199298 0
0.234119 0.199298 0
0.268925 0.199298 0
0.303746 0.199298 0
0.338552 0.199298 0
0.373373 0.199298 0
0.408179 0.199298 0
0.442985 0.199298 0
0.477806 0.199298 0
0.512612 0.199298 0
0.547433 0.199298 0
0.582238 0.199298 0
0.61706 0.199298 0
0.651865 0.199298 0
0.686687 0.199298 0
0.721492 0.199298 0
0.756313 0.199298 0
0.791119 0.199298 0
0.82594 0.199298 0
0.860746 0.199298 0
0.895567 0.199298 0
0.930373 0.199298 0
0.965194 0.199298 0
1 0.199298 0
0 0.234119 0
0 0.234119 0
0 0.234119 0
0 0.234119 0
0.0252384 0.234119 0
0.0600443 0.234119 0
0.0948653 0.234119 0
0.129671 0.234119 0
0.164492 0.234119 0
0.199298 0.234119 0
0.234119 0.234119 0
0.268925 0.234119 0
0.303746 0.234119 0
0.338552 0.234119 0
0.373373 0.234119 0
0.408179 0.234119 0
0.442985 0.234119 0
0.477806 0.234119 0
0.512612 0.234119 0
0.547433 0.234119 0
0.582238 0.234119 0
0.61706 0.234119 0
0.651865 0.234119 0
0.686687 0.234119 0
0.721492 0.234119 0
0.756313 0.234119 0
0.791119 0.234119 0
0.82594 0.234119 0
0.860746 0.234119 0
0.895567 0.234119 0
0.930373 0.234119 0
0.965194 0.234119 0
1 0.234119 0
0 0.268925 0
0 0.268925 0
0 0.268925 0
0 0.268925 0
0.0252384 0.268925 0
0.0600443 0.268925 0
0.0948653 0.268925 0
0.129671 0.268925 0
0.164492 0.268925 0
0.199298 0.268925 0
0.234119 0.268925 0
0.268925 0.268925 0
0.303746 0.268925 0
0.338552 0.268925 0
0.373373 0.268925 0
0.408179 0.268925 0
0.442985 0.268925 0
0.477806 0.268925 0
0.512612 0.268925 0
0.547433 0.268925 0
0.582238 0.268925 0
0.61706 0.268925 0
0.651865 0.268925 0
0.686687 0.268925 0
0.721492 0.268925 0
0.756313 0.268925 0
0.791119 0.268925 0
0.82594 0.268925 0
0.860746 0.268925 0
0.895567 0.268925 0
0.930373 0.268925 0
0.965194 0.268925 0
1 0.268925 0
0 0.303746 0
0 0.303746 0
0 0.303746 0
0 0.303746 0
0.0252384 0.303746 0
0.0600443 0.303746 0
0.0948653 0.303746 0
0.129671 0.303746 0
0.164492 0.303746 0
0.199298 0.303746 0
0.234119 0.303746 0
0.268925 0.303746 0
0.303746 0.303746 0
0.338552 0.303746 0
0.373373 0.303746 0
0.408179 0.303746 0
0.442985 0.303746 0
0.477806 0.303746 0
0.512612 0.303746 0
0.547433 0.303746 0
0.582238 0.303746 0
0.61706 0.303746 0
0.651865 0.303746 0
0.686687 0.303746 0
0.721492 0.303746 0
0.756313 0.303746 0
0.791119 0.303746 0
0.82594 0.303746 0
0.860746 0.303746 0
0.895567 0.303746 0
0.930373 0.303746 0
0.965194 0.303746 0
1 0.303746 0
0 0.338552 0
0 0.338552 0
0 0.338552 0
0 0.338552 0
0.0252384 0.338552 0
0.0600443 0.338552 0
0.0948653 0.338552 0
0.129671 0.338552 0
0.164492 0.338552 0
0.199298 0.338552 0
0.234119 0.338552 0
0.268925 0.338552 0
0.303746 0.338552 0
0.338552 0.338552 0
0.373373 0.338552 0
0.408179 0.338552 0
0.442985 0.338552 0
0.477806 0.338552 0
0.512612 0.338552 0
0.547433 0.338552 0
0.582238 0.338552 0
0.61706 0.338552 0
0.651865 0.338552 0
0.686687 0.338552 0
0.721492 0.338552 0
0.756313 0.338552 0
0.791119 0.338552 0
0.82594 0.338552 0
0.860746 0.338552 0
0.895567 0.338552 0
0.930373 0.338552 0
0.965194 0.338552 0
1 0.338552 0
0 0.373373 0
0 0.373373 0
0 0.373373 0
0 0.373373 0
0.0252384 0.373373 0
0.0600443 0.373373 0
0.0948653 0.373373 0
0.129671 0.373373 0
0.164492 0.373373 0
0.199298 0.373373 0
0.234119 0.373373 0
0.268925 0.373373 0
0.303746 0.373373 0
0.338552 0.373373 0
0.373373 0.373373 0
0.408179 0.373373 0
0.442985 0.373373 0
0.477806 0.373373 0
0.512612 0.373373 0
0.547433 0.373373 0
0.582238 0.373373 0
0.61706 0.373373 0
0.651865 0.373373 0
0.686687 0.373373 0
0.721492 0.373373 0
0.756313 0.373373 0
0.791119 0.373373 0
0.82594 0.373373 0
0.860746 0.373373 0
0.895567 0.373373 0
0.930373 0.373373 0
0.965194 0.373373 0
1 0.373373 0
0 0.408179 0
0 0.408179 0
0 0.408179 0
0 0.408179 0
0.0252384 0.408179 0
0.0600443 0.408179 0
0.0948653 0.408179 0
0.129671 0.408179 0
0.164492 0.408179 0
0.199298 0.408179 0
0.234119 0.408179 0
0.268925 0.408179 0
0.303746 0.408179 0
0.338552 0.408179 0
0.373373 0.408179 0
0.408179 0.408179 0
0.442985 0.408179 0
0.477806 0.408179 0
0.512612 0.408179 0
0.547433 0.408179 0
0.582238 0.408179 0
0.61706 0.408179 0
0.651865 0.408179 0
0.686687 0.408179 0
0.721492 0.408179 0
0.756313 0.408179 0
0.791119 0.408179 0
0.82594 0.408179 0
0.860746 0.408179 0
0.895567 0.408179 0
0.930373 0.408179 0
0.965194 0.408179 0
1 0.408179 0
0 0.442985 0
0 0.442985 0
0 0.442985 0
0 0.442985 0
0.0252384 0.442985 0
0.0600443 0.442985 0
0.0948653 0.442985 0
0.129671 0.442985 0
0.164492 0.442985 0
0.199298 0.442985 0
0.234119 0.442985 0
0.268925 0.442985 0
0.303746 0.442985 0
0.338552 0.442985 0
0.373373 0.442985 0
0.408179 0.442985 0
0.442985 0.442985 0
0.477806 0.442985 0
0.512612 0.442985 0
0.547433 0.442985 0
0.582238 0.442985 0
0.61706 0.442985 0
0.651865 0.442985 0
0.686687 0.442985 0
0.721492 0.442985 0
0.756313 0.442985 0
0.791119 0.442985 0
0.82594 0.442985 0
0.860746 0.442985 0
0.895567 0.442985 0
0.930373 0.442985 0
0.965194 0.442985 0
1 0.442985 0
0 0.477806 0
0 0.477806 0
0 0.477806 0
0 0.477806 0
0.0252384 0.477806 0
0.0600443 0.477806 0
0.0948653 0.477806 0
0.129671 0.477806 0
0.164492 0.477806 0
0.199298 0.477806 0
0.234119 0.477806 0
0.268925 0.477806 0
0.303746 0.477806 0
0.338552 0.477806 0
0.373373 0.477806 0
0.408179 0.477806 0
0.442985 0.477806 0
0.477806 0.477806 0
0.512612 0.477806 0
0.547433 0.477806 0
0.582238 0.477806 0
0.61706 0.477806 0
0.651865 0.477806 0
0.686687 0.477806 0
0.721492 0.477806 0
0.756313 0.477806 0
0.791119 0.477806 0
0.82594 0.477806 0
0.860746 0.477806 0
0.895567 0.477806 0
0.930373 0.477806 0
0.965194 0.477806 0
1 0.477806 0
0 0.512612 0
0 0.512612 0
0 0.512612 0
0 0.512612 0
0.0252384 0.512612 0
0.0600443 0.512612 0
0.0948653 0.512612 0
0.129671 0.512612 0
0.164492 0.512612 0
0.199298 0.512612 0
0.234119 0.512612 0
0.268925 0.512612 0
0.303746 0.512612 0
0.338552 0.512612 0
0.373373 0.512612 0
0.408179 0.512612 0
0.442985 0.512612 0
0.477806 0.512612 0
0.512612 0.512612 0
0.547433 0.512612 0
0.582238 0.512612 0
0.61706 0.512612 0
0.651865 0.512612 0
0.686687 0.512612 0
0.721492 0.512612 0
0.756313 0.512612 0
0.791119 0.512612 0
0.82594 0.512612 0
0.860746 0.512612 0
0.895567 0.512612 0
0.930373 0.512612 0
0.965194 0.512612 0
1 0.512612 0
0 0.547433 0
0 0.547433 0
0 0.547433 0
0 0.547433 0
0.0252384 0.547433 0
0.0600443 0.547433 0
0.0948653 0.547433 0
0.129671 0.547433 0
0.164492 0.547433 0
0.199298 0.547433 0
0.234119 0.547433 0
0.268925 0.547433 0
0.303746 0.547433 0
0.338552 0.547433 0
0.373373 0.547433 0
0.408179 0.547433 0
0.442985 0.547433 0
0.477806 0.547433 0
0.512612 0.547433 0
0.547433 0.547433 0
0.582238 0.547433 0
0.61706 0.547433 0
0.651865 0.547433 0
0.686687 0.547433 0
0.721492 0.547433 0
0.756313 0.547433 0
0.791119 0.547433 0
0.82594 0.547433 0
0.860746 0.547433 0
0.895567 0.547433 0
0.930373 0.547433 0
0.965194 0.547433 0
1 0.547433 0
0 0.582238 0
0 0.582238 0
0 0.582238 0
0 0.582238 0
0.0252384 0.582238 0
0.0600443 0.582238 0
0.0948653 0.582238 0
0.129671 0.582238 0
0.164492 0.582238 0
0.199298 0.582238 0
0.234119 0.582238 0
0.268925 0.582238 0
0.303746 0.582238 0
0.338552 0.582238 0
0.373373 0.582238 0
0.408179 0.582238 0
0.442985 0.582238 0
0.477806 0.582238 0
0.512612 0.582238 0
0.547433 0.582238 0
0.582238 0.582238 0
0.61706 0.582238 0
0.651865 0.582238 0
0.686687 0.582238 0
0.721492 0.582238 0
0.756313 0.582238 0
0.791119 0.582238 0
0.82594 0.582238 0
0.860746 0.582238 0
0.895567 0.582238 0
0.930373 0.582238 0
0.965194 0.582238 0
1 0.582238 0
0 0.61706 0
0 0.61706 0
0 0.61706 0
0 0.61706 0
0.0252384 0.61706 0
0.0600443 0.61706 0
0.0948653 0.61706 0
0.129671 0.61706 0
0.164492 0.61706 0
0.199298 0.61706 0
0.234119 0.61706 0
0.268925 0.61706 0
0.303746 0.61706 0
0.338552 0.61706 0
0.373373 0.61706 0
0.408179 0.61706 0
0.442985 0.61706 0
0.477806 0.61706 0
0.512612 0.61706 0
0.547433 0.61706 0
0.582238 0.61706 0
0.61706 0.61706 0
0.651865 0.61706 0
0.686687 0.61706 0
0.721492 0.61706 0
0.756313 0.61706 0
0.791119 0.61706 0
0.82594 0.61706 0
0.860746 0.61706 0
0.895567 0.61706 0
0.930373 0.61706 0
0.965194 0.61706 0
1 0.61706 0
0 0.651865 0
0 0.651865 0
0 0.651865 0
0 0.651865 0
0.0252384 0.651865 0
0.0600443 0.651865 0
0.0948653 0.651865 0
0.129671 0.651865 0
0.164492 0.651865 0
0.199298 0.651865 0
0.234119 0.651865 0
0.268925 0.651865 0
0.303746 0.651865 0
0.338552 0.651865 0
0.373373 0.651865 0
0.408179 0.651865 0
0.442985 0.651865 0
0.477806 0.651865 0
0.512612 0.651865 0
0.547433 0.651865 0
0.582238 0.651865 0
0.61706 0.651865 0
0.651865 0.651865 0
0.686687 0.651865 0
0.721492 0.651865 0
0.756313 0.651865 0
0.791119 0.651865 0
0.82594 0.651865 0
0.860746 0.651865 0
0.895567 0.651865 0
0.930373 0.651865 0
0.965194 0.651865 0
1 0.651865 0
0 0.686687 0
0 0.686687 0
0 0.686687 0
0 0.686687 0
0.0252384 0.686687 0
0.0600443 0.686687 0
0.0948653 0.686687 0
0.129671 0.686687 0
0.164492 0.686687 0
0.199298 0.686687 0
0.234119 0.686687 0
0.268925 0.686687 0
0.303746 0.686687 0
0.338552 0.686687 0
0.373373 0.686687 0
0.408179 0.686687 0
0.442985 0.686687 0
0.477806 0.686687 0
0.512612 0.686687 0
0.547433 0.686687 0
0.582238 0.686687 0
0.61706 0.686687 0
0.651865 0.686687 0
0.686687 0.686687 0
0.721492 0.686687 0
0.756313 0.686687 0
0.791119 0.686687 0
0.82594 0.686687 0
0.860746 0.686687 0
0.895567 0.686687 0
0.930373 0.686687 0
0.965194 0.686687 0
1 0.686687 0
0 0.721492 0
0 0.721492 0
0 0.721492 0
0 0.721492 0
0.0252384 0.721492 0
0.0600443 0.721492 0
0.0948653 0.721492 0
0.129671 0.721492 0
0.164492 0.721492 0
0.199298 0.721492 0
0.234119 0.721492 0
0.268925 0.721492 0
0.303746 0.721492 0
0.338552 0.721492 0
0.373373 0.721492 0
0.408179 0.721492 0
0.442985 0.721492 0
0.477806 0.721492 0
0.512612 0.721492 0
0.547433 0.721492 0
0.582238 0.721492 0
0.61706 0.721492 0
0.651865 0.721492 0
0.686687 0.721492 0
0.721492 0.721492 0
0.756313 0.721492 0
0.791119 0.721492 0
0.82594 0.721492 0
0.860746 0.721492 0
0.895567 0.721492 0
0.930373 0.721492 0
0.965194 0.721492 0
1 0.721492 0
0 0.756313 0
0 0.756313 0
0 0.756313 0
0 0.756313 0
0.0252384 0.756313 0
0.0600443 0.756313 0
0.0948653 0.756313 0
0.129671 0.756313 0
0.164492 0.756313 0
0.199298 0.756313 0
0.234119 0.756313 0
0.268925 0.756313 0
0.303746 0.756313 0
0.338552 0.756313 0
0.373373 0.756313 0
0.408179 0.756313 0
0.442985 0.756313 0
0.477806 0.756313 0
0.512612 0.756313 0
0.547433 0.756313 0
0.582238 0.756313 0
0.61706 0.756313 0
0.651865 0.756313 0
0.686687 0.756313 0
0.721492 0.756313 0
0.756313 0.756313 0
0.791119 0.756313 0
0.82594 0.756313 0
0.860746 0.756313 0
0.895567 0.756313 0
0.930373 0.756313 0
0.965194 0.756313 0
1 0.756313 0
0 0.791119 0
0 0.791119 0
0 0.791119 0
0 0.791119 0
0.0252384 0.791119 0
0.0600443 0.791119 0
0.0948653 0.791119 0
0.129671 0.791119 0
0.164492 0.791119 0
0.199298 0.791119 0
0.234119 0.791119 0
0.268925 0.791119 0
0.303746 0.791119 0
0.338552 0.791119 0
0.373373 0.791119 0
0.408179 0.791119 0
0.442985 0.791119 0
0.477806 0.791119 0
0.512612 0.791119 0
0.547433 0.791119 0
0.582238 0.791119 0
0.61706 0.791119 0
0.651865 0.791119 0
0.686687 0.791119 0
0.721492 0.791119 0
0.756313 0.791119 0
0.791119 0.791119 0
0.82594 0.791119 0
0.860746 0.791119 0
0.895567 0.791119 0
0.930373 0.791119 0
0.965194 0.791119 0
1 0.791119 0
0 0.82594 0
0 0.82594 0
0 0.82594 0
0 0.82594 0
0.0252384 0.82594 0
0.0600443 0.82594 0
0.0948653 0.82594 0
0.129671 0.82594 0
0.164492 0.82594 0
