Grain/Grain/Resources/Luts/Cinema/CINECOLOR_CLOCKWORK_ORANGE.cube
TITLE "Generated by Resolve"
LUT_3D_SIZE 5
0.083238 0.0951247 0.109926
0.243519 0.0911269 0.106004
0.529854 0.046479 0.0612497
0.75317 0.0197147 0.0343938
0.948959 0.00605783 0.0207675
0.065507 0.232853 0.0924086
0.22768 0.231373 0.0910201
0.53547 0.205066 0.0659342
0.790311 0.209323 0.0698863
1 0.233036 0.092195
0 0.483238 0.0246128
0.191775 0.519295 0.0564126
0.523659 0.517174 0.0539712
0.781003 0.5243 0.0603342
0.996735 0.531319 0.066743
0.0369268 0.772869 0.063798
0.214939 0.787335 0.0776989
0.524376 0.763043 0.0540932
0.765591 0.753796 0.0451057
0.972351 0.751141 0.0425116
0.0467536 0.986435 0.0734264
0.216983 0.992844 0.0798047
0.519341 0.961501 0.0492256
0.75555 0.947021 0.0352178
0.958755 0.940826 0.0290379
0.0838178 0.0959487 0.261585
0.241032 0.0889601 0.254108
0.527626 0.0441901 0.206943
0.752071 0.0186618 0.179675
0.950011 0.00708019 0.167803
0.0648508 0.232181 0.241443
0.230472 0.234073 0.243595
0.542718 0.211749 0.221073
0.801297 0.220554 0.230045
1 0.245624 0.255222
0.009308 0.495933 0.182879
0.204105 0.532403 0.217273
0.534249 0.527764 0.212711
0.787747 0.531685 0.216388
1 0.536782 0.221317
0.0425574 0.778668 0.218906
0.220157 0.792309 0.233234
0.528862 0.767102 0.207065
0.768826 0.75729 0.197024
0.97499 0.753979 0.193668
0.0497292 0.989548 0.226535
0.219684 0.995209 0.232776
0.521904 0.963851 0.200443
0.757595 0.948974 0.185626
0.9608 0.942702 0.179156
0.0699016 0.0820172 0.57055
0.225406 0.0739757 0.562005
0.511299 0.0298619 0.512779
0.738262 0.00535592 0.485908
0.939696 0 0.476463
0.0529946 0.219425 0.552193
0.221576 0.225116 0.558206
0.538445 0.207767 0.540169
0.800473 0.21976 0.552895
1 0.245365 0.579446
0.00877394 0.495567 0.503777
0.203449 0.531792 0.539986
0.530938 0.524453 0.532662
0.78146 0.524926 0.53312
0.994324 0.528847 0.537057
0.035523 0.771481 0.534905
0.211765 0.784207 0.54873
0.519478 0.758267 0.520958
0.759152 0.747585 0.509957
0.964889 0.743664 0.505852
0.0398566 0.979614 0.53994
0.208789 0.984817 0.545754
0.510948 0.953094 0.51252
0.746746 0.938354 0.496803
0.948898 0.932067 0.490105
0.0615702 0.0737011 0.802884
0.215656 0.0646982 0.793927
0.501686 0.0211948 0.74844
0.730831 0 0.724422
0.936248 0 0.719387
0.0472877 0.213703 0.788327
0.220386 0.223941 0.798428
0.541741 0.210727 0.78555
0.805844 0.225437 0.799649
1 0.251133 0.823987
0.0140688 0.501671 0.753826
0.208133 0.536782 0.786374
0.531929 0.52546 0.775738
0.780194 0.523644 0.773709
0.992233 0.526589 0.776761
0.0340887 0.770031 0.77528
0.209384 0.781888 0.787121
0.516045 0.754986 0.760266
0.755322 0.743511 0.74905
0.960464 0.739071 0.74461
0.035874 0.975479 0.777142
0.204059 0.980346 0.782101
0.505669 0.948226 0.750515
0.741512 0.933272 0.735027
0.944137 0.927092 0.728969
0.0554665 0.0673381 1
0.208927 0.05832 0.991363
0.49575 0.016022 0.948211
0.727428 0 0.92697
0.937911 0 0.927092
0.0460517 0.212406 0.991943
0.223255 0.226856 1
0.54902 0.217777 0.996979
0.814237 0.234119 1
1 0.259022 1
0.0216526 0.510765 0.966522
0.214282 0.543236 0.99675
0.535134 0.528618 0.983352
0.78117 0.524712 0.97969
0.992538 0.526986 0.981704
0.0351263 0.770993 0.980972
0.209369 0.781872 0.991653
0.515297 0.754253 0.964019
0.753994 0.742168 0.951705
0.957961 0.737575 0.947082
0.0343023 0.973907 0.980179
0.202441 0.978576 0.984848
0.503441 0.946105 0.9523
0.739284 0.931014 0.937194
0.942 0.924941 0.93138
