Grain/Grain/Resources/Luts/Cinema/CINECOLOR_PSYCHO.cube
TITLE "Generated by Resolve"
LUT_3D_SIZE 9
0.104234 0.104234 0.104234
0.109178 0.109178 0.109178
0.116365 0.116365 0.116365
0.124559 0.124559 0.124559
0.133227 0.133227 0.133227
0.142733 0.142733 0.142733
0.15314 0.15314 0.15314
0.164843 0.164843 0.164843
0.177981 0.177981 0.177981
0.127565 0.127565 0.127565
0.136904 0.136904 0.136904
0.146746 0.146746 0.146746
0.157534 0.157534 0.157534
0.169879 0.169879 0.169879
0.18378 0.18378 0.18378
0.200595 0.200595 0.200595
0.221057 0.221057 0.221057
0.246342 0.246342 0.246342
0.16144 0.16144 0.16144
0.174456 0.174456 0.174456
0.189639 0.189639 0.189639
0.207675 0.207675 0.207675
0.22974 0.22974 0.22974
0.256672 0.256672 0.256672
0.287495 0.287495 0.287495
0.321294 0.321294 0.321294
0.357382 0.357382 0.357382
0.214221 0.214221 0.214221
0.238117 0.238117 0.238117
0.266911 0.266911 0.266911
0.298924 0.298924 0.298924
0.333639 0.333639 0.333639
0.370352 0.370352 0.370352
0.408072 0.408072 0.408072
0.446586 0.446586 0.446586
0.487617 0.487617 0.487617
0.309575 0.309575 0.309575
0.345373 0.345373 0.345373
0.382696 0.382696 0.382696
0.420661 0.420661 0.420661
0.460075 0.460075 0.460075
0.501915 0.501915 0.501915
0.545525 0.545525 0.545525
0.589487 0.589487 0.589487
0.632868 0.632868 0.632868
0.43267 0.43267 0.43267
0.473365 0.473365 0.473365
0.516106 0.516106 0.516106
0.559976 0.559976 0.559976
0.603998 0.603998 0.603998
0.646555 0.646555 0.646555
0.686778 0.686778 0.686778
0.723873 0.723873 0.723873
0.757763 0.757763 0.757763
0.574182 0.574182 0.574182
0.61828 0.61828 0.61828
0.660578 0.660578 0.660578
0.699748 0.699748 0.699748
0.735454 0.735454 0.735454
0.768017 0.768017 0.768017
0.797787 0.797787 0.797787
0.82475 0.82475 0.82475
0.849668 0.849668 0.849668
0.711543 0.711543 0.711543
0.746746 0.746746 0.746746
0.778286 0.778286 0.778286
0.80708 0.80708 0.80708
0.833173 0.833173 0.833173
0.85771 0.85771 0.85771
0.881178 0.881178 0.881178
0.904021 0.904021 0.904021
0.927474 0.927474 0.927474
0.815717 0.815717 0.815717
0.84152 0.84152 0.84152
0.865629 0.865629 0.865629
0.888914 0.888914 0.888914
0.91162 0.91162 0.91162
0.935058 0.935058 0.935058
0.957916 0.957916 0.957916
0.981003 0.981003 0.981003
1 1 1
0.105776 0.105776 0.105776
0.112123 0.112123 0.112123
0.119829 0.119829 0.119829
0.128099 0.128099 0.128099
0.137255 0.137255 0.137255
0.146929 0.146929 0.146929
0.157717 0.157717 0.157717
0.170031 0.170031 0.170031
0.183917 0.183917 0.183917
0.131334 0.131334 0.131334
0.140826 0.140826 0.140826
0.150988 0.150988 0.150988
0.162295 0.162295 0.162295
0.175128 0.175128 0.175128
0.190143 0.190143 0.190143
0.208148 0.208148 0.208148
0.230213 0.230213 0.230213
0.25716 0.25716 0.25716
0.1664 0.1664 0.1664
0.180148 0.180148 0.180148
0.196323 0.196323 0.196323
0.215747 0.215747 0.215747
0.239551 0.239551 0.239551
0.268116 0.268116 0.268116
0.300008 0.300008 0.300008
0.334569 0.334569 0.334569
0.371557 0.371557 0.371557
0.222858 0.222858 0.222858
0.248829 0.248829 0.248829
0.278767 0.278767 0.278767
0.311833 0.311833 0.311833
0.347417 0.347417 0.347417
0.384421 0.384421 0.384421
0.422248 0.422248 0.422248
0.461631 0.461631 0.461631
0.50367 0.50367 0.50367
0.322713 0.322713 0.322713
0.359075 0.359075 0.359075
0.39675 0.39675 0.39675
0.435233 0.435233 0.435233
0.47541 0.47541 0.47541
0.518029 0.518029 0.518029
0.561898 0.561898 0.561898
0.605585 0.605585 0.605585
0.648341 0.648341 0.648341
0.447288 0.447288 0.447288
0.488914 0.488914 0.488914
0.53225 0.53225 0.53225
0.576455 0.576455 0.576455
0.620005 0.620005 0.620005
0.661738 0.661738 0.661738
0.701015 0.701015 0.701015
0.736843 0.736843 0.736843
0.769299 0.769299 0.769299
0.590661 0.590661 0.590661
0.634134 0.634134 0.634134
0.675349 0.675349 0.675349
0.713497 0.713497 0.713497
0.74815 0.74815 0.74815
0.779629 0.779629 0.779629
0.808118 0.808118 0.808118
0.834119 0.834119 0.834119
0.858595 0.858595 0.858595
0.72517 0.72517 0.72517
0.758892 0.758892 0.758892
0.789487 0.789487 0.789487
0.817197 0.817197 0.817197
0.842603 0.842603 0.842603
0.866575 0.866575 0.866575
0.889921 0.889921 0.889921
0.912688 0.912688 0.912688
0.936095 0.936095 0.936095
0.825299 0.825299 0.825299
0.850401 0.850401 0.850401
0.874403 0.874403 0.874403
0.897444 0.897444 0.897444
0.920226 0.920226 0.920226
0.943664 0.943664 0.943664
0.966583 0.966583 0.966583
0.989792 0.989792 0.989792
1 1 1
0.108766 0.108766 0.108766
0.115755 0.115755 0.115755
0.123659 0.123659 0.123659
0.132082 0.132082 0.132082
0.141527 0.141527 0.141527
0.151522 0.151522 0.151522
0.162844 0.162844 0.162844
0.175738 0.175738 0.175738
0.190707 0.190707 0.190707
0.135439 0.135439 0.135439
0.145205 0.145205 0.145205
0.155749 0.155749 0.155749
0.167636 0.167636 0.167636
0.181247 0.181247 0.181247
0.197269 0.197269 0.197269
0.216709 0.216709 0.216709
0.240604 0.240604 0.240604
0.26923 0.26923 0.26923
0.171954 0.171954 0.171954
0.186664 0.186664 0.186664
0.203937 0.203937 0.203937
0.224979 0.224979 0.224979
0.250645 0.250645 0.250645
0.280339 0.280339 0.280339
0.313558 0.313558 0.313558
0.349004 0.349004 0.349004
0.386206 0.386206 0.386206
0.232517 0.232517 0.232517
0.260212 0.260212 0.260212
0.29163 0.29163 0.29163
0.325719 0.325719 0.325719
0.361776 0.361776 0.361776
0.399115 0.399115 0.399115
0.437171 0.437171 0.437171
0.477562 0.477562 0.477562
0.520256 0.520256 0.520256
0.336645 0.336645 0.336645
0.373617 0.373617 0.373617
0.411643 0.411643 0.411643
0.450507 0.450507 0.450507
0.491676 0.491676 0.491676
0.534798 0.534798 0.534798
0.578927 0.578927 0.578927
0.62211 0.62211 0.62211
0.664057 0.664057 0.664057
0.462989 0.462989 0.462989
0.505379 0.505379 0.505379
0.549096 0.549096 0.549096
0.593332 0.593332 0.593332
0.63653 0.63653 0.63653
0.677531 0.677531 0.677531
0.715328 0.715328 0.715328
0.74992 0.74992 0.74992
0.781384 0.781384 0.781384
0.607385 0.607385 0.607385
0.650324 0.650324 0.650324
0.690517 0.690517 0.690517
0.727184 0.727184 0.727184
0.760555 0.760555 0.760555
0.791104 0.791104 0.791104
0.818555 0.818555 0.818555
0.844053 0.844053 0.844053
0.868025 0.868025 0.868025
0.738369 0.738369 0.738369
0.771115 0.771115 0.771115
0.800458 0.800458 0.800458
0.827253 0.827253 0.827253
0.85214 0.85214 0.85214
0.8757 0.8757 0.8757
0.898634 0.898634 0.898634
0.921599 0.921599 0.921599
0.945098 0.945098 0.945098
0.835386 0.835386 0.835386
0.859968 0.859968 0.859968
0.883421 0.883421 0.883421
0.906523 0.906523 0.906523
0.9299 0.9299 0.9299
0.952682 0.952682 0.952682
0.975677 0.975677 0.975677
0.999069 0.999069 0.999069
1 1 1
0.112459 0.112459 0.112459
0.119829 0.119829 0.119829
0.127916 0.127916 0.127916
0.136797 0.136797 0.136797
0.14638 0.14638 0.14638
0.156786 0.156786 0.156786
0.168673 0.168673 0.168673
0.182315 0.182315 0.182315
0.198444 0.198444 0.198444
0.140215 0.140215 0.140215
0.150164 0.150164 0.150164
0.161227 0.161227 0.161227
0.173754 0.173754 0.173754
0.188312 0.188312 0.188312
0.205554 0.205554 0.205554
0.226627 0.226627 0.226627
0.252491 0.252491 0.252491
0.282277 0.282277 0.282277
0.178332 0.178332 0.178332
0.194125 0.194125 0.194125
0.212757 0.212757 0.212757
0.235447 0.235447 0.235447
0.263081 0.263081 0.263081
0.29427 0.29427 0.29427
0.328054 0.328054 0.328054
0.36434 0.36434 0.36434
0.401724 0.401724 0.401724
0.24387 0.24387 0.24387
0.273121 0.273121 0.273121
0.305501 0.305501 0.305501
0.340505 0.340505 0.340505
0.377127 0.377127 0.377127
0.41471 0.41471 0.41471
0.453285 0.453285 0.453285
0.494575 0.494575 0.494575
0.53785 0.53785 0.53785
0.351873 0.351873 0.351873
0.389364 0.389364 0.389364
0.427588 0.427588 0.427588
0.467185 0.467185 0.467185
0.508843 0.508843 0.508843
0.552468 0.552468 0.552468
0.596384 0.596384 0.596384
0.63946 0.63946 0.63946
0.6804 0.6804 0.6804
0.479988 0.479988 0.479988
0.52285 0.52285 0.52285
0.566812 0.566812 0.566812
0.610849 0.610849 0.610849
0.65333 0.65333 0.65333
0.693187 0.693187 0.693187
0.729625 0.729625 0.729625
0.763149 0.763149 0.763149
0.79321 0.79321 0.79321
0.624689 0.624689 0.624689
0.666773 0.666773 0.666773
0.705684 0.705684 0.705684
0.741268 0.741268 0.741268
0.773632 0.773632 0.773632
0.802762 0.802762 0.802762
0.829313 0.829313 0.829313
0.854139 0.854139 0.854139
0.877684 0.877684 0.877684
0.752041 0.752041 0.752041
0.783551 0.783551 0.783551
0.811902 0.811902 0.811902
0.837964 0.837964 0.837964
0.862257 0.862257 0.862257
0.885451 0.885451 0.885451
0.908171 0.908171 0.908171
0.931563 0.931563 0.931563
0.954635 0.954635 0.954635
0.845777 0.845777 0.845777
0.869856 0.869856 0.869856
0.893004 0.893004 0.893004
0.915663 0.915663 0.915663
0.939437 0.939437 0.939437
0.962249 0.962249 0.962249
0.985336 0.985336 0.985336
1 1 1
1 1 1
0.116564 0.116564 0.116564
0.124285 0.124285 0.124285
0.132647 0.132647 0.132647
0.141955 0.141955 0.141955
0.151751 0.151751 0.151751
0.162692 0.162692 0.162692
0.175296 0.175296 0.175296
0.189761 0.189761 0.189761
0.207294 0.207294 0.207294
0.145357 0.145357 0.145357
0.155718 0.155718 0.155718
0.167361 0.167361 0.167361
0.180621 0.180621 0.180621
0.196155 0.196155 0.196155
0.214939 0.214939 0.214939
0.237888 0.237888 0.237888
0.2654 0.2654 0.2654
0.296666 0.296666 0.296666
0.185641 0.185641 0.185641
0.202365 0.202365 0.202365
0.22269 0.22269 0.22269
0.247623 0.247623 0.247623
0.276707 0.276707 0.276707
0.308858 0.308858 0.308858
0.343526 0.343526 0.343526
0.380438 0.380438 0.380438
0.418219 0.418219 0.418219
0.256657 0.256657 0.256657
0.287114 0.287114 0.287114
0.320577 0.320577 0.320577
0.356497 0.356497 0.356497
0.393576 0.393576 0.393576
0.431189 0.431189 0.431189
0.470695 0.470695 0.470695
0.512749 0.512749 0.512749
0.556085 0.556085 0.556085
0.367864 0.367864 0.367864
0.405585 0.405585 0.405585
0.44387 0.44387 0.44387
0.484504 0.484504 0.484504
0.52726 0.52726 0.52726
0.570855 0.570855 0.570855
0.61445 0.61445 0.61445
0.65687 0.65687 0.65687
0.696574 0.696574 0.696574
0.497765 0.497765 0.497765
0.541192 0.541192 0.541192
0.585199 0.585199 0.585199
0.628702 0.628702 0.628702
0.670176 0.670176 0.670176
0.708934 0.708934 0.708934
0.744167 0.744167 0.744167
0.77644 0.77644 0.77644
0.8056 0.8056 0.8056
0.642405 0.642405 0.642405
0.683406 0.683406 0.683406
0.720989 0.720989 0.720989
0.755444 0.755444 0.755444
0.786389 0.786389 0.786389
0.814572 0.814572 0.814572
0.840467 0.840467 0.840467
0.864698 0.864698 0.864698
0.887861 0.887861 0.887861
0.765789 0.765789 0.765789
0.796033 0.796033 0.796033
0.823575 0.823575 0.823575
0.848875 0.848875 0.848875
0.872648 0.872648 0.872648
0.895537 0.895537 0.895537
0.918135 0.918135 0.918135
0.941512 0.941512 0.941512
0.964355 0.964355 0.964355
0.856382 0.856382 0.856382
0.880034 0.880034 0.880034
0.902953 0.902953 0.902953
0.92636 0.92636 0.92636
0.949126 0.949126 0.949126
0.972152 0.972152 0.972152
0.995468 0.995468 0.995468
1 1 1
1 1 1
0.121141 0.121141 0.121141
0.129152 0.129152 0.129152
0.137728 0.137728 0.137728
0.147341 0.147341 0.147341
0.157565 0.157565 0.157565
0.169116 0.169116 0.169116
0.182391 0.182391 0.182391
0.198062 0.198062 0.198062
0.217151 0.217151 0.217151
0.150866 0.150866 0.150866
0.161746 0.161746 0.161746
0.174014 0.174014 0.174014
0.188266 0.188266 0.188266
0.205005 0.205005 0.205005
0.225345 0.225345 0.225345
0.250248 0.250248 0.250248
0.279637 0.279637 0.279637
0.311666 0.311666 0.311666
0.193683 0.193683 0.193683
0.211872 0.211872 0.211872
0.233982 0.233982 0.233982
0.260746 0.260746 0.260746
0.290959 0.290959 0.290959
0.324437 0.324437 0.324437
0.35993 0.35993 0.35993
0.397009 0.397009 0.397009
0.434836 0.434836 0.434836
0.270207 0.270207 0.270207
0.302113 0.302113 0.302113
0.336355 0.336355 0.336355
0.372702 0.372702 0.372702
0.410178 0.410178 0.410178
0.448096 0.448096 0.448096
0.48864 0.48864 0.48864
0.53135 0.53135 0.53135
0.574914 0.574914 0.574914
0.384375 0.384375 0.384375
0.422232 0.422232 0.422232
0.461173 0.461173 0.461173
0.502678 0.502678 0.502678
0.545983 0.545983 0.545983
0.589624 0.589624 0.589624
0.632731 0.632731 0.632731
0.67422 0.67422 0.67422
0.712596 0.712596 0.712596
0.51606 0.51606 0.51606
0.559976 0.559976 0.559976
0.604028 0.604028 0.604028
0.646738 0.646738 0.646738
0.687114 0.687114 0.687114
0.724712 0.724712 0.724712
0.758724 0.758724 0.758724
0.789685 0.789685 0.789685
0.817426 0.817426 0.817426
0.66038 0.66038 0.66038
0.700099 0.700099 0.700099
0.736263 0.736263 0.736263
0.769207 0.769207 0.769207
0.799298 0.799298 0.799298
0.82623 0.82623 0.82623
0.851362 0.851362 0.851362
0.875074 0.875074 0.875074
0.898131 0.898131 0.898131
0.779339 0.779339 0.779339
0.808408 0.808408 0.808408
0.83473 0.83473 0.83473
0.859373 0.859373 0.859373
0.88278 0.88278 0.88278
0.905638 0.905638 0.905638
0.928267 0.928267 0.928267
0.951705 0.951705 0.951705
0.97464 0.97464 0.97464
0.866896 0.866896 0.866896
0.890349 0.890349 0.890349
0.913207 0.913207 0.913207
0.936568 0.936568 0.936568
0.95935 0.95935 0.95935
0.98233 0.98233 0.98233
1 1 1
1 1 1
1 1 1
0.125643 0.125643 0.125643
0.133806 0.133806 0.133806
0.142748 0.142748 0.142748
0.152605 0.152605 0.152605
0.163378 0.163378 0.163378
0.175509 0.175509 0.175509
0.189654 0.189654 0.189654
0.206699 0.206699 0.206699
0.227146 0.227146 0.227146
0.156313 0.156313 0.156313
0.167773 0.167773 0.167773
0.180774 0.180774 0.180774
0.195895 0.195895 0.195895
0.214191 0.214191 0.214191
0.236194 0.236194 0.236194
0.263218 0.263218 0.263218
0.293492 0.293492 0.293492
0.326802 0.326802 0.326802
0.201678 0.201678 0.201678
0.221393 0.221393 0.221393
0.245563 0.245563 0.245563
0.273823 0.273823 0.273823
0.305486 0.305486 0.305486
0.339681 0.339681 0.339681
0.375799 0.375799 0.375799
0.413108 0.413108 0.413108
0.451286 0.451286 0.451286
0.28394 0.28394 0.28394
0.316747 0.316747 0.316747
0.351843 0.351843 0.351843
0.388754 0.388754 0.388754
0.426322 0.426322 0.426322
0.464958 0.464958 0.464958
0.50634 0.50634 0.50634
0.549355 0.549355 0.549355
0.593256 0.593256 0.593256
0.40058 0.40058 0.40058
0.438514 0.438514 0.438514
0.478477 0.478477 0.478477
0.520653 0.520653 0.520653
0.56408 0.56408 0.56408
0.607767 0.607767 0.607767
0.650538 0.650538 0.650538
0.690913 0.690913 0.690913
0.727901 0.727901 0.727901
0.534081 0.534081 0.534081
0.578256 0.578256 0.578256
0.621881 0.621881 0.621881
0.664057 0.664057 0.664057
0.703304 0.703304 0.703304
0.73933 0.73933 0.73933
0.772091 0.772091 0.772091
0.801785 0.801785 0.801785
0.828916 0.828916 0.828916
0.677226 0.677226 0.677226
0.715602 0.715602 0.715602
0.750698 0.750698 0.750698
0.782574 0.782574 0.782574
0.811093 0.811093 0.811093
0.837278 0.837278 0.837278
0.861769 0.861769 0.861769
0.885054 0.885054 0.885054
0.907713 0.907713 0.907713
0.79205 0.79205 0.79205
0.819974 0.819974 0.819974
0.845731 0.845731 0.845731
0.869795 0.869795 0.869795
0.89279 0.89279 0.89279
0.915373 0.915373 0.915373
0.938842 0.938842 0.938842
0.961654 0.961654 0.961654
0.98468 0.98468 0.98468
0.877012 0.877012 0.877012
0.900008 0.900008 0.900008
0.922896 0.922896 0.922896
0.946471 0.946471 0.946471
0.969314 0.969314 0.969314
0.992447 0.992447 0.992447
1 1 1
1 1 1
1 1 1
0.129992 0.129992 0.129992
0.138476 0.138476 0.138476
0.14789 0.14789 0.14789
0.157992 0.157992 0.157992
0.169314 0.169314 0.169314
0.182284 0.182284 0.182284
0.19736 0.19736 0.19736
0.215793 0.215793 0.215793
0.238056 0.238056 0.238056
0.161913 0.161913 0.161913
0.173922 0.173922 0.173922
0.187884 0.187884 0.187884
0.204089 0.204089 0.204089
0.223819 0.223819 0.223819
0.248112 0.248112 0.248112
0.276143 0.276143 0.276143
0.307866 0.307866 0.307866
0.341878 0.341878 0.341878
0.210498 0.210498 0.210498
0.231815 0.231815 0.231815
0.257755 0.257755 0.257755
0.28748 0.28748 0.28748
0.319951 0.319951 0.319951
0.355001 0.355001 0.355001
0.391684 0.391684 0.391684
0.429129 0.429129 0.429129
0.46775 0.46775 0.46775
0.297719 0.297719 0.297719
0.331579 0.331579 0.331579
0.367666 0.367666 0.367666
0.404807 0.404807 0.404807
0.442557 0.442557 0.442557
0.482216 0.482216 0.482216
0.523949 0.523949 0.523949
0.567452 0.567452 0.567452
0.611185 0.611185 0.611185
0.416678 0.416678 0.416678
0.455055 0.455055 0.455055
0.495964 0.495964 0.495964
0.538613 0.538613 0.538613
0.582116 0.582116 0.582116
0.625589 0.625589 0.625589
0.667521 0.667521 0.667521
0.706645 0.706645 0.706645
0.742565 0.742565 0.742565
0.552422 0.552422 0.552422
0.596231 0.596231 0.596231
0.639445 0.639445 0.639445
0.680659 0.680659 0.680659
0.718776 0.718776 0.718776
0.753307 0.753307 0.753307
0.784985 0.784985 0.784985
0.813794 0.813794 0.813794
0.839826 0.839826 0.839826
0.693416 0.693416 0.693416
0.730434 0.730434 0.730434
0.764462 0.764462 0.764462
0.794873 0.794873 0.794873
0.822675 0.822675 0.822675
0.848127 0.848127 0.848127
0.872053 0.872053 0.872053
0.895003 0.895003 0.895003
0.917525 0.917525 0.917525
0.804181 0.804181 0.804181
0.831327 0.831327 0.831327
0.856321 0.856321 0.856321
0.879896 0.879896 0.879896
0.902632 0.902632 0.902632
0.924987 0.924987 0.924987
0.948394 0.948394 0.948394
0.971511 0.971511 0.971511
0.994705 0.994705 0.994705
0.887053 0.887053 0.887053
0.909865 0.909865 0.909865
0.933227 0.933227 0.933227
0.956024 0.956024 0.956024
0.979217 0.979217 0.979217
1 1 1
1 1 1
1 1 1
1 1 1
0.134569 0.134569 0.134569
0.143328 0.143328 0.143328
0.153109 0.153109 0.153109
0.163714 0.163714 0.163714
0.175586 0.175586 0.175586
0.189288 0.189288 0.189288
0.205737 0.205737 0.205737
0.225727 0.225727 0.225727
0.249912 0.249912 0.249912
0.167819 0.167819 0.167819
0.180529 0.180529 0.180529
0.19527 0.19527 0.19527
0.213169 0.213169 0.213169
0.234455 0.234455 0.234455
0.260273 0.260273 0.260273
0.289891 0.289891 0.289891
0.322454 0.322454 0.322454
0.357458 0.357458 0.357458
0.219959 0.219959 0.219959
0.243153 0.243153 0.243153
0.270848 0.270848 0.270848
0.301595 0.301595 0.301595
0.335134 0.335134 0.335134
0.370932 0.370932 0.370932
0.407919 0.407919 0.407919
0.445411 0.445411 0.445411
0.4851 0.4851 0.4851
0.3122 0.3122 0.3122
0.347082 0.347082 0.347082
0.383505 0.383505 0.383505
0.420813 0.420813 0.420813
0.459083 0.459083 0.459083
0.499535 0.499535 0.499535
0.542168 0.542168 0.542168
0.585626 0.585626 0.585626
0.628916 0.628916 0.628916
0.432746 0.432746 0.432746
0.471916 0.471916 0.471916
0.513649 0.513649 0.513649
0.556771 0.556771 0.556771
0.600305 0.600305 0.600305
0.643198 0.643198 0.643198
0.684184 0.684184 0.684184
0.721965 0.721965 0.721965
0.756786 0.756786 0.756786
0.570642 0.570642 0.570642
0.614389 0.614389 0.614389
0.656825 0.656825 0.656825
0.69688 0.69688 0.69688
0.733806 0.733806 0.733806
0.767315 0.767315 0.767315
0.797681 0.797681 0.797681
0.825147 0.825147 0.825147
0.850431 0.850431 0.850431
0.709422 0.709422 0.709422
0.745098 0.745098 0.745098
0.7776 0.7776 0.7776
0.807263 0.807263 0.807263
0.833799 0.833799 0.833799
0.858549 0.858549 0.858549
0.882231 0.882231 0.882231
0.904952 0.904952 0.904952
0.927413 0.927413 0.927413
0.815991 0.815991 0.815991
0.842084 0.842084 0.842084
0.866407 0.866407 0.866407
0.889845 0.889845 0.889845
0.912398 0.912398 0.912398
0.935561 0.935561 0.935561
0.958282 0.958282 0.958282
0.981247 0.981247 0.981247
1 1 1
0.897047 0.897047 0.897047
0.919753 0.919753 0.919753
0.943099 0.943099 0.943099
0.965942 0.965942 0.965942
0.989013 0.989013 0.989013
1 1 1
1 1 1
1 1 1
1 1 1
