Grain/Grain/Resources/Luts/Cinema/CINECOLOR_BLADE_RUNNER_2049.cube
LUT_3D_SIZE 33
0 0.0455634 0.038056
0 0.0436103 0.0365148
0.0226596 0.0405432 0.0338598
0.047364 0.0389868 0.032578
0.071107 0.0379034 0.0317235
0.0945907 0.0365759 0.0307622
0.118807 0.0350042 0.0296941
0.145159 0.0330663 0.0284428
0.172854 0.030457 0.0267948
0.203021 0.0273899 0.0249332
0.235096 0.0234989 0.022797
0.269154 0.0191958 0.0202945
0.304112 0.0146487 0.0175326
0.339498 0.00982681 0.0148928
0.375051 0.00526436 0.0125124
0.409888 0.000656138 0.010071
0.444877 0 0.00775158
0.478782 0 0.00549325
0.511101 0 0.00347906
0.542092 0 0.00183108
0.570993 0 0.000381476
0.598611 0 0
0.625925 0 0
0.65214 0 0
0.678035 0 0
0.704158 0 0
0.729976 0 0
0.755627 0 0
0.782025 0 0
0.808103 0 0
0.834546 0 0
0.861143 0 0
0.888029 0 0
0 0.0612802 0.0441901
0.00154116 0.0593729 0.0424964
0.0324712 0.0562753 0.0397498
0.0570687 0.0545968 0.0383459
0.0809339 0.0533761 0.0373083
0.104646 0.0518807 0.0361639
0.129396 0.0502327 0.0349737
0.155978 0.0480354 0.033463
0.184207 0.045243 0.031632
0.215015 0.0420233 0.0295567
0.247822 0.0379644 0.0272221
0.282841 0.0335699 0.0245518
0.318715 0.0287175 0.0216983
0.355001 0.0237736 0.0188602
0.391135 0.0191958 0.0161135
0.426871 0.0144961 0.0135348
0.462531 0.00985733 0.0112001
0.497688 0.00570687 0.0090486
0.530846 0.0019379 0.00703441
0.562341 0 0.00538643
0.592081 0 0.00404364
0.620233 0 0.00292973
0.647547 0 0.00199893
0.674662 0 0.00129702
0.701106 0 0.000640879
0.727214 0 0.000106813
0.753872 0 0
0.77995 0 0
0.806241 0 0
0.83267 0 0
0.859449 0 0
0.886717 0 0
0.913405 0 0
0 0.0775311 0.0501717
0.0108644 0.0751049 0.0479133
0.0407416 0.0720684 0.045243
0.065507 0.0702831 0.0436866
0.0896925 0.068925 0.0424964
0.113787 0.0673228 0.0411994
0.138842 0.0654765 0.0397955
0.166171 0.0632639 0.0381781
0.195041 0.0603647 0.0361791
0.226581 0.057023 0.0339361
0.260212 0.0528572 0.0314336
0.295735 0.0482032 0.0285344
0.332906 0.0434272 0.0256046
0.370108 0.0384222 0.0226291
0.407355 0.0337377 0.0198672
0.443976 0.0290379 0.0171817
0.480415 0.0244602 0.0146639
0.516289 0.0204166 0.0125429
0.54995 0.0168307 0.0104829
0.581933 0.0138094 0.00895705
0.612482 0.0115663 0.00776684
0.641291 0.00978103 0.00679026
0.669139 0.00836194 0.00601205
0.6963 0.00727855 0.00540169
0.723323 0.00646983 0.00494392
0.750118 0.00598154 0.004654
0.776516 0.0055848 0.00444038
0.803189 0.00529488 0.00427253
0.829786 0.00515755 0.00419623
0.856504 0.00515755 0.00421149
0.88394 0.00541695 0.00436408
0.911101 0.0056611 0.00453193
0.938094 0.00614939 0.00483711
0 0.0937972 0.0557259
0.0180514 0.0909895 0.0530709
0.0480964 0.0880293 0.0503853
0.0732586 0.0861677 0.0487068
0.0978714 0.0847486 0.0473793
0.122499 0.0830701 0.0459602
0.148226 0.0812085 0.0444495
0.176135 0.0788891 0.0426795
0.205768 0.0759289 0.0405585
0.238102 0.0725261 0.0381933
0.272679 0.0683452 0.0354009
0.309117 0.0636454 0.032578
0.347234 0.058854 0.0295567
0.385382 0.0538643 0.0264897
0.423041 0.0491035 0.0236057
0.460899 0.0446632 0.0209659
0.498116 0.040238 0.0184024
0.534325 0.0362249 0.0161746
0.569192 0.032929 0.014374
0.601877 0.0302739 0.0129091
0.632609 0.0282292 0.01178
0.661875 0.0267643 0.0109712
0.69041 0.025803 0.0104219
0.718227 0.0252079 0.0100862
0.745571 0.0247654 0.00985733
0.772488 0.0245975 0.00979629
0.799283 0.0246433 0.00985733
0.826307 0.0248264 0.00996414
0.853254 0.0251926 0.0101778
0.880446 0.0257725 0.0105135
0.907927 0.0264744 0.0109407
0.935347 0.0273289 0.0114595
0.961227 0.0287633 0.0124056
0 0.110414 0.0609445
0.0240482 0.107591 0.0581674
0.0546273 0.104448 0.0552834
0.0803693 0.102541 0.0534981
0.105577 0.101091 0.0520485
0.130831 0.0993973 0.0505379
0.157137 0.0974746 0.0489052
0.185931 0.0952163 0.0470893
0.216388 0.0922713 0.044892
0.249271 0.0887312 0.0423743
0.285115 0.0847181 0.0396124
0.322515 0.0800641 0.0367437
0.361151 0.0751965 0.0336004
0.400641 0.0704814 0.0306096
0.439261 0.0658579 0.0277409
0.477592 0.0614633 0.0250553
0.51577 0.0573434 0.0225834
0.553002 0.053727 0.0204623
0.58822 0.0506447 0.0187381
0.621347 0.0483101 0.0174105
0.652583 0.0466621 0.0164492
0.682536 0.0457313 0.0158846
0.711406 0.045182 0.0155337
0.739391 0.0449683 0.0153506
0.767071 0.0450141 0.0153506
0.794354 0.0453651 0.0155032
0.821485 0.0459297 0.0158083
0.848798 0.0466316 0.0161746
0.875639 0.0476692 0.0168002
0.90164 0.0491493 0.0177768
0.927779 0.0507515 0.0188602
0.953964 0.0525368 0.0200504
0.979904 0.0545815 0.0213931
0 0.127764 0.065919
0.0287175 0.124727 0.0628977
0.060029 0.121691 0.0599985
0.0865339 0.119768 0.0581064
0.112413 0.118303 0.0565652
0.138506 0.116686 0.0550088
0.165591 0.114824 0.0533303
0.195026 0.11252 0.0514382
0.226566 0.109743 0.0492561
0.26038 0.106294 0.0467384
0.296971 0.102266 0.0439155
0.335668 0.0979019 0.0409247
0.375326 0.0931868 0.0380407
0.415412 0.0885023 0.0350195
0.454948 0.084123 0.0322271
0.494514 0.0801709 0.0297246
0.533364 0.0763104 0.0273594
0.571023 0.0729229 0.0253147
0.606851 0.070222 0.0237125
0.640513 0.0682841 0.0225834
0.672602 0.0672465 0.021973
0.702785 0.0666819 0.0215915
0.73196 0.0665599 0.0214694
0.760327 0.0668345 0.0215763
0.788418 0.0673991 0.0218509
0.815015 0.068574 0.0225986
0.84152 0.0699779 0.0235142
0.867826 0.0716106 0.0245975
0.894011 0.0734569 0.025803
0.920302 0.0754864 0.0271305
0.946868 0.0776226 0.0285496
0.97348 0.0798657 0.0300298
0.999863 0.0823529 0.0316625
0.00106813 0.146151 0.0707256
0.0319677 0.143145 0.067628
0.0643015 0.140078 0.0646067
0.0917525 0.13817 0.062623
0.118227 0.136629 0.0609903
0.145388 0.13521 0.0594644
0.173434 0.133486 0.0578164
0.203647 0.131243 0.0558938
0.236057 0.128557 0.053727
0.271214 0.125429 0.0513313
0.308736 0.121553 0.0485389
0.348211 0.117266 0.0455787
0.388861 0.112795 0.0427863
0.430289 0.108568 0.0399786
0.47071 0.104479 0.0373236
0.510704 0.100679 0.0348974
0.550271 0.0971542 0.0326848
0.588602 0.0941634 0.0308385
0.625055 0.0918898 0.0294499
0.659281 0.0904097 0.0285191
0.691508 0.0897078 0.0280613
0.722332 0.0898299 0.0280919
0.750973 0.0905165 0.0285801
0.778637 0.0916457 0.0293736
0.80589 0.0930648 0.0303349
0.832441 0.0948959 0.0315404
0.859342 0.0968338 0.0327916
0.886122 0.0989548 0.0341802
0.912749 0.101244 0.0356451
0.939483 0.103716 0.0372473
0.966384 0.106188 0.0388495
0.993225 0.10869 0.0404974
1 0.111528 0.0423285
0.00146487 0.166079 0.0754253
0.0330816 0.16318 0.0723125
0.0663157 0.15993 0.0691234
0.0954299 0.158221 0.0671397
0.122957 0.156786 0.0654917
0.150866 0.155398 0.0639353
0.179873 0.153841 0.0623331
0.21146 0.15198 0.0605631
0.244846 0.149477 0.0584726
0.280751 0.146426 0.0561074
0.319326 0.142794 0.0534371
0.359808 0.138781 0.0505989
0.401785 0.134768 0.0480049
0.443763 0.130648 0.045304
0.485069 0.126909 0.0428321
0.525887 0.123476 0.0406043
0.566186 0.120363 0.0386206
0.605173 0.1178 0.0370031
0.641886 0.116091 0.035996
0.675746 0.115373 0.0356756
0.707439 0.115434 0.0358434
0.737423 0.116167 0.0363928
0.766369 0.117388 0.0372473
0.794507 0.119036 0.0383307
0.822263 0.120943 0.0395666
0.849302 0.123186 0.0410315
0.876646 0.125536 0.0425422
0.903868 0.128069 0.0441596
0.930922 0.130755 0.0458839
0.957992 0.133532 0.0476844
0.98529 0.13637 0.0495155
1 0.139284 0.0514229
1 0.142351 0.0534066
4.57771e-05 0.187488 0.0800641
0.0328374 0.18497 0.0770733
0.0673991 0.181827 0.0738537
0.097734 0.179965 0.0717174
0.126497 0.178698 0.0700999
0.155886 0.177676 0.0686809
0.185946 0.176349 0.0671702
0.218235 0.174563 0.0654307
0.252659 0.172305 0.0634775
0.289586 0.169528 0.0612497
0.32932 0.166247 0.0587625
0.371054 0.162646 0.0561532
0.413672 0.158801 0.0534829
0.456535 0.155016 0.0511635
0.498695 0.151659 0.0489204
0.539849 0.148775 0.0471656
0.580148 0.146319 0.0457771
0.618906 0.144457 0.0448005
0.655573 0.143389 0.0442969
0.68986 0.143191 0.0443275
0.722042 0.143755 0.0448005
0.752529 0.144945 0.0456245
0.781933 0.146593 0.0467231
0.810529 0.148653 0.0480507
0.838499 0.151019 0.0495766
0.866209 0.153552 0.051194
0.893889 0.156207 0.0528878
0.921355 0.158984 0.0546731
0.948409 0.16173 0.0564431
0.975662 0.164736 0.0583658
1 0.167727 0.0603037
1 0.170764 0.0622721
1 0.173922 0.0643168
0 0.211032 0.0848707
0.03093 0.208652 0.0819562
0.0665599 0.205722 0.0787823
0.0992294 0.203937 0.0765698
0.129458 0.202899 0.0750134
0.159655 0.201938 0.0736095
0.190799 0.200855 0.072221
0.224155 0.199344 0.0706188
0.259648 0.197406 0.0688334
0.297627 0.194934 0.0667735
0.338247 0.191897 0.0644541
0.380926 0.188678 0.0621195
0.424216 0.185321 0.059968
0.467506 0.182086 0.0581369
0.509773 0.179263 0.0565347
0.551461 0.176959 0.0552224
0.592325 0.17499 0.054139
0.63154 0.173526 0.0534066
0.668528 0.172778 0.0531167
0.70341 0.173068 0.0534371
0.735897 0.173938 0.054078
0.766812 0.175509 0.0551308
0.796597 0.177493 0.0564279
0.825544 0.179843 0.0579232
0.853819 0.182467 0.059617
0.881773 0.185245 0.0613718
0.909636 0.188098 0.0631723
0.93727 0.191058 0.0650645
0.964645 0.194095 0.0670024
0.991928 0.197177 0.0689708
1 0.200198 0.0709087
1 0.20322 0.0728771
1 0.206149 0.0747845
0 0.236561 0.0897536
0.0276188 0.234607 0.0871138
0.0632639 0.232334 0.0842908
0.099382 0.230152 0.0816815
0.130983 0.229221 0.0801556
0.162432 0.228519 0.0788586
0.19472 0.227726 0.0776074
0.229175 0.22652 0.0761883
0.265721 0.224918 0.0747082
0.304646 0.222827 0.0731365
0.346029 0.220218 0.0713512
0.389059 0.217319 0.0694591
0.43299 0.214374 0.0676127
0.476997 0.211597 0.065919
0.519951 0.209216 0.064744
0.562112 0.207248 0.0636301
0.60351 0.205661 0.0627909
0.643336 0.204654 0.0623178
0.680949 0.204379 0.0623178
0.71606 0.204913 0.0627756
0.74902 0.206165 0.0636454
0.78024 0.208011 0.0648508
0.810269 0.210224 0.0662699
0.839368 0.212726 0.0678569
0.867613 0.215381 0.0695659
0.89546 0.218143 0.0713054
0.923323 0.221042 0.0731365
0.950896 0.224002 0.0750134
0.978164 0.227024 0.0769207
1 0.23003 0.0788434
1 0.232944 0.0807202
1 0.235813 0.0825818
1 0.238712 0.0844587
0 0.264057 0.0948959
0.0236362 0.262867 0.0927901
0.0607309 0.260853 0.0899977
0.0990616 0.258503 0.0871901
0.132296 0.25774 0.0857099
0.165255 0.257237 0.0847486
0.19884 0.256733 0.0839399
0.234363 0.255863 0.0829938
0.271794 0.254627 0.0818952
0.311528 0.252964 0.0806134
0.353689 0.250767 0.0790723
0.397406 0.248264 0.0774243
0.441978 0.245686 0.0758221
0.486595 0.243275 0.0743572
0.530129 0.241291 0.073167
0.572656 0.239567 0.0724346
0.614496 0.2383 0.0717937
0.654383 0.237385 0.071397
0.692271 0.237339 0.071519
0.727611 0.238087 0.0720989
0.760723 0.239475 0.0730602
0.792035 0.241428 0.0743267
0.82211 0.243717 0.0757916
0.851209 0.246265 0.0773938
0.87953 0.249012 0.0791333
0.907439 0.251835 0.0809033
0.935134 0.254658 0.0826734
0.962463 0.257496 0.0844739
0.989441 0.260334 0.0862745
1 0.263035 0.088014
1 0.265705 0.0897383
1 0.268528 0.0915541
1 0.271458 0.0934462
0 0.293385 0.10042
0.0210269 0.292622 0.0987106
0.0599222 0.290623 0.0961166
0.0999771 0.288426 0.0936751
0.135088 0.287739 0.0924849
0.169451 0.287663 0.0918288
0.203861 0.28748 0.0912184
0.240085 0.286931 0.0904707
0.278248 0.286061 0.0895857
0.318639 0.284749 0.0885023
0.361456 0.282918 0.0871748
0.405783 0.280735 0.0857252
0.450843 0.278462 0.0842908
0.495888 0.27631 0.0829786
0.539788 0.274571 0.0819562
0.582727 0.273121 0.0813611
0.624735 0.271992 0.0808118
0.665049 0.271382 0.0805829
0.703029 0.271458 0.0807813
0.738399 0.272251 0.0813916
0.771481 0.273686 0.0823529
0.802487 0.275441 0.0835126
0.832349 0.277607 0.0849012
0.861265 0.280049 0.0864424
0.889357 0.282643 0.0880903
0.916945 0.285283 0.0897383
0.94435 0.287922 0.0914015
0.971527 0.290654 0.0931258
0.998428 0.293477 0.0948959
1 0.29633 0.0967117
1 0.299153 0.0985275
1 0.301991 0.100343
1 0.304906 0.10222
0 0.323705 0.107012
0.023682 0.323186 0.105669
0.0632334 0.32163 0.10338
0.104067 0.319844 0.101183
0.14052 0.319417 0.100114
0.175494 0.319539 0.0995651
0.210758 0.319753 0.0991531
0.247776 0.3196 0.0986343
0.286519 0.319066 0.0979324
0.327398 0.318029 0.0970016
0.370626 0.316442 0.0958267
0.415305 0.314504 0.0945144
0.460533 0.312352 0.0931411
0.505806 0.310353 0.0919203
0.54963 0.308583 0.0908827
0.592676 0.30724 0.090135
0.634684 0.306142 0.0898146
0.674952 0.305531 0.0895857
0.712825 0.305562 0.0897536
0.748058 0.306279 0.0903334
0.780926 0.307576 0.0912184
0.811887 0.309331 0.0923629
0.84152 0.31136 0.0936599
0.870222 0.313649 0.0951095
0.898177 0.316182 0.0966964
0.92575 0.318807 0.0983444
0.953124 0.321447 0.100008
0.980072 0.324056 0.101656
1 0.326879 0.103426
1 0.329702 0.105211
1 0.332479 0.106996
1 0.335241 0.108766
1 0.338048 0.110567
0 0.35491 0.114504
0.0307622 0.354604 0.113207
0.0704204 0.353552 0.111254
0.111666 0.352193 0.1093
0.148836 0.35198 0.108339
0.184131 0.35227 0.107881
0.219883 0.352758 0.107637
0.257282 0.35285 0.10724
0.296376 0.352529 0.106676
0.337514 0.351675 0.105852
0.380926 0.350225 0.104738
0.425727 0.348394 0.103487
0.471153 0.346395 0.102205
0.516381 0.344427 0.100984
0.560357 0.342763 0.100008
0.603265 0.341375 0.0992294
0.64509 0.340215 0.0986343
0.685084 0.339467 0.098558
0.722469 0.339193 0.098558
0.757229 0.339635 0.09897
0.789899 0.34081 0.0997787
0.820768 0.342519 0.100893
0.850431 0.344579 0.102205
0.879164 0.346914 0.103685
0.907134 0.349462 0.105287
0.934661 0.352087 0.10692
0.96202 0.354726 0.108583
0.989105 0.357443 0.110292
1 0.360174 0.112016
1 0.362875 0.113725
1 0.365484 0.115404
1 0.367895 0.116991
1 0.37052 0.118685
0.00291447 0.386923 0.12253
0.0413519 0.386526 0.120989
0.0800336 0.38616 0.11957
0.121492 0.385122 0.11783
0.159167 0.385214 0.117037
0.19501 0.38584 0.116777
0.23093 0.386496 0.116625
0.268498 0.386725 0.11632
0.307668 0.386511 0.115801
0.348577 0.385565 0.114931
0.391959 0.384146 0.113832
0.4365 0.382239 0.112535
0.481743 0.380163 0.111208
0.526757 0.378103 0.109941
0.570428 0.376318 0.108873
0.61297 0.374731 0.107988
0.654505 0.373419 0.107301
0.694316 0.37258 0.107149
0.731807 0.372412 0.10721
0.766735 0.372992 0.107683
0.799435 0.374212 0.108522
0.830304 0.375937 0.109651
0.859892 0.377966 0.110948
0.888411 0.380163 0.112337
0.916075 0.382513 0.113848
0.94345 0.385046 0.115419
0.970611 0.387549 0.117006
0.997452 0.390097 0.118624
1 0.39266 0.120241
1 0.395132 0.121843
1 0.397498 0.123384
1 0.399832 0.12491
1 0.402121 0.126421
0.0140993 0.419898 0.13106
0.0536049 0.419455 0.129381
0.0914473 0.419379 0.128252
0.132967 0.418509 0.126635
0.170565 0.418769 0.125963
0.206394 0.419532 0.12578
0.242267 0.420218 0.125658
0.279728 0.420462 0.125368
0.318761 0.420203 0.124834
0.359747 0.419348 0.12401
0.402823 0.417807 0.12285
0.44715 0.415808 0.121508
0.492027 0.413565 0.120073
0.536767 0.411368 0.11873
0.580285 0.409506 0.117632
0.622736 0.407904 0.116732
0.664012 0.40647 0.115969
0.703853 0.405692 0.115633
0.741283 0.405524 0.115892
0.77612 0.406073 0.116365
0.808698 0.407233 0.117174
0.839429 0.408881 0.118257
0.868849 0.410803 0.119493
0.897246 0.412924 0.120851
0.924849 0.415244 0.122316
0.951965 0.417594 0.123796
0.978775 0.419867 0.125246
1 0.422126 0.126696
1 0.424247 0.128069
1 0.426413 0.129488
1 0.428321 0.130755
1 0.430182 0.132021
1 0.432044 0.133288
0.0275425 0.452796 0.139696
0.0674601 0.452461 0.138079
0.10486 0.452796 0.13727
0.146593 0.451896 0.135637
0.183627 0.452277 0.135073
0.219104 0.453025 0.134905
0.254353 0.453498 0.134691
0.291539 0.453666 0.134356
0.330053 0.453178 0.133715
0.370642 0.45214 0.132784
0.413474 0.450507 0.131579
0.457679 0.448493 0.13022
0.502541 0.446281 0.128817
0.547295 0.444129 0.127504
0.590799 0.442313 0.126421
0.633219 0.440757 0.125551
0.674632 0.43946 0.124865
0.71429 0.438621 0.124498
0.751553 0.438392 0.124498
0.786145 0.438804 0.125048
0.818235 0.439658 0.12575
0.84863 0.441093 0.126711
0.877745 0.442817 0.12784
0.905806 0.444709 0.129061
0.933028 0.446754 0.130388
0.959716 0.448814 0.131701
0.986007 0.450721 0.132937
1 0.452552 0.134142
1 0.454398 0.135363
1 0.456123 0.136522
1 0.457633 0.13756
1 0.459037 0.138567
1 0.460487 0.139574
0.0449073 0.484794 0.148089
0.0831922 0.48484 0.146899
0.120211 0.485161 0.146151
0.161486 0.48423 0.144533
0.197604 0.484627 0.144045
0.232456 0.485252 0.143847
0.267567 0.485786 0.143664
0.304417 0.485863 0.143297
0.342947 0.485451 0.142687
0.38352 0.484474 0.141817
0.426307 0.482902 0.140642
0.470405 0.480934 0.139315
0.515007 0.478645 0.137881
0.55935 0.476326 0.136477
0.602655 0.474464 0.135363
0.644846 0.472831 0.134447
0.685939 0.471412 0.133715
0.725277 0.470436 0.133257
0.762219 0.470039 0.133181
0.796475 0.470268 0.133455
0.828397 0.471031 0.134051
0.858442 0.472251 0.134966
0.887083 0.473655 0.136049
0.914549 0.475135 0.137041
0.941115 0.476738 0.138109
0.966995 0.478218 0.139101
0.992798 0.479774 0.140154
1 0.481086 0.141054
1 0.482475 0.142016
1 0.483787 0.142931
1 0.484947 0.143771
1 0.485985 0.144564
1 0.487068 0.145373
0.0648661 0.515892 0.156603
0.101106 0.516243 0.155825
0.137896 0.51635 0.154986
0.17818 0.515343 0.153414
0.213581 0.515923 0.153079
0.247791 0.516503 0.152895
0.282765 0.517128 0.152804
0.319509 0.517266 0.152468
0.3579 0.516884 0.151904
0.398276 0.515908 0.151034
0.440818 0.514321 0.149859
0.484627 0.512306 0.148501
0.52903 0.510002 0.147066
0.573251 0.507698 0.145663
0.616175 0.505699 0.144488
0.657938 0.503914 0.143481
0.698558 0.502281 0.142641
0.737148 0.500908 0.14197
0.773587 0.500267 0.141741
0.807263 0.50016 0.141833
0.838529 0.500511 0.142184
0.867918 0.501289 0.142779
0.895964 0.502281 0.143496
0.922835 0.503365 0.144259
0.94876 0.504509 0.14522
0.974212 0.505699 0.14612
0.99939 0.506813 0.146914
1 0.507866 0.147677
1 0.508904 0.148425
1 0.509865 0.149142
1 0.510689 0.149798
1 0.511452 0.150423
1 0.512215 0.151064
0.0846418 0.545892 0.165301
0.120241 0.546349 0.164691
0.157961 0.546242 0.163745
0.197162 0.545724 0.162524
0.231754 0.546471 0.162356
0.265843 0.547295 0.162341
0.300481 0.547951 0.162295
0.336904 0.548074 0.161975
0.37499 0.547646 0.161395
0.414755 0.546456 0.160418
0.456733 0.544686 0.159152
0.500069 0.54255 0.157763
0.544045 0.540108 0.156222
0.587732 0.537606 0.154711
0.630121 0.535393 0.153414
0.67129 0.533349 0.15227
0.711223 0.531411 0.151232
0.749294 0.529793 0.150439
0.785016 0.52874 0.149981
0.818036 0.528237 0.149859
0.848661 0.528191 0.149981
0.877363 0.528527 0.150317
0.904799 0.529107 0.150805
0.930892 0.5299 0.151415
0.956588 0.530632 0.15198
0.981521 0.531456 0.15259
1 0.532219 0.153292
1 0.532967 0.153994
1 0.5337 0.154589
1 0.534356 0.155154
1 0.534905 0.155673
1 0.535378 0.156176
1 0.535897 0.15671
0.106538 0.575509 0.174426
0.141802 0.576089 0.173968
0.181537 0.575128 0.172427
0.217655 0.575372 0.171862
0.251423 0.576242 0.171832
0.284932 0.577081 0.171847
0.319066 0.577646 0.171786
0.355032 0.577676 0.17145
0.392645 0.577127 0.170809
0.43212 0.575906 0.169818
0.473594 0.574014 0.16849
0.51632 0.571694 0.166979
0.559625 0.568963 0.165286
0.602502 0.566094 0.163561
0.643793 0.563348 0.161975
0.684138 0.560906 0.160601
0.723323 0.558587 0.15935
0.760632 0.556588 0.158328
0.795621 0.555123 0.157641
0.828016 0.554253 0.157305
0.858091 0.553857 0.157229
0.886275 0.553841 0.157366
0.913176 0.55407 0.157641
0.938796 0.554543 0.158068
0.964065 0.554986 0.158465
0.98854 0.555505 0.158923
1 0.555978 0.159365
1 0.556451 0.159823
1 0.557 0.160571
1 0.557488 0.161074
1 0.557794 0.161486
1 0.558022 0.161883
1 0.558343 0.162341
0.129335 0.604547 0.183719
0.164889 0.604898 0.183154
0.204608 0.603983 0.181689
0.238987 0.604501 0.181384
0.271839 0.605356 0.181399
0.304707 0.606119 0.18143
0.337881 0.606378 0.181216
0.37319 0.60618 0.180774
0.410178 0.605417 0.180011
0.44889 0.603906 0.178882
0.489464 0.601663 0.177356
0.531289 0.598962 0.175616
0.5738 0.59588 0.173724
0.615915 0.59266 0.171801
0.656611 0.58967 0.170047
0.696208 0.586877 0.168475
0.734707 0.584237 0.167025
0.771405 0.581918 0.16582
0.805768 0.580118 0.16492
0.837598 0.578912 0.164385
0.867185 0.57821 0.164141
0.894911 0.57792 0.164126
0.921355 0.577844 0.164248
0.946502 0.578012 0.164523
0.971328 0.57818 0.164797
0.995392 0.578454 0.165148
1 0.578683 0.165484
1 0.578912 0.165835
1 0.579141 0.166217
1 0.579522 0.166918
1 0.579644 0.167269
1 0.579736 0.167636
1 0.579873 0.168032
0.152346 0.632776 0.193027
0.189105 0.632547 0.192081
0.226612 0.631983 0.190936
0.259602 0.632517 0.190723
0.291554 0.63328 0.190738
0.323598 0.633829 0.190677
0.356222 0.633936 0.190402
0.390646 0.633387 0.189761
0.426749 0.632258 0.188815
0.464607 0.630411 0.187488
0.504311 0.627817 0.185763
0.545251 0.62472 0.183795
0.586847 0.62121 0.181643
0.628412 0.617777 0.179583
0.66836 0.61442 0.177615
0.707195 0.611261 0.175814
0.745022 0.608301 0.174166
0.781399 0.605844 0.172869
0.815244 0.603769 0.171817
0.846555 0.602274 0.171145
0.875669 0.601297 0.170764
0.902953 0.600717 0.170611
0.928969 0.600412 0.170626
0.953719 0.600336 0.170809
0.978149 0.600259 0.170977
1 0.60032 0.171237
1 0.600351 0.171511
1 0.600427 0.171817
1 0.600641 0.172213
1 0.600717 0.172564
1 0.600671 0.173098
1 0.600656 0.173449
1 0.600702 0.173846
0.175006 0.66038 0.202274
0.213291 0.659281 0.200732
0.247425 0.659205 0.200061
0.278737 0.659419 0.199725
0.309483 0.659831 0.199573
0.340597 0.66006 0.199344
0.372366 0.659831 0.198901
0.405921 0.658915 0.198062
0.441154 0.65742 0.196902
0.478248 0.655238 0.195377
0.517235 0.652369 0.1935
0.557488 0.648966 0.191348
0.59855 0.645228 0.189044
0.639368 0.641428 0.186755
0.678828 0.637873 0.184665
0.717174 0.634501 0.182742
0.754482 0.631281 0.180972
0.790127 0.628428 0.179477
0.823499 0.626108 0.178317
0.854475 0.624445 0.177554
0.883299 0.623331 0.177127
0.910201 0.622538 0.176898
0.935866 0.622003 0.176822
0.960311 0.621775 0.176944
0.984436 0.62153 0.177066
1 0.621424 0.177279
1 0.621286 0.177493
1 0.621393 0.177874
1 0.621378 0.178195
1 0.621332 0.178531
1 0.62118 0.17882
1 0.621012 0.17937
1 0.621149 0.179889
0.196384 0.686336 0.21088
0.233539 0.684993 0.209247
0.265797 0.68484 0.208606
0.296193 0.684932 0.20824
0.325963 0.685039 0.207935
0.356146 0.684916 0.207538
0.387182 0.684398 0.206912
0.42002 0.683177 0.205905
0.454536 0.681361 0.204578
0.490913 0.678904 0.202884
0.529259 0.675776 0.200839
0.568963 0.672129 0.198535
0.60943 0.668116 0.196094
0.649668 0.664057 0.193668
0.688594 0.660243 0.191455
0.726436 0.656641 0.189425
0.763272 0.653208 0.187564
0.798444 0.650141 0.185962
0.831388 0.647608 0.18471
0.862104 0.645823 0.183917
0.890532 0.64448 0.183398
0.917098 0.643534 0.183124
0.942443 0.642832 0.182986
0.966567 0.642405 0.183062
0.990417 0.642054 0.183154
1 0.641978 0.183444
1 0.64181 0.183703
1 0.641596 0.183948
1 0.641443 0.184268
1 0.641382 0.184665
1 0.641337 0.185092
1 0.641154 0.185489
1 0.641001 0.186114
0.216114 0.710979 0.21883
0.25069 0.709575 0.217273
0.281514 0.709194 0.216556
0.311086 0.709102 0.216098
0.339971 0.708888 0.215625
0.369406 0.708461 0.215061
0.399771 0.707652 0.214282
0.432135 0.706249 0.213169
0.466072 0.704173 0.211688
0.5019 0.701473 0.209873
0.539712 0.698116 0.207736
0.578988 0.69427 0.205356
0.618982 0.690044 0.202792
0.658732 0.685756 0.200275
0.697185 0.681743 0.197971
0.734585 0.677943 0.19585
0.771038 0.674342 0.193927
0.805859 0.671122 0.192264
0.838499 0.668467 0.190982
0.868894 0.666529 0.190143
0.896941 0.665003 0.189563
0.923278 0.663935 0.189258
0.948409 0.663142 0.189136
0.97229 0.662623 0.189197
0.996109 0.662303 0.189395
1 0.661982 0.189593
1 0.661692 0.189853
1 0.661479 0.190173
1 0.661448 0.190646
1 0.661204 0.190997
1 0.660914 0.191363
1 0.660868 0.191897
1 0.660731 0.192584
0.233722 0.734203 0.226093
0.265766 0.733135 0.224857
0.295583 0.73257 0.224063
0.324285 0.732204 0.223468
0.352621 0.731792 0.222904
0.381445 0.731121 0.222217
0.411246 0.730037 0.221317
0.442985 0.728328 0.22005
0.476402 0.726009 0.218479
