Grain/Grain/Resources/Luts/Cinema/CINECOLOR_SIN_CITY.cube
TITLE "Generated by Resolve"
LUT_3D_SIZE 9
0 0 0
0.0252384 0 0
0.164492 0 0
0.303746 0 0
0.442985 0 0
0.582238 0 0
0.721492 0 0
0.860746 0 0
1 0 0
0 0.0252384 0
0.0252384 0.0252384 0
0.164492 0.0252384 0
0.303746 0.0252384 0
0.442985 0.0252384 0
0.582238 0.0252384 0
0.721492 0.0252384 0
0.860746 0.0252384 0
1 0.0252384 0
0 0.164492 0
0.0252384 0.164492 0
0.164492 0.164492 0
0.303746 0.164492 0
0.442985 0.164492 0
0.582238 0.164492 0
0.721492 0.164492 0
0.860746 0.164492 0
1 0.164492 0
0 0.303746 0
0.0252384 0.303746 0
0.164492 0.303746 0
0.303746 0.303746 0
0.442985 0.303746 0
0.582238 0.303746 0
0.721492 0.303746 0
0.860746 0.303746 0
1 0.303746 0
0 0.442985 0
0.0252384 0.442985 0
0.164492 0.442985 0
0.303746 0.442985 0
0.442985 0.442985 0
0.582238 0.442985 0
0.721492 0.442985 0
0.860746 0.442985 0
1 0.442985 0
0 0.582238 0
0.0252384 0.582238 0
0.164492 0.582238 0
0.303746 0.582238 0
0.442985 0.582238 0
0.582238 0.582238 0
0.721492 0.582238 0
0.860746 0.582238 0
1 0.582238 0
0 0.721492 0
0.0252384 0.721492 0
0.164492 0.721492 0
0.303746 0.721492 0
0.442985 0.721492 0
0.582238 0.721492 0
0.721492 0.721492 0
0.860746 0.721492 0
1 0.721492 0
0 0.860746 0
0.0252384 0.860746 0
0.164492 0.860746 0
0.303746 0.860746 0
0.442985 0.860746 0
0.582238 0.860746 0
0.721492 0.860746 0
0.860746 0.860746 0
1 0.860746 0
0 1 0
0.0252384 1 0
0.164492 1 0
0.303746 1 0
0.442985 1 0
0.582238 1 0
0.721492 1 0
0.860746 1 0
1 1 0
0 0 0.0252384
0.0252384 0 0.0252384
0.164492 0 0.0252384
0.303746 0 0.0252384
0.442985 0 0.0252384
0.582238 0 0.0252384
0.721492 0 0.0252384
0.860746 0 0.0252384
1 0 0.0252384
0 0.0252384 0.0252384
0.0252384 0.0252384 0.0252384
0.164492 0.0252384 0.0252384
0.303746 0.0252384 0.0252384
0.442985 0.0252384 0.0252384
0.582238 0.0252384 0.0252384
0.721492 0.0252384 0.0252384
0.860746 0.0252384 0.0252384
1 0.0252384 0.0252384
0 0.164492 0.0252384
0.0252384 0.164492 0.0252384
0.164492 0.164492 0.0252384
0.303746 0.164492 0.0252384
0.442985 0.164492 0.0252384
0.582238 0.164492 0.0252384
0.721492 0.164492 0.0252384
0.860746 0.164492 0.0252384
1 0.164492 0.0252384
0 0.303746 0.0252384
0.0252384 0.303746 0.0252384
0.164492 0.303746 0.0252384
0.303746 0.303746 0.0252384
0.442985 0.303746 0.0252384
0.582238 0.303746 0.0252384
0.721492 0.303746 0.0252384
0.860746 0.303746 0.0252384
1 0.303746 0.0252384
0 0.442985 0.0252384
0.0252384 0.442985 0.0252384
0.164492 0.442985 0.0252384
0.303746 0.442985 0.0252384
0.442985 0.442985 0.0252384
0.582238 0.442985 0.0252384
0.721492 0.442985 0.0252384
0.860746 0.442985 0.0252384
1 0.442985 0.0252384
0 0.582238 0.0252384
0.0252384 0.582238 0.0252384
0.164492 0.582238 0.0252384
0.303746 0.582238 0.0252384
0.442985 0.582238 0.0252384
0.582238 0.582238 0.0252384
0.721492 0.582238 0.0252384
0.860746 0.582238 0.0252384
1 0.582238 0.0252384
0 0.721492 0.0252384
0.0252384 0.721492 0.0252384
0.164492 0.721492 0.0252384
0.303746 0.721492 0.0252384
0.442985 0.721492 0.0252384
0.582238 0.721492 0.0252384
0.721492 0.721492 0.0252384
0.860746 0.721492 0.0252384
1 0.721492 0.0252384
0 0.860746 0.0252384
0.0252384 0.860746 0.0252384
0.164492 0.860746 0.0252384
0.303746 0.860746 0.0252384
0.442985 0.860746 0.0252384
0.582238 0.860746 0.0252384
0.721492 0.860746 0.0252384
0.860746 0.860746 0.0252384
1 0.860746 0.0252384
0 1 0.0252384
0.0252384 1 0.0252384
0.164492 1 0.0252384
0.303746 1 0.0252384
0.442985 1 0.0252384
0.582238 1 0.0252384
0.721492 1 0.0252384
0.860746 1 0.0252384
1 1 0.0252384
0 0 0.164492
0.0252384 0 0.164492
0.164492 0 0.164492
0.303746 0 0.164492
0.442985 0 0.164492
0.582238 0 0.164492
0.721492 0 0.164492
0.860746 0 0.164492
1 0 0.164492
0 0.0252384 0.164492
0.0252384 0.0252384 0.164492
0.164492 0.0252384 0.164492
0.303746 0.0252384 0.164492
0.442985 0.0252384 0.164492
0.582238 0.0252384 0.164492
0.721492 0.0252384 0.164492
0.860746 0.0252384 0.164492
1 0.0252384 0.164492
0 0.164492 0.164492
0.0252384 0.164492 0.164492
0.164492 0.164492 0.164492
0.303746 0.164492 0.164492
0.442985 0.164492 0.164492
0.582238 0.164492 0.164492
0.721492 0.164492 0.164492
0.860746 0.164492 0.164492
1 0.164492 0.164492
0 0.303746 0.164492
0.0252384 0.303746 0.164492
0.164492 0.303746 0.164492
0.303746 0.303746 0.164492
0.442985 0.303746 0.164492
0.582238 0.303746 0.164492
0.721492 0.303746 0.164492
0.860746 0.303746 0.164492
1 0.303746 0.164492
0 0.442985 0.164492
0.0252384 0.442985 0.164492
0.164492 0.442985 0.164492
0.303746 0.442985 0.164492
0.442985 0.442985 0.164492
0.582238 0.442985 0.164492
0.721492 0.442985 0.164492
0.860746 0.442985 0.164492
1 0.442985 0.164492
0 0.582238 0.164492
0.0252384 0.582238 0.164492
0.164492 0.582238 0.164492
0.303746 0.582238 0.164492
0.442985 0.582238 0.164492
0.582238 0.582238 0.164492
0.721492 0.582238 0.164492
0.860746 0.582238 0.164492
1 0.582238 0.164492
0 0.721492 0.164492
0.0252384 0.721492 0.164492
0.164492 0.721492 0.164492
0.303746 0.721492 0.164492
0.442985 0.721492 0.164492
0.582238 0.721492 0.164492
0.721492 0.721492 0.164492
0.860746 0.721492 0.164492
1 0.721492 0.164492
0 0.860746 0.164492
0.0252384 0.860746 0.164492
0.164492 0.860746 0.164492
0.303746 0.860746 0.164492
0.442985 0.860746 0.164492
0.582238 0.860746 0.164492
0.721492 0.860746 0.164492
0.860746 0.860746 0.164492
1 0.860746 0.164492
0 1 0.164492
0.0252384 1 0.164492
0.164492 1 0.164492
0.303746 1 0.164492
0.442985 1 0.164492
0.582238 1 0.164492
0.721492 1 0.164492
0.860746 1 0.164492
1 1 0.164492
0 0 0.303746
0.0252384 0 0.303746
0.164492 0 0.303746
0.303746 0 0.303746
0.442985 0 0.303746
0.582238 0 0.303746
0.721492 0 0.303746
0.860746 0 0.303746
1 0 0.303746
0 0.0252384 0.303746
0.0252384 0.0252384 0.303746
0.164492 0.0252384 0.303746
0.303746 0.0252384 0.303746
0.442985 0.0252384 0.303746
0.582238 0.0252384 0.303746
0.721492 0.0252384 0.303746
0.860746 0.0252384 0.303746
1 0.0252384 0.303746
0 0.164492 0.303746
0.0252384 0.164492 0.303746
0.164492 0.164492 0.303746
0.303746 0.164492 0.303746
0.442985 0.164492 0.303746
0.582238 0.164492 0.303746
0.721492 0.164492 0.303746
0.860746 0.164492 0.303746
1 0.164492 0.303746
0 0.303746 0.303746
0.0252384 0.303746 0.303746
0.164492 0.303746 0.303746
0.303746 0.303746 0.303746
0.442985 0.303746 0.303746
0.582238 0.303746 0.303746
0.721492 0.303746 0.303746
0.860746 0.303746 0.303746
1 0.303746 0.303746
0 0.442985 0.303746
0.0252384 0.442985 0.303746
0.164492 0.442985 0.303746
0.303746 0.442985 0.303746
0.442985 0.442985 0.303746
0.582238 0.442985 0.303746
0.721492 0.442985 0.303746
0.860746 0.442985 0.303746
1 0.442985 0.303746
0 0.582238 0.303746
0.0252384 0.582238 0.303746
0.164492 0.582238 0.303746
0.303746 0.582238 0.303746
0.442985 0.582238 0.303746
0.582238 0.582238 0.303746
0.721492 0.582238 0.303746
0.860746 0.582238 0.303746
1 0.582238 0.303746
0 0.721492 0.303746
0.0252384 0.721492 0.303746
0.164492 0.721492 0.303746
0.303746 0.721492 0.303746
0.442985 0.721492 0.303746
0.582238 0.721492 0.303746
0.721492 0.721492 0.303746
0.860746 0.721492 0.303746
1 0.721492 0.303746
0 0.860746 0.303746
0.0252384 0.860746 0.303746
0.164492 0.860746 0.303746
0.303746 0.860746 0.303746
0.442985 0.860746 0.303746
0.582238 0.860746 0.303746
0.721492 0.860746 0.303746
0.860746 0.860746 0.303746
1 0.860746 0.303746
0 1 0.303746
0.0252384 1 0.303746
0.164492 1 0.303746
0.303746 1 0.303746
0.442985 1 0.303746
0.582238 1 0.303746
0.721492 1 0.303746
0.860746 1 0.303746
1 1 0.303746
0 0 0.442985
0.0252384 0 0.442985
0.164492 0 0.442985
0.303746 0 0.442985
0.442985 0 0.442985
0.582238 0 0.442985
0.721492 0 0.442985
0.860746 0 0.442985
1 0 0.442985
0 0.0252384 0.442985
0.0252384 0.0252384 0.442985
0.164492 0.0252384 0.442985
0.303746 0.0252384 0.442985
0.442985 0.0252384 0.442985
0.582238 0.0252384 0.442985
0.721492 0.0252384 0.442985
0.860746 0.0252384 0.442985
1 0.0252384 0.442985
0 0.164492 0.442985
0.0252384 0.164492 0.442985
0.164492 0.164492 0.442985
0.303746 0.164492 0.442985
0.442985 0.164492 0.442985
0.582238 0.164492 0.442985
0.721492 0.164492 0.442985
0.860746 0.164492 0.442985
1 0.164492 0.442985
0 0.303746 0.442985
0.0252384 0.303746 0.442985
0.164492 0.303746 0.442985
0.303746 0.303746 0.442985
0.442985 0.303746 0.442985
0.582238 0.303746 0.442985
0.721492 0.303746 0.442985
0.860746 0.303746 0.442985
1 0.303746 0.442985
0 0.442985 0.442985
0.0252384 0.442985 0.442985
0.164492 0.442985 0.442985
0.303746 0.442985 0.442985
0.442985 0.442985 0.442985
0.582238 0.442985 0.442985
0.721492 0.442985 0.442985
0.860746 0.442985 0.442985
1 0.442985 0.442985
0 0.582238 0.442985
0.0252384 0.582238 0.442985
0.164492 0.582238 0.442985
0.303746 0.582238 0.442985
0.442985 0.582238 0.442985
0.582238 0.582238 0.442985
0.721492 0.582238 0.442985
0.860746 0.582238 0.442985
1 0.582238 0.442985
0 0.721492 0.442985
0.0252384 0.721492 0.442985
0.164492 0.721492 0.442985
0.303746 0.721492 0.442985
0.442985 0.721492 0.442985
0.582238 0.721492 0.442985
0.721492 0.721492 0.442985
0.860746 0.721492 0.442985
1 0.721492 0.442985
0 0.860746 0.442985
0.0252384 0.860746 0.442985
0.164492 0.860746 0.442985
0.303746 0.860746 0.442985
0.442985 0.860746 0.442985
0.582238 0.860746 0.442985
0.721492 0.860746 0.442985
0.860746 0.860746 0.442985
1 0.860746 0.442985
0 1 0.442985
0.0252384 1 0.442985
0.164492 1 0.442985
0.303746 1 0.442985
0.442985 1 0.442985
0.582238 1 0.442985
0.721492 1 0.442985
0.860746 1 0.442985
1 1 0.442985
0 0 0.582238
0.0252384 0 0.582238
0.164492 0 0.582238
0.303746 0 0.582238
0.442985 0 0.582238
0.582238 0 0.582238
0.721492 0 0.582238
0.860746 0 0.582238
1 0 0.582238
0 0.0252384 0.582238
0.0252384 0.0252384 0.582238
0.164492 0.0252384 0.582238
0.303746 0.0252384 0.582238
0.442985 0.0252384 0.582238
0.582238 0.0252384 0.582238
0.721492 0.0252384 0.582238
0.860746 0.0252384 0.582238
1 0.0252384 0.582238
0 0.164492 0.582238
0.0252384 0.164492 0.582238
0.164492 0.164492 0.582238
0.303746 0.164492 0.582238
0.442985 0.164492 0.582238
0.582238 0.164492 0.582238
0.721492 0.164492 0.582238
0.860746 0.164492 0.582238
1 0.164492 0.582238
0 0.303746 0.582238
0.0252384 0.303746 0.582238
0.164492 0.303746 0.582238
0.303746 0.303746 0.582238
0.442985 0.303746 0.582238
0.582238 0.303746 0.582238
0.721492 0.303746 0.582238
0.860746 0.303746 0.582238
1 0.303746 0.582238
0 0.442985 0.582238
0.0252384 0.442985 0.582238
0.164492 0.442985 0.582238
0.303746 0.442985 0.582238
0.442985 0.442985 0.582238
0.582238 0.442985 0.582238
0.721492 0.442985 0.582238
0.860746 0.442985 0.582238
1 0.442985 0.582238
0 0.582238 0.582238
0.0252384 0.582238 0.582238
0.164492 0.582238 0.582238
0.303746 0.582238 0.582238
0.442985 0.582238 0.582238
0.582238 0.582238 0.582238
0.721492 0.582238 0.582238
0.860746 0.582238 0.582238
1 0.582238 0.582238
0 0.721492 0.582238
0.0252384 0.721492 0.582238
0.164492 0.721492 0.582238
0.303746 0.721492 0.582238
0.442985 0.721492 0.582238
0.582238 0.721492 0.582238
0.721492 0.721492 0.582238
0.860746 0.721492 0.582238
1 0.721492 0.582238
0 0.860746 0.582238
0.0252384 0.860746 0.582238
0.164492 0.860746 0.582238
0.303746 0.860746 0.582238
0.442985 0.860746 0.582238
0.582238 0.860746 0.582238
0.721492 0.860746 0.582238
0.860746 0.860746 0.582238
1 0.860746 0.582238
0 1 0.582238
0.0252384 1 0.582238
0.164492 1 0.582238
0.303746 1 0.582238
0.442985 1 0.582238
0.582238 1 0.582238
0.721492 1 0.582238
0.860746 1 0.582238
1 1 0.582238
0 0 0.721492
0.0252384 0 0.721492
0.164492 0 0.721492
0.303746 0 0.721492
0.442985 0 0.721492
0.582238 0 0.721492
0.721492 0 0.721492
0.860746 0 0.721492
1 0 0.721492
0 0.0252384 0.721492
0.0252384 0.0252384 0.721492
0.164492 0.0252384 0.721492
0.303746 0.0252384 0.721492
0.442985 0.0252384 0.721492
0.582238 0.0252384 0.721492
0.721492 0.0252384 0.721492
0.860746 0.0252384 0.721492
1 0.0252384 0.721492
0 0.164492 0.721492
0.0252384 0.164492 0.721492
0.164492 0.164492 0.721492
0.303746 0.164492 0.721492
0.442985 0.164492 0.721492
0.582238 0.164492 0.721492
0.721492 0.164492 0.721492
0.860746 0.164492 0.721492
1 0.164492 0.721492
0 0.303746 0.721492
0.0252384 0.303746 0.721492
0.164492 0.303746 0.721492
0.303746 0.303746 0.721492
0.442985 0.303746 0.721492
0.582238 0.303746 0.721492
0.721492 0.303746 0.721492
0.860746 0.303746 0.721492
1 0.303746 0.721492
0 0.442985 0.721492
0.0252384 0.442985 0.721492
0.164492 0.442985 0.721492
0.303746 0.442985 0.721492
0.442985 0.442985 0.721492
0.582238 0.442985 0.721492
0.721492 0.442985 0.721492
0.860746 0.442985 0.721492
1 0.442985 0.721492
0 0.582238 0.721492
0.0252384 0.582238 0.721492
0.164492 0.582238 0.721492
0.303746 0.582238 0.721492
0.442985 0.582238 0.721492
0.582238 0.582238 0.721492
0.721492 0.582238 0.721492
0.860746 0.582238 0.721492
1 0.582238 0.721492
0 0.721492 0.721492
0.0252384 0.721492 0.721492
0.164492 0.721492 0.721492
0.303746 0.721492 0.721492
0.442985 0.721492 0.721492
0.582238 0.721492 0.721492
0.721492 0.721492 0.721492
0.860746 0.721492 0.721492
1 0.721492 0.721492
0 0.860746 0.721492
0.0252384 0.860746 0.721492
0.164492 0.860746 0.721492
0.303746 0.860746 0.721492
0.442985 0.860746 0.721492
0.582238 0.860746 0.721492
0.721492 0.860746 0.721492
0.860746 0.860746 0.721492
1 0.860746 0.721492
0 1 0.721492
0.0252384 1 0.721492
0.164492 1 0.721492
0.303746 1 0.721492
0.442985 1 0.721492
0.582238 1 0.721492
0.721492 1 0.721492
0.860746 1 0.721492
1 1 0.721492
0 0 0.860746
0.0252384 0 0.860746
0.164492 0 0.860746
0.303746 0 0.860746
0.442985 0 0.860746
0.582238 0 0.860746
0.721492 0 0.860746
0.860746 0 0.860746
1 0 0.860746
0 0.0252384 0.860746
0.0252384 0.0252384 0.860746
0.164492 0.0252384 0.860746
0.303746 0.0252384 0.860746
0.442985 0.0252384 0.860746
0.582238 0.0252384 0.860746
0.721492 0.0252384 0.860746
0.860746 0.0252384 0.860746
1 0.0252384 0.860746
0 0.164492 0.860746
0.0252384 0.164492 0.860746
0.164492 0.164492 0.860746
0.303746 0.164492 0.860746
0.442985 0.164492 0.860746
0.582238 0.164492 0.860746
0.721492 0.164492 0.860746
0.860746 0.164492 0.860746
1 0.164492 0.860746
0 0.303746 0.860746
0.0252384 0.303746 0.860746
0.164492 0.303746 0.860746
0.303746 0.303746 0.860746
0.442985 0.303746 0.860746
0.582238 0.303746 0.860746
0.721492 0.303746 0.860746
0.860746 0.303746 0.860746
1 0.303746 0.860746
0 0.442985 0.860746
0.0252384 0.442985 0.860746
0.164492 0.442985 0.860746
0.303746 0.442985 0.860746
0.442985 0.442985 0.860746
0.582238 0.442985 0.860746
0.721492 0.442985 0.860746
0.860746 0.442985 0.860746
1 0.442985 0.860746
0 0.582238 0.860746
0.0252384 0.582238 0.860746
0.164492 0.582238 0.860746
0.303746 0.582238 0.860746
0.442985 0.582238 0.860746
0.582238 0.582238 0.860746
0.721492 0.582238 0.860746
0.860746 0.582238 0.860746
1 0.582238 0.860746
0 0.721492 0.860746
0.0252384 0.721492 0.860746
0.164492 0.721492 0.860746
0.303746 0.721492 0.860746
0.442985 0.721492 0.860746
0.582238 0.721492 0.860746
0.721492 0.721492 0.860746
0.860746 0.721492 0.860746
1 0.721492 0.860746
0 0.860746 0.860746
0.0252384 0.860746 0.860746
0.164492 0.860746 0.860746
0.303746 0.860746 0.860746
0.442985 0.860746 0.860746
0.582238 0.860746 0.860746
0.721492 0.860746 0.860746
0.860746 0.860746 0.860746
1 0.860746 0.860746
0 1 0.860746
0.0252384 1 0.860746
0.164492 1 0.860746
0.303746 1 0.860746
0.442985 1 0.860746
0.582238 1 0.860746
0.721492 1 0.860746
0.860746 1 0.860746
1 1 0.860746
0 0 1
0.0252384 0 1
0.164492 0 1
0.303746 0 1
0.442985 0 1
0.582238 0 1
0.721492 0 1
0.860746 0 1
1 0 1
0 0.0252384 1
0.0252384 0.0252384 1
0.164492 0.0252384 1
0.303746 0.0252384 1
0.442985 0.0252384 1
0.582238 0.0252384 1
0.721492 0.0252384 1
0.860746 0.0252384 1
1 0.0252384 1
0 0.164492 1
0.0252384 0.164492 1
0.164492 0.164492 1
0.303746 0.164492 1
0.442985 0.164492 1
0.582238 0.164492 1
0.721492 0.164492 1
0.860746 0.164492 1
1 0.164492 1
0 0.303746 1
0.0252384 0.303746 1
0.164492 0.303746 1
0.303746 0.303746 1
0.442985 0.303746 1
0.582238 0.303746 1
0.721492 0.303746 1
0.860746 0.303746 1
1 0.303746 1
0 0.442985 1
0.0252384 0.442985 1
0.164492 0.442985 1
0.303746 0.442985 1
0.442985 0.442985 1
0.582238 0.442985 1
0.721492 0.442985 1
0.860746 0.442985 1
1 0.442985 1
0 0.582238 1
0.0252384 0.582238 1
0.164492 0.582238 1
0.303746 0.582238 1
0.442985 0.582238 1
0.582238 0.582238 1
0.721492 0.582238 1
0.860746 0.582238 1
1 0.582238 1
0 0.721492 1
0.0252384 0.721492 1
0.164492 0.721492 1
0.303746 0.721492 1
0.442985 0.721492 1
0.582238 0.721492 1
0.721492 0.721492 1
0.860746 0.721492 1
1 0.721492 1
0 0.860746 1
0.0252384 0.860746 1
0.164492 0.860746 1
0.303746 0.860746 1
0.442985 0.860746 1
0.582238 0.860746 1
0.721492 0.860746 1
0.860746 0.860746 1
1 0.860746 1
0 1 1
0.0252384 1 1
0.164492 1 1
0.303746 1 1
0.442985 1 1
0.582238 1 1
0.721492 1 1
0.860746 1 1
1 1 1
