Grain/Grain/Resources/Luts/Cinema/CINECOLOR_ALIEN.cube
TITLE "Generated by Resolve"
LUT_3D_SIZE 9
0.0113069 0.0194705 0.0199588
0.0684367 0.0282902 0.02916
0.134768 0.0345312 0.0345006
0.217472 0.0362402 0.034165
0.308614 0.035462 0.0316472
0.406973 0.0336004 0.0285801
0.494331 0.0354772 0.0301976
0.565362 0.0434272 0.038468
0.632029 0.0546426 0.0509346
0.0356756 0.0983902 0.0461891
0.0924849 0.106905 0.0556649
0.159274 0.113939 0.0621347
0.244511 0.116991 0.0636759
0.341619 0.118669 0.0642557
0.445716 0.120745 0.0655985
0.537041 0.128634 0.0742046
0.613306 0.143343 0.0903182
0.686748 0.161898 0.110979
0.0574197 0.182818 0.0670329
0.116838 0.195377 0.0807965
0.188327 0.20708 0.0933242
0.280705 0.215595 0.101122
0.388251 0.223285 0.108232
0.499535 0.232959 0.117632
0.594995 0.250019 0.135348
0.676997 0.273091 0.160204
0.755444 0.298939 0.187152
0.0779278 0.290974 0.0861067
0.142061 0.311376 0.106126
0.219806 0.331273 0.125597
0.321904 0.347799 0.140505
0.438315 0.362768 0.153735
0.55111 0.379797 0.169009
0.646433 0.401236 0.18967
0.726833 0.425666 0.213306
0.801968 0.450706 0.237751
0.108324 0.431128 0.118471
0.178668 0.459144 0.145235
0.26244 0.48368 0.1691
0.37052 0.501213 0.185565
0.487007 0.515663 0.198779
0.595285 0.531365 0.214038
0.687785 0.549645 0.233555
0.766476 0.570382 0.25684
0.839963 0.591516 0.280629
0.158541 0.583337 0.17203
0.230442 0.609537 0.19971
0.315908 0.630549 0.22266
0.425071 0.643641 0.2365
0.536736 0.655283 0.248493
0.64004 0.668116 0.261997
0.729488 0.683284 0.279683
0.804822 0.700618 0.300633
0.874907 0.717754 0.321553
0.217929 0.721477 0.238865
0.289128 0.743465 0.265293
0.375967 0.760174 0.284916
0.483177 0.770077 0.296147
0.587381 0.779126 0.306218
0.685466 0.787884 0.315999
0.770047 0.798627 0.328283
0.840574 0.811154 0.344198
0.905653 0.823224 0.359319
0.279637 0.843397 0.315312
0.352178 0.860456 0.3364
0.437385 0.871839 0.351003
0.537453 0.877729 0.358038
0.633875 0.882673 0.363256
0.72636 0.886946 0.367651
0.806317 0.893217 0.374655
0.872633 0.901625 0.385
0.934142 0.910094 0.395621
0.334218 0.948211 0.380819
0.404898 0.959319 0.395438
0.485222 0.966293 0.404547
0.577264 0.968673 0.406989
0.669032 0.970062 0.407385
0.757473 0.971115 0.407263
0.834348 0.974792 0.410773
0.898619 0.981003 0.418158
0.958968 0.988312 0.427085
0.0132448 0.0215763 0.0873732
0.0710307 0.0309453 0.0968948
0.136858 0.0370489 0.102464
0.219791 0.0385748 0.103471
0.311284 0.0377661 0.101747
0.409796 0.0361639 0.0992905
0.497536 0.0384375 0.101167
0.568902 0.0469825 0.109957
0.636378 0.0588846 0.122393
0.0381628 0.100862 0.113481
0.0951247 0.109636 0.122393
0.16228 0.116884 0.129732
0.247898 0.120317 0.132708
0.346075 0.122423 0.134325
0.450965 0.125048 0.136934
0.542367 0.133715 0.145815
0.619348 0.149432 0.162753
0.694057 0.168978 0.183917
0.0608377 0.186465 0.135882
0.121019 0.199634 0.149935
0.19295 0.211933 0.162585
0.286503 0.221241 0.171862
0.395148 0.229465 0.179767
0.50692 0.240024 0.190524
0.602853 0.25803 0.209003
0.685527 0.282002 0.233356
0.763912 0.308232 0.260212
0.0832074 0.297185 0.15816
0.148302 0.318486 0.178637
0.226764 0.339437 0.198245
0.33022 0.356497 0.213962
0.447105 0.371695 0.227726
0.559213 0.388708 0.243503
0.653941 0.409888 0.263508
0.734051 0.43415 0.287205
0.808865 0.458869 0.312123
0.115572 0.439902 0.193256
0.186313 0.468162 0.220264
0.270802 0.49276 0.244297
0.379019 0.509819 0.260624
0.495384 0.523949 0.275029
0.602472 0.538994 0.290562
0.69453 0.556786 0.309926
0.772778 0.577264 0.333577
0.846052 0.598016 0.358175
0.166094 0.591653 0.248341
0.23798 0.617411 0.276371
0.323598 0.637934 0.299245
0.432853 0.650629 0.313817
0.543816 0.661997 0.32668
0.646357 0.674479 0.341451
0.735256 0.689235 0.359152
0.810101 0.706081 0.37969
0.879347 0.722484 0.400183
0.224384 0.728328 0.316701
0.295689 0.749905 0.342718
0.382727 0.766003 0.362799
0.489189 0.775464 0.374716
0.592721 0.784283 0.385443
0.68986 0.792554 0.395331
0.774029 0.802716 0.407706
0.8439 0.814603 0.42266
0.908644 0.826322 0.437369
0.285252 0.848981 0.393881
0.357656 0.865049 0.414313
0.442664 0.876127 0.428733
0.541375 0.881407 0.435447
0.637415 0.885954 0.440925
0.72932 0.889952 0.444999
0.808499 0.895705 0.451698
0.874815 0.903899 0.461662
0.936095 0.912139 0.471733
0.338308 0.951904 0.457328
0.408774 0.9626 0.471183
0.488334 0.969238 0.479423
0.579934 0.971405 0.48188
0.671092 0.972381 0.482414
0.759426 0.973144 0.482582
0.836286 0.976608 0.486152
0.900282 0.982788 0.493431
0.960647 0.990112 0.501945
0.0158541 0.024033 0.160952
0.0731823 0.0332036 0.170016
0.13901 0.0391089 0.175784
0.221698 0.0407111 0.176989
0.313603 0.0399634 0.175814
0.412451 0.0386053 0.174121
0.500587 0.0413214 0.176791
0.572396 0.0504768 0.186313
0.64033 0.063035 0.199634
0.0403906 0.102998 0.186709
0.0974441 0.112001 0.196002
0.164889 0.11957 0.204044
0.251102 0.123461 0.207965
0.350149 0.126085 0.210529
0.455467 0.129168 0.213703
0.547662 0.138842 0.224475
0.625269 0.155276 0.242695
0.700435 0.175616 0.265171
0.06421 0.189807 0.211444
0.124636 0.203647 0.226032
0.197253 0.216663 0.239918
0.292149 0.226734 0.250523
0.402197 0.23566 0.259998
0.514427 0.247211 0.272236
0.610468 0.266072 0.292454
0.69308 0.290089 0.318578
0.771099 0.316289 0.347082
0.0881514 0.302953 0.236835
0.153933 0.325154 0.258762
0.233402 0.346868 0.28014
0.337804 0.364401 0.297307
0.455055 0.379904 0.312642
0.56669 0.39704 0.329732
0.660777 0.417838 0.351003
0.740475 0.441779 0.375738
0.814557 0.465766 0.401389
0.122728 0.448478 0.27686
0.193683 0.476722 0.305455
0.277913 0.500618 0.330571
0.386725 0.517037 0.348119
0.502373 0.530892 0.363378
0.608835 0.545724 0.380118
0.700633 0.563043 0.400397
0.778363 0.583291 0.424277
0.851316 0.603677 0.448936
0.173175 0.599329 0.336034
0.24477 0.624491 0.365225
0.330098 0.644068 0.389013
0.439185 0.656367 0.404059
0.549401 0.667521 0.417594
0.651438 0.679667 0.432212
0.739834 0.693996 0.449683
0.814527 0.710475 0.46952
0.883375 0.726482 0.488731
0.230137 0.734432 0.407599
0.301488 0.755505 0.433845
0.388586 0.771115 0.453483
0.494636 0.780102 0.464881
0.596887 0.788296 0.4748
0.693614 0.796368 0.484215
0.776989 0.805859 0.495171
0.846677 0.817487 0.509194
0.911101 0.828901 0.522179
0.290181 0.853574 0.483375
0.36228 0.869139 0.502266
0.446845 0.879774 0.515175
0.544762 0.884718 0.52079
0.64007 0.888884 0.525567
0.731792 0.892363 0.529213
0.810575 0.897902 0.535058
0.876448 0.905806 0.543999
0.93756 0.913878 0.552941
0.341848 0.955047 0.541299
0.412009 0.965377 0.553216
0.491234 0.971633 0.560281
0.582025 0.97348 0.561868
0.672953 0.974304 0.562387
0.761166 0.974807 0.562692
0.837705 0.97821 0.566171
0.901732 0.98436 0.572824
0.962158 0.991714 0.580835
0.0170596 0.0251011 0.2542
0.0740368 0.0339971 0.263523
0.139712 0.0398413 0.269703
0.222416 0.0414893 0.271275
0.314565 0.0409247 0.270634
0.413687 0.0396887 0.269535
0.502373 0.0430304 0.273487
0.574716 0.0527657 0.284535
0.643046 0.0656901 0.299504
0.0412909 0.103746 0.281468
0.0982834 0.113024 0.291814
0.166079 0.120912 0.30103
0.252903 0.125246 0.306188
0.352682 0.128161 0.309957
0.459083 0.132097 0.31516
0.551308 0.14255 0.327733
0.630091 0.159838 0.349035
0.70573 0.181033 0.374426
0.0662547 0.191821 0.309941
0.127138 0.206058 0.326711
0.200534 0.219867 0.343008
0.296071 0.230472 0.35555
0.407126 0.240146 0.367056
0.519799 0.252583 0.381903
0.616022 0.272084 0.404074
0.699062 0.296605 0.43183
0.776684 0.322835 0.460304
0.0920577 0.307515 0.341482
0.158221 0.330587 0.366262
0.238666 0.352911 0.390249
0.343938 0.370809 0.409049
0.46099 0.386175 0.425025
0.571756 0.40322 0.442481
0.665461 0.423758 0.463676
0.745098 0.447395 0.488289
0.819074 0.471168 0.512474
0.128267 0.454902 0.388327
0.199329 0.483009 0.418463
0.283497 0.506737 0.443824
0.392721 0.522789 0.461479
0.507927 0.536187 0.476341
0.613291 0.550469 0.492195
0.70489 0.567651 0.511376
0.782605 0.587701 0.533425
0.855207 0.60798 0.5552
0.178271 0.604868 0.449882
0.249592 0.629511 0.47866
0.33521 0.648829 0.500877
0.444221 0.66099 0.514992
0.553872 0.671992 0.527413
0.655314 0.683925 0.540612
0.743526 0.697887 0.555825
0.817472 0.713863 0.573251
0.886091 0.729641 0.590356
0.234302 0.738781 0.518608
0.305837 0.759609 0.542184
0.39292 0.774884 0.559533
0.498466 0.783795 0.569223
0.6 0.791669 0.577798
0.696254 0.7991 0.585779
0.779339 0.808255 0.595941
0.8486 0.819562 0.60798
0.912749 0.830518 0.620066
0.293584 0.857023 0.586084
0.365774 0.872343 0.603037
0.449805 0.882261 0.614054
0.547234 0.887068 0.619272
0.641993 0.890852 0.623026
0.733089 0.893919 0.626383
0.811734 0.898955 0.631708
0.877379 0.906722 0.64004
0.938323 0.914626 0.648539
0.344411 0.95729 0.638102
0.414145 0.967193 0.649195
0.492851 0.973083 0.655604
0.583093 0.974594 0.656886
0.673961 0.975174 0.657542
0.761807 0.975555 0.65774
0.838102 0.978897 0.661021
0.90222 0.98497 0.667567
0.962676 0.992386 0.675425
0.017319 0.0252232 0.358526
0.0740063 0.0338903 0.368505
0.139544 0.0396582 0.375509
0.22237 0.0414282 0.377295
0.314626 0.0411231 0.377249
0.414527 0.0401007 0.377111
0.50309 0.0438849 0.382162
0.576013 0.0541238 0.39501
0.645197 0.0679637 0.412055
0.0413672 0.10367 0.388266
0.0986038 0.113115 0.400351
0.166476 0.121233 0.410483
0.253971 0.126146 0.416541
0.354681 0.12987 0.421622
0.461723 0.134524 0.428229
0.554772 0.145693 0.442298
0.633906 0.163867 0.464332
0.710719 0.185946 0.49015
0.067216 0.193042 0.420645
0.128847 0.208179 0.439094
0.202884 0.222568 0.456336
0.299855 0.234104 0.470192
0.412009 0.244678 0.482307
0.525292 0.258045 0.497688
0.621958 0.278157 0.518975
0.704601 0.302983 0.544778
0.782361 0.329107 0.570642
0.0951247 0.311559 0.456199
0.162356 0.335546 0.481559
0.243626 0.358648 0.505394
0.349767 0.376944 0.523064
0.467063 0.392721 0.538277
0.577356 0.409537 0.554192
0.671031 0.43003 0.573404
0.749966 0.453239 0.595026
0.823529 0.476722 0.616999
0.133577 0.46125 0.50428
0.204532 0.489296 0.53196
0.289281 0.512596 0.5552
0.398642 0.528511 0.571115
0.513161 0.541726 0.584161
0.618433 0.555886 0.598688
0.709651 0.573007 0.616266
0.787305 0.592767 0.636927
0.859678 0.612741 0.657298
0.183841 0.610574 0.561379
0.254994 0.634867 0.587015
0.340536 0.653758 0.606851
0.449683 0.66566 0.619486
0.55845 0.67657 0.630808
0.659602 0.688106 0.643183
0.747173 0.701717 0.657496
0.821012 0.717388 0.673991
0.88893 0.732448 0.689845
0.239231 0.743801 0.623377
0.310811 0.764279 0.645319
0.397757 0.77911 0.66128
0.502464 0.787366 0.670405
0.603479 0.794919 0.678187
0.699092 0.801816 0.685466
0.781613 0.810697 0.69485
0.850416 0.82153 0.70634
0.914015 0.832105 0.717525
0.297536 0.86067 0.686488
0.369192 0.875196 0.702235
0.452689 0.884993 0.71252
0.549538 0.889342 0.717189
0.643915 0.892607 0.720851
0.734417 0.895354 0.723445
0.812711 0.900069 0.728618
0.878111 0.907591 0.736553
0.938872 0.915328 0.744701
0.34699 0.959274 0.735698
0.416083 0.968856 0.745647
0.494316 0.974411 0.751583
0.584115 0.975616 0.753079
0.674708 0.976013 0.753414
0.762234 0.976287 0.753491
0.83856 0.979492 0.75668
0.902678 0.98558 0.763027
0.96318 0.993057 0.77084
0.0168765 0.0251621 0.465019
0.0738079 0.0336309 0.474693
0.13933 0.0394293 0.481712
0.222293 0.0413672 0.483757
0.315007 0.0412909 0.484199
0.415229 0.0406806 0.484474
0.504631 0.0450294 0.490196
0.578042 0.0561227 0.502892
0.648035 0.0708171 0.5196
0.0416419 0.103685 0.494438
0.0990768 0.113573 0.506279
0.167483 0.122271 0.516152
0.255619 0.127825 0.522881
0.357504 0.132158 0.528328
0.465324 0.137392 0.534768
0.559106 0.149935 0.548836
0.639277 0.169192 0.569635
0.716884 0.192309 0.594491
0.0692912 0.194919 0.52697
0.13167 0.210956 0.544717
0.206622 0.226276 0.561242
0.304631 0.238666 0.574136
0.418204 0.250095 0.586419
0.531731 0.264485 0.601022
0.628611 0.285222 0.622049
0.711528 0.310384 0.646479
0.788708 0.336263 0.671229
0.0997024 0.316686 0.56202
0.167758 0.341817 0.586053
0.24976 0.365774 0.608301
0.356512 0.383993 0.625101
0.47396 0.399649 0.639536
0.583383 0.416327 0.654871
0.676722 0.436698 0.673503
0.755474 0.459815 0.694224
0.828733 0.482887 0.715251
0.139651 0.468559 0.607462
0.210986 0.496452 0.633951
0.295705 0.519524 0.65594
0.405356 0.534936 0.671122
0.518929 0.547509 0.68365
0.623728 0.561471 0.697658
0.714855 0.578317 0.714595
0.79205 0.597894 0.734066
0.864042 0.617441 0.75404
0.18941 0.61677 0.66183
0.26041 0.640635 0.686336
0.346731 0.659342 0.705638
0.45539 0.671077 0.717571
0.563531 0.681682 0.728786
0.664195 0.692851 0.740307
0.751232 0.705974 0.753658
0.82414 0.720958 0.769207
0.891814 0.735759 0.784421
0.244236 0.748882 0.721691
0.315801 0.768917 0.742641
0.402564 0.783352 0.757717
0.506661 0.791363 0.766033
0.60679 0.798245 0.773251
0.701854 0.804913 0.780224
0.783963 0.813291 0.788968
0.852583 0.823621 0.799832
0.915572 0.83386 0.810407
0.30135 0.864317 0.781872
0.37293 0.878462 0.796735
0.455985 0.887739 0.806546
0.55198 0.891752 0.81062
0.645838 0.894591 0.813825
0.735912 0.896971 0.816083
0.813886 0.901396 0.820951
0.879072 0.908705 0.828565
0.939681 0.916289 0.836484
0.349447 0.961517 0.828595
0.418112 0.970642 0.837995
0.49572 0.975952 0.843549
0.58529 0.976867 0.844816
0.675669 0.977066 0.844984
0.763043 0.977218 0.845014
0.839292 0.980377 0.848234
0.90341 0.986465 0.854582
0.964004 0.994018 0.862425
0.018143 0.0263828 0.55021
0.0748455 0.0348974 0.559258
0.140597 0.0408179 0.565591
0.223972 0.0428931 0.56817
0.317174 0.0431373 0.56878
0.417899 0.0430762 0.56907
0.507881 0.0481575 0.574914
0.581964 0.060029 0.587762
0.652537 0.075349 0.604242
0.0433051 0.10544 0.578012
0.101259 0.115801 0.589197
0.170275 0.125063 0.599451
0.25922 0.131289 0.606302
0.362295 0.136278 0.612085
0.470787 0.142458 0.619242
0.565148 0.155764 0.633661
0.646235 0.175982 0.655161
0.7243 0.199969 0.680095
0.0727855 0.198749 0.610681
0.135607 0.215412 0.628077
0.211734 0.231876 0.645258
0.311223 0.245014 0.659037
0.426017 0.257313 0.671641
0.539498 0.272404 0.686473
0.636194 0.293431 0.70721
0.718883 0.318578 0.73109
0.795575 0.344182 0.755199
0.105425 0.323445 0.646952
0.174212 0.349493 0.671107
0.256992 0.373922 0.693233
0.364645 0.392447 0.710048
0.481773 0.407874 0.724086
0.590326 0.424491 0.738766
0.683177 0.444541 0.756756
0.76144 0.466926 0.77673
0.834592 0.489738 0.797314
0.146883 0.476844 0.69279
0.218112 0.504311 0.718456
0.303075 0.527092 0.7402
0.412818 0.542 0.754589
0.526131 0.554391 0.766796
0.63032 0.568276 0.78056
0.72108 0.584894 0.79707
0.797894 0.604105 0.815961
0.869444 0.623285 0.835294
0.196262 0.624109 0.746059
0.267002 0.647364 0.769574
0.353582 0.665629 0.788251
0.461982 0.677043 0.799802
0.569284 0.687419 0.810452
0.669322 0.698207 0.8215
0.756115 0.71104 0.834623
0.828672 0.72546 0.849393
0.895857 0.739773 0.864042
0.250355 0.755108 0.804105
0.321981 0.774685 0.824048
0.40856 0.788479 0.838544
0.511604 0.795865 0.846265
0.611093 0.802563 0.853346
0.705791 0.808713 0.8598
0.787305 0.816648 0.867918
0.855207 0.826642 0.878172
0.918013 0.836439 0.888334
0.30634 0.868788 0.861814
0.377508 0.882506 0.876097
0.46006 0.891325 0.885359
0.555245 0.894942 0.88925
0.648417 0.897444 0.891707
0.738445 0.899351 0.894011
0.815793 0.903655 0.898283
0.880949 0.910719 0.905653
0.941421 0.918166 0.913512
0.35259 0.964385 0.90631
0.421103 0.973205 0.915755
0.498421 0.97818 0.921019
0.587396 0.978988 0.921859
0.677424 0.979049 0.921904
0.764767 0.979049 0.921996
0.841138 0.982101 0.925444
0.905028 0.988312 0.931655
0.965759 0.995972 0.93962
0.020676 0.0289464 0.615122
0.0774548 0.0374609 0.623987
0.143145 0.0435492 0.630426
0.226688 0.0459297 0.633082
0.320592 0.0465248 0.633951
0.422431 0.0468452 0.634989
0.512718 0.0526589 0.641505
0.587381 0.0652934 0.654917
0.658824 0.0815595 0.672068
0.0464179 0.108553 0.642802
0.104738 0.119417 0.654597
0.17435 0.129305 0.665309
0.26424 0.13611 0.67274
0.368338 0.141497 0.678767
0.477897 0.148836 0.686793
0.572747 0.16318 0.702037
0.654612 0.18436 0.724285
0.732982 0.20885 0.749172
0.0778973 0.203952 0.677073
0.14136 0.221485 0.695277
0.218158 0.238651 0.712795
0.319127 0.252567 0.726894
0.434836 0.265675 0.739849
0.548409 0.281559 0.755337
0.644999 0.302998 0.775998
0.727321 0.327932 0.799588
0.803525 0.353353 0.822766
0.112612 0.332036 0.715343
0.182086 0.358816 0.739727
0.265446 0.383551 0.761975
0.373541 0.401633 0.778149
0.490166 0.416754 0.791562
0.598032 0.433326 0.806088
0.690471 0.453071 0.823651
0.768521 0.475257 0.843336
0.841596 0.49778 0.863874
0.155047 0.486412 0.761593
0.226291 0.513466 0.78677
0.311727 0.535836 0.808026
0.421576 0.550164 0.821897
0.533852 0.562066 0.8336
0.637613 0.575784 0.847074
0.727932 0.592111 0.863325
0.804379 0.610971 0.882017
0.875578 0.629694 0.900435
0.203555 0.632029 0.813519
0.274693 0.655131 0.836713
0.361547 0.673106 0.854841
0.46981 0.684123 0.866102
0.57615 0.69427 0.876463
0.675685 0.704585 0.887037
0.761715 0.71664 0.899351
0.833677 0.730892 0.913771
0.900374 0.744701 0.928023
0.257267 0.76199 0.870268
0.328786 0.781033 0.889693
0.415274 0.794537 0.903548
0.517632 0.801419 0.910979
0.61619 0.807736 0.917571
0.710201 0.813413 0.9234
0.791379 0.820844 0.931136
0.858991 0.83035 0.941176
0.92134 0.839857 0.951064
0.311864 0.87425 0.926345
0.38294 0.887266 0.939879
0.464775 0.895476 0.948501
0.559136 0.898741 0.952056
0.652216 0.901015 0.954574
0.741512 0.902724 0.956481
0.818952 0.906676 0.960662
0.883665 0.913634 0.967803
0.944076 0.920974 0.975494
0.356924 0.968017 0.969146
0.42501 0.976608 0.978134
0.501884 0.981338 0.983169
0.590417 0.981979 0.983764
0.680232 0.981888 0.983917
0.76759 0.981765 0.984039
0.843778 0.984863 0.987366
0.908019 0.991333 0.99411
0.968566 0.998856 1
0.0235752 0.0319371 0.673625
0.0803082 0.040528 0.682246
0.146181 0.0468147 0.689006
0.230137 0.0494698 0.691752
0.325032 0.0503395 0.693309
0.427344 0.0513466 0.694667
0.518196 0.057847 0.702007
0.59321 0.071107 0.715694
0.665827 0.088365 0.733898
0.0501259 0.112184 0.701808
0.108812 0.123644 0.713771
0.17908 0.134173 0.725216
0.27013 0.141482 0.733135
0.375463 0.147662 0.739986
0.485573 0.155703 0.748562
0.580835 0.171099 0.764645
0.663371 0.193118 0.787488
0.742321 0.218402 0.812833
0.0831922 0.209628 0.737591
0.147829 0.228275 0.756634
0.225605 0.246387 0.774792
0.328023 0.261112 0.789517
0.444633 0.274891 0.802899
0.557748 0.291249 0.818631
0.653834 0.312642 0.838865
0.735622 0.33724 0.861891
0.81149 0.362554 0.884672
0.119966 0.340978 0.777737
0.189975 0.368429 0.802319
0.274128 0.393332 0.824598
0.382986 0.411368 0.84062
0.499092 0.4262 0.853681
0.606226 0.442695 0.868086
0.698131 0.462013 0.885206
0.775647 0.483574 0.904326
0.848585 0.505867 0.92462
0.163195 0.496025 0.82443
0.234516 0.522576 0.849195
0.320333 0.544411 0.869963
0.430259 0.558175 0.883375
0.542031 0.57023 0.895232
0.645304 0.583764 0.908553
0.735241 0.599802 0.924498
0.811292 0.61825 0.942809
0.882033 0.6365 0.960754
0.211353 0.640421 0.875669
0.282521 0.662989 0.898253
0.369726 0.680522 0.915923
0.477653 0.691188 0.926833
0.583078 0.70103 0.936858
0.682124 0.711131 0.947295
0.767498 0.722698 0.958999
0.839017 0.7364 0.973159
0.905257 0.749538 0.986633
0.264363 0.769345 0.93135
0.336065 0.787762 0.95021
0.422034 0.800443 0.963211
0.523583 0.807202 0.970352
0.621485 0.812879 0.976379
0.714946 0.818006 0.981872
0.795483 0.825055 0.989227
0.86273 0.834394 0.998917
0.924849 0.843503 1
0.317754 0.879789 0.985656
0.388449 0.892088 0.998489
0.469673 0.900038 1
0.563378 0.902876 1
0.655818 0.90486 1
0.745129 0.906188 1
0.822156 0.909972 1
0.886763 0.916747 1
0.947051 0.924025 1
0.361105 0.972015 1
0.429084 0.980179 1
0.505531 0.98468 1
0.593637 0.985168 1
0.683391 0.984955 1
0.770626 0.985092 1
0.846555 0.987991 1
0.911055 0.994492 1
0.971496 1 1
