Grain/Grain/Resources/Luts/Cinema/CINECOLOR_BLADE_RUNNER_2049.cube
LUT_3D_SIZE 5
0 0.0455634 0.038056
0.172854 0.030457 0.0267948
0.444877 0 0.00775158
0.678035 0 0
0.888029 0 0
4.57771e-05 0.187488 0.0800641
0.252659 0.172305 0.0634775
0.580148 0.146319 0.0457771
0.838499 0.151019 0.0495766
1 0.173922 0.0643168
0.0140993 0.419898 0.13106
0.318761 0.420203 0.124834
0.664012 0.40647 0.115969
0.924849 0.415244 0.122316
1 0.432044 0.133288
0.175006 0.66038 0.202274
0.441154 0.65742 0.196902
0.754482 0.631281 0.180972
0.984436 0.62153 0.177066
1 0.621149 0.179889
0.289815 0.839872 0.258854
0.517098 0.825971 0.25037
0.808988 0.79147 0.232975
1 0.777371 0.230732
1 0.775402 0.236103
0 0.0541238 0.0777447
0.185397 0.0381933 0.0680552
0.462684 0.00277714 0.0489662
0.700114 0 0.0396887
0.911711 0 0.0394598
0.0122377 0.198108 0.128038
0.270451 0.18468 0.114656
0.600809 0.161624 0.0995193
0.861341 0.168963 0.105348
1 0.192523 0.121386
0.0468452 0.435828 0.184024
0.344564 0.437629 0.180606
0.68751 0.424323 0.172122
0.94551 0.432181 0.178195
1 0.446433 0.18819
0.2 0.674907 0.257633
0.458869 0.670253 0.25182
0.768368 0.642786 0.234623
0.995804 0.631937 0.229969
1 0.631113 0.232456
0.303243 0.849088 0.312749
0.529198 0.834714 0.304067
0.819745 0.800412 0.28603
1 0.786618 0.283253
1 0.784939 0.288106
0 0.0624399 0.149416
0.191485 0.0446021 0.14255
0.474861 0.00817884 0.125994
0.716426 0 0.120745
0.930404 0 0.125124
0.0174105 0.208347 0.215885
0.28246 0.196201 0.205936
0.616892 0.176089 0.192676
0.879499 0.185382 0.199969
1 0.208835 0.216632
0.0697337 0.451148 0.278614
0.362966 0.453101 0.275975
0.70489 0.439994 0.267094
0.960143 0.446372 0.272297
1 0.458137 0.281025
0.213764 0.687724 0.353201
0.469047 0.680964 0.345937
0.775692 0.651698 0.326513
1 0.640146 0.320729
1 0.638788 0.322423
0.307897 0.856977 0.406348
0.534997 0.84181 0.396429
0.825193 0.807553 0.376471
1 0.793774 0.371908
1 0.792416 0.375555
0 0.0702068 0.214923
0.199741 0.0510567 0.211337
0.489128 0.0141146 0.197528
0.734676 0 0.195926
0.950729 0 0.204135
0.0292058 0.218708 0.294652
0.298894 0.20911 0.287953
0.636515 0.191913 0.276432
0.899657 0.202396 0.284703
1 0.225208 0.301259
0.0945754 0.466758 0.362081
0.384024 0.46891 0.360082
0.723644 0.455665 0.351095
0.975204 0.46006 0.355093
1 0.469413 0.362387
0.229465 0.699748 0.435447
0.480476 0.691218 0.427176
0.784772 0.660838 0.406729
1 0.648539 0.400122
1 0.647028 0.401312
0.315984 0.864805 0.486198
0.543221 0.849073 0.475517
0.83241 0.814954 0.454627
1 0.80145 0.449088
1 0.800702 0.45214
0 0.0780652 0.272587
0.210834 0.0580606 0.271931
0.505714 0.0209812 0.260365
0.755062 0.00502022 0.261997
0.970748 0.00946059 0.27303
0.0454871 0.230091 0.362295
0.319036 0.223224 0.35729
0.658686 0.208682 0.347616
0.921538 0.219959 0.356542
1 0.242359 0.372961
0.121294 0.482551 0.432151
0.407462 0.485161 0.430838
0.743572 0.471443 0.421607
0.990738 0.473426 0.424109
1 0.48072 0.430091
0.247242 0.711315 0.503365
0.493797 0.701579 0.494514
0.795316 0.670222 0.473243
1 0.657511 0.466072
1 0.655756 0.466712
0.327779 0.872786 0.551766
0.55407 0.85684 0.540688
0.841688 0.822995 0.519249
1 0.81004 0.513207
1 0.808881 0.515175
