Grain/Grain/Resources/Luts/Cinema/CINECOLOR_SIN_CITY.cube
TITLE "Generated by Resolve"
LUT_3D_SIZE 5
0 0 0
0.164492 0 0
0.442985 0 0
0.721492 0 0
1 0 0
0 0.164492 0
0.164492 0.164492 0
0.442985 0.164492 0
0.721492 0.164492 0
1 0.164492 0
0 0.442985 0
0.164492 0.442985 0
0.442985 0.442985 0
0.721492 0.442985 0
1 0.442985 0
0 0.721492 0
0.164492 0.721492 0
0.442985 0.721492 0
0.721492 0.721492 0
1 0.721492 0
0 1 0
0.164492 1 0
0.442985 1 0
0.721492 1 0
1 1 0
0 0 0.164492
0.164492 0 0.164492
0.442985 0 0.164492
0.721492 0 0.164492
1 0 0.164492
0 0.164492 0.164492
0.164492 0.164492 0.164492
0.442985 0.164492 0.164492
0.721492 0.164492 0.164492
1 0.164492 0.164492
0 0.442985 0.164492
0.164492 0.442985 0.164492
0.442985 0.442985 0.164492
0.721492 0.442985 0.164492
1 0.442985 0.164492
0 0.721492 0.164492
0.164492 0.721492 0.164492
0.442985 0.721492 0.164492
0.721492 0.721492 0.164492
1 0.721492 0.164492
0 1 0.164492
0.164492 1 0.164492
0.442985 1 0.164492
0.721492 1 0.164492
1 1 0.164492
0 0 0.442985
0.164492 0 0.442985
0.442985 0 0.442985
0.721492 0 0.442985
1 0 0.442985
0 0.164492 0.442985
0.164492 0.164492 0.442985
0.442985 0.164492 0.442985
0.721492 0.164492 0.442985
1 0.164492 0.442985
0 0.442985 0.442985
0.164492 0.442985 0.442985
0.442985 0.442985 0.442985
0.721492 0.442985 0.442985
1 0.442985 0.442985
0 0.721492 0.442985
0.164492 0.721492 0.442985
0.442985 0.721492 0.442985
0.721492 0.721492 0.442985
1 0.721492 0.442985
0 1 0.442985
0.164492 1 0.442985
0.442985 1 0.442985
0.721492 1 0.442985
1 1 0.442985
0 0 0.721492
0.164492 0 0.721492
0.442985 0 0.721492
0.721492 0 0.721492
1 0 0.721492
0 0.164492 0.721492
0.164492 0.164492 0.721492
0.442985 0.164492 0.721492
0.721492 0.164492 0.721492
1 0.164492 0.721492
0 0.442985 0.721492
0.164492 0.442985 0.721492
0.442985 0.442985 0.721492
0.721492 0.442985 0.721492
1 0.442985 0.721492
0 0.721492 0.721492
0.164492 0.721492 0.721492
0.442985 0.721492 0.721492
0.721492 0.721492 0.721492
1 0.721492 0.721492
0 1 0.721492
0.164492 1 0.721492
0.442985 1 0.721492
0.721492 1 0.721492
1 1 0.721492
0 0 1
0.164492 0 1
0.442985 0 1
0.721492 0 1
1 0 1
0 0.164492 1
0.164492 0.164492 1
0.442985 0.164492 1
0.721492 0.164492 1
1 0.164492 1
0 0.442985 1
0.164492 0.442985 1
0.442985 0.442985 1
0.721492 0.442985 1
1 0.442985 1
0 0.721492 1
0.164492 0.721492 1
0.442985 0.721492 1
0.721492 0.721492 1
1 0.721492 1
0 1 1
0.164492 1 1
0.442985 1 1
0.721492 1 1
1 1 1
