Grain/Grain/Resources/Luts/Cinema/CINECOLOR_BLADE_RUNNER_2049.cube
LUT_3D_SIZE 9
0 0.0455634 0.038056
0.071107 0.0379034 0.0317235
0.172854 0.030457 0.0267948
0.304112 0.0146487 0.0175326
0.444877 0 0.00775158
0.570993 0 0.000381476
0.678035 0 0
0.782025 0 0
0.888029 0 0
0 0.110414 0.0609445
0.105577 0.101091 0.0520485
0.216388 0.0922713 0.044892
0.361151 0.0751965 0.0336004
0.51577 0.0573434 0.0225834
0.652583 0.0466621 0.0164492
0.767071 0.0450141 0.0153506
0.875639 0.0476692 0.0168002
0.979904 0.0545815 0.0213931
4.57771e-05 0.187488 0.0800641
0.126497 0.178698 0.0700999
0.252659 0.172305 0.0634775
0.413672 0.158801 0.0534829
0.580148 0.146319 0.0457771
0.722042 0.143755 0.0448005
0.838499 0.151019 0.0495766
0.948409 0.16173 0.0564431
1 0.173922 0.0643168
0 0.293385 0.10042
0.135088 0.287739 0.0924849
0.278248 0.286061 0.0895857
0.450843 0.278462 0.0842908
0.624735 0.271992 0.0808118
0.771481 0.273686 0.0823529
0.889357 0.282643 0.0880903
0.998428 0.293477 0.0948959
1 0.304906 0.10222
0.0140993 0.419898 0.13106
0.170565 0.418769 0.125963
0.318761 0.420203 0.124834
0.492027 0.413565 0.120073
0.664012 0.40647 0.115969
0.808698 0.407233 0.117174
0.924849 0.415244 0.122316
1 0.424247 0.128069
1 0.432044 0.133288
0.0846418 0.545892 0.165301
0.231754 0.546471 0.162356
0.37499 0.547646 0.161395
0.544045 0.540108 0.156222
0.711223 0.531411 0.151232
0.848661 0.528191 0.149981
0.956588 0.530632 0.15198
1 0.5337 0.154589
1 0.535897 0.15671
0.175006 0.66038 0.202274
0.309483 0.659831 0.199573
0.441154 0.65742 0.196902
0.59855 0.645228 0.189044
0.754482 0.631281 0.180972
0.883299 0.623331 0.177127
0.984436 0.62153 0.177066
1 0.621378 0.178195
1 0.621149 0.179889
0.248356 0.756817 0.233188
0.363867 0.753689 0.229801
0.485817 0.747021 0.22501
0.635538 0.731456 0.215595
0.785199 0.7149 0.206577
0.909041 0.704799 0.202228
1 0.701442 0.202243
1 0.700206 0.203937
1 0.699596 0.206439
0.289815 0.839872 0.258854
0.398657 0.83444 0.255131
0.517098 0.825971 0.25037
0.662989 0.808942 0.241276
0.808988 0.79147 0.232975
0.930053 0.781048 0.229755
1 0.777371 0.230732
1 0.776181 0.233295
1 0.775402 0.236103
0 0.0496071 0.0551614
0.0771191 0.0421454 0.0493935
0.179644 0.0344396 0.0447242
0.311925 0.0182193 0.0351568
0.454292 0 0.0250706
0.581491 0 0.0180056
0.689296 0 0.0149233
0.793957 0 0.01355
0.90013 0 0.0130159
0 0.114839 0.0797894
0.111223 0.105455 0.0714122
0.223331 0.0966506 0.0647135
0.369818 0.0797742 0.0535439
0.525628 0.0621958 0.0426184
0.663523 0.0521859 0.036759
0.778729 0.0512856 0.0364385
0.886061 0.0552987 0.0392462
0.990829 0.0630808 0.0446479
0.00657664 0.192828 0.100786
0.13434 0.184436 0.0916304
0.261921 0.1785 0.0857404
0.423987 0.165362 0.0762341
0.59089 0.15404 0.0692149
0.73315 0.152178 0.0686503
0.850111 0.159976 0.073991
0.960601 0.171252 0.0814679
1 0.183536 0.089662
0 0.300496 0.12285
0.147723 0.295399 0.115953
0.291127 0.29453 0.113848
0.463951 0.287526 0.10898
0.637263 0.281224 0.105394
0.783444 0.282994 0.107088
0.901015 0.291905 0.113008
1 0.302739 0.120073
1 0.313954 0.127474
0.030045 0.428092 0.154131
0.185626 0.427634 0.150149
0.332235 0.429038 0.149416
0.504494 0.422278 0.144686
0.67631 0.415595 0.140841
0.820325 0.416358 0.141909
0.935576 0.423865 0.146975
1 0.432502 0.152712
1 0.439612 0.157656
0.0999619 0.554177 0.189181
0.24535 0.554849 0.186816
0.387564 0.555993 0.18613
0.555871 0.54844 0.180972
0.721294 0.539101 0.175586
0.857374 0.535271 0.173983
0.964431 0.537179 0.175738
1 0.539788 0.177951
1 0.541787 0.180041
0.188342 0.667781 0.226642
0.320684 0.667094 0.224155
0.450904 0.664149 0.221271
0.607111 0.651545 0.213077
0.76199 0.637247 0.2047
0.889769 0.628824 0.200519
0.990585 0.626932 0.200443
1 0.626612 0.201541
1 0.626337 0.203037
0.25745 0.762463 0.257099
0.371939 0.759243 0.253803
0.493202 0.752285 0.24892
0.642283 0.736538 0.239292
0.791302 0.719875 0.23006
0.914733 0.709743 0.22562
1 0.706355 0.225635
1 0.705043 0.227283
1 0.704463 0.229801
0.297383 0.844663 0.282628
0.405829 0.839185 0.278981
0.523659 0.830472 0.274113
0.669306 0.813519 0.264942
0.814786 0.796078 0.256474
0.935393 0.785672 0.253086
1 0.782071 0.254002
1 0.780896 0.256428
1 0.780438 0.259297
0 0.0541238 0.0777447
0.0819409 0.0461891 0.0722972
0.185397 0.0381933 0.0680552
0.318837 0.0215763 0.058732
0.462684 0.00277714 0.0489662
0.591089 0 0.0421149
0.700114 0 0.0396887
0.804807 0 0.0390021
0.911711 0 0.0394598
0.00297551 0.119173 0.104494
0.115816 0.109728 0.0967575
0.229343 0.100923 0.0906996
0.377493 0.0841993 0.0800488
0.534798 0.0670176 0.0697032
0.673609 0.0576181 0.0645457
0.789181 0.0573129 0.0649729
0.895582 0.0628519 0.0690623
1 0.0713817 0.0751049
0.0122377 0.198108 0.128038
0.141299 0.190143 0.119768
0.270451 0.18468 0.114656
0.433783 0.172183 0.105898
0.600809 0.161624 0.0995193
0.743816 0.160616 0.0995193
0.861341 0.168963 0.105348
0.971878 0.180423 0.113115
1 0.192523 0.121386
0.00950637 0.307378 0.152392
0.159365 0.303075 0.146288
0.303075 0.302876 0.144762
0.475792 0.296193 0.140124
0.649149 0.290364 0.136812
0.794705 0.292119 0.138582
0.911498 0.300587 0.144366
1 0.311543 0.151659
1 0.322805 0.159243
0.0468452 0.435828 0.184024
0.198764 0.436072 0.181079
0.344564 0.437629 0.180606
0.516289 0.43093 0.175937
0.68751 0.424323 0.172122
0.830594 0.424826 0.173098
0.94551 0.432181 0.178195
1 0.440177 0.183658
1 0.446433 0.18819
0.113298 0.562142 0.219928
0.257984 0.56318 0.218051
0.399268 0.564218 0.217441
0.566125 0.556176 0.211978
0.730312 0.54641 0.206256
0.865248 0.542046 0.204303
0.971481 0.54342 0.205768
1 0.545586 0.207782
1 0.547021 0.209598
0.2 0.674907 0.257633
0.330068 0.673838 0.255055
0.458869 0.670253 0.25182
0.614221 0.657328 0.24329
0.768368 0.642786 0.234623
0.895491 0.634073 0.230198
0.995804 0.631937 0.229969
1 0.631434 0.230991
1 0.631113 0.232456
0.265064 0.767956 0.287572
0.378332 0.764279 0.284062
0.499382 0.757214 0.279088
0.64799 0.741314 0.269215
0.79649 0.724529 0.259724
0.919448 0.714275 0.255085
1 0.710933 0.255085
1 0.709575 0.256672
1 0.70898 0.259068
0.303243 0.849088 0.312749
0.411597 0.843534 0.309087
0.529198 0.834714 0.304067
0.674525 0.817731 0.294682
0.819745 0.800412 0.28603
0.93991 0.78999 0.282383
1 0.786618 0.283253
1 0.785321 0.285389
1 0.784939 0.288106
0 0.0584878 0.110933
0.0843366 0.0499275 0.105974
0.188876 0.0415198 0.102419
0.323964 0.0245975 0.0936904
0.469184 0.00555428 0.0845045
0.598749 0 0.0785077
0.708675 0 0.0771344
0.814145 0 0.0776074
0.921401 0 0.079118
0.00396735 0.123507 0.141375
0.118044 0.113725 0.134386
0.233265 0.104906 0.129168
0.383169 0.088304 0.119219
0.542123 0.0715343 0.109621
0.681956 0.0627298 0.105318
0.797757 0.0632944 0.106783
0.903304 0.0698558 0.111727
1 0.0790723 0.118395
0.0151827 0.203265 0.168627
0.145953 0.195636 0.161303
0.276921 0.19057 0.157015
0.441352 0.17879 0.14902
0.609293 0.169024 0.143023
0.752941 0.168673 0.14345
0.870588 0.177203 0.149523
0.981308 0.188876 0.15761
1 0.201022 0.166079
0.0178378 0.313848 0.195514
0.168139 0.310353 0.190112
0.312657 0.310735 0.189044
0.485893 0.304555 0.184649
0.658854 0.298772 0.181262
0.803693 0.300252 0.182879
0.920562 0.308843 0.188846
1 0.319783 0.196292
1 0.330632 0.203784
0.0588693 0.443458 0.22797
0.20943 0.444282 0.225681
0.354406 0.445609 0.225193
0.525628 0.438834 0.220386
0.696513 0.432288 0.21648
0.839292 0.432761 0.217411
0.953262 0.439506 0.222217
1 0.446799 0.227375
1 0.452583 0.231678
0.124025 0.569924 0.264576
0.267659 0.570916 0.262852
0.407996 0.571572 0.262074
0.57409 0.563226 0.256275
0.737041 0.55285 0.249958
0.870985 0.54789 0.247501
0.976547 0.548806 0.248692
1 0.550546 0.250477
1 0.551675 0.252079
0.207492 0.681422 0.302296
0.336385 0.679789 0.299397
0.46453 0.675822 0.295857
0.619013 0.662379 0.286778
0.772473 0.64744 0.277546
0.89929 0.638575 0.272816
0.999237 0.63624 0.272389
1 0.635584 0.273243
1 0.635111 0.274525
0.269261 0.773007 0.331807
0.38233 0.768841 0.327947
0.503059 0.761471 0.322652
0.651453 0.745403 0.312352
0.799771 0.728542 0.302419
0.922377 0.718166 0.297414
1 0.714778 0.297215
1 0.713603 0.298726
1 0.71284 0.300755
0.305943 0.853056 0.356527
0.414847 0.847318 0.352605
0.53254 0.838422 0.347341
0.677653 0.821347 0.337469
0.823011 0.804257 0.328466
0.942702 0.793683 0.324239
1 0.790372 0.324788
1 0.78912 0.326619
1 0.78883 0.329076
0 0.0624399 0.149416
0.0857404 0.0534524 0.145296
0.191485 0.0446021 0.14255
0.328389 0.027451 0.134615
0.474861 0.00817884 0.125994
0.605768 0 0.120974
0.716426 0 0.120745
0.822416 0 0.122377
0.930404 0 0.125124
0.00357061 0.127535 0.18436
0.119387 0.117601 0.178347
0.236469 0.108751 0.174044
0.388251 0.0923476 0.164874
0.548745 0.0759747 0.155993
0.689693 0.0677958 0.152544
0.804685 0.0696117 0.155077
0.910887 0.076997 0.160693
1 0.0868391 0.167926
0.0174105 0.208347 0.215885
0.14995 0.201053 0.209522
0.28246 0.196201 0.205936
0.448051 0.185183 0.198413
0.616892 0.176089 0.192676
0.761166 0.176333 0.193423
0.879499 0.185382 0.199969
0.990204 0.197131 0.208286
1 0.208835 0.216632
0.026276 0.320378 0.245197
0.176654 0.317754 0.240528
0.321828 0.318593 0.239811
0.494881 0.312459 0.23534
0.667704 0.306798 0.231891
0.812085 0.308156 0.233371
0.928679 0.316594 0.239353
1 0.327428 0.246891
1 0.338262 0.254505
0.0697337 0.451148 0.278614
0.218494 0.451957 0.276524
0.362966 0.453101 0.275975
0.534432 0.446616 0.271199
0.70489 0.439994 0.267094
0.846738 0.440009 0.267674
0.960143 0.446372 0.272297
1 0.452964 0.277073
1 0.458137 0.281025
0.133074 0.577234 0.31548
0.276005 0.578225 0.313863
0.415915 0.578668 0.312978
0.58053 0.569543 0.306523
0.742428 0.558572 0.29958
0.875608 0.553124 0.296635
0.980423 0.553521 0.297444
1 0.555047 0.299062
1 0.555901 0.30045
0.213764 0.687724 0.353201
0.34168 0.68545 0.349889
0.469047 0.680964 0.345937
0.622858 0.667063 0.336324
0.775692 0.651698 0.326513
0.90219 0.642634 0.321386
1 0.640146 0.320729
1 0.639399 0.321386
1 0.638788 0.322423
0.271946 0.777752 0.382071
0.38529 0.773053 0.377798
0.505791 0.765393 0.372198
0.653819 0.74902 0.361364
0.802167 0.732158 0.351019
0.92462 0.721752 0.345632
1 0.718273 0.345098
1 0.71722 0.346426
1 0.716381 0.348058
0.307897 0.856977 0.406348
0.417121 0.850782 0.401968
0.534997 0.84181 0.396429
0.680018 0.824674 0.386069
0.825193 0.807553 0.376471
0.944808 0.79707 0.371771
1 0.793774 0.371908
1 0.792844 0.373587
1 0.792416 0.375555
0 0.0663005 0.185214
0.0881819 0.057084 0.182101
0.194873 0.047715 0.180072
0.333364 0.0303044 0.1729
0.481361 0.010956 0.164965
0.613718 0 0.160906
0.724834 0 0.161608
0.831617 0 0.16437
0.940124 0 0.168154
0.00454719 0.131563 0.224231
0.121874 0.121584 0.219165
0.240803 0.112825 0.215793
0.394369 0.0966812 0.207401
0.556313 0.080766 0.199222
0.697856 0.0730602 0.19646
0.81236 0.0763409 0.199847
0.919173 0.0843671 0.205966
1 0.0946975 0.213657
0.0216678 0.213489 0.259342
0.155489 0.206714 0.253986
0.289677 0.20238 0.251133
0.456275 0.192096 0.243961
0.62591 0.183734 0.238605
0.770596 0.184482 0.239704
0.888823 0.193576 0.246357
0.999359 0.205295 0.254765
1 0.216922 0.263172
0.0376287 0.326818 0.290242
0.186282 0.3252 0.286534
0.331746 0.326436 0.286168
0.505074 0.320714 0.281926
0.677165 0.3149 0.278325
0.820813 0.315984 0.279622
0.937667 0.324681 0.285847
1 0.335424 0.293416
1 0.345739 0.300771
0.0810712 0.458747 0.324651
0.228855 0.459785 0.322896
0.372869 0.460929 0.322423
0.543709 0.454322 0.317556
0.713527 0.447562 0.313283
0.854932 0.447471 0.313771
0.967208 0.453086 0.317952
1 0.45893 0.322301
1 0.463539 0.325917
0.143648 0.584787 0.361776
0.285359 0.58558 0.360159
0.424216 0.585595 0.35906
0.587854 0.576043 0.35227
0.748577 0.564477 0.344839
0.880888 0.558526 0.341482
0.985 0.558465 0.341985
1 0.559442 0.343236
1 0.560204 0.344518
0.220569 0.69369 0.39881
0.347356 0.690867 0.395209
0.473945 0.685924 0.390967
0.627375 0.671778 0.381125
0.77966 0.656107 0.370962
0.905699 0.646815 0.365545
1 0.644129 0.36466
1 0.643336 0.365179
1 0.64271 0.366049
0.275395 0.7823 0.426963
0.389181 0.777325 0.422507
0.509468 0.769436 0.416709
0.657343 0.752956 0.405676
0.805188 0.735866 0.394965
0.92752 0.725505 0.389364
1 0.721996 0.388602
1 0.720913 0.38967
1 0.720134 0.391073
0.310887 0.860838 0.450767
0.420615 0.854414 0.446159
0.538323 0.845289 0.440391
0.683284 0.828183 0.429801
0.828153 0.811048 0.419837
0.947738 0.800732 0.414878
1 0.797406 0.414649
1 0.796551 0.416068
1 0.796231 0.417823
0 0.0702068 0.214923
0.0918898 0.0606699 0.212589
0.199741 0.0510567 0.211337
0.339956 0.0333562 0.20499
0.489128 0.0141146 0.197528
0.62269 0.00103761 0.194308
0.734676 0 0.195926
0.841993 0 0.199557
0.950729 0 0.204135
0.00772107 0.135729 0.257099
0.12636 0.125841 0.252888
0.246937 0.117311 0.250309
0.402167 0.101503 0.242618
0.565423 0.0861219 0.235126
0.707393 0.0793011 0.233051
0.821286 0.0835584 0.236835
0.929 0.0923629 0.243549
1 0.103288 0.251713
0.0292058 0.218708 0.294652
0.163149 0.212696 0.290364
0.298894 0.20911 0.287953
0.466361 0.199588 0.281315
0.636515 0.191913 0.276432
0.781064 0.19292 0.277745
0.899657 0.202396 0.284703
1 0.214008 0.293095
1 0.225208 0.301259
0.0501106 0.333684 0.326787
0.198291 0.333181 0.324056
0.343725 0.334874 0.324071
0.516304 0.329091 0.31986
0.687785 0.323308 0.316304
0.831083 0.324468 0.317678
0.947784 0.333165 0.323949
1 0.343511 0.331304
1 0.353689 0.338628
0.0945754 0.466758 0.362081
0.240757 0.467735 0.360449
0.384024 0.46891 0.360082
0.55462 0.462516 0.355398
0.723644 0.455665 0.351095
0.863844 0.455024 0.351247
0.975204 0.46006 0.355093
1 0.465339 0.359091
1 0.469413 0.362387
0.155566 0.59234 0.399115
0.2963 0.593118 0.397604
0.433921 0.592737 0.396323
0.596139 0.582605 0.389151
0.755459 0.570413 0.381308
0.887007 0.564095 0.377707
0.990524 0.563699 0.377997
1 0.56437 0.379049
1 0.564889 0.380148
0.229465 0.699748 0.435447
0.354788 0.69659 0.431678
0.480476 0.691218 0.427176
0.632853 0.67657 0.416968
0.784772 0.660838 0.406729
0.910338 0.651377 0.40116
1 0.648539 0.400122
1 0.647608 0.400473
1 0.647028 0.401312
0.281361 0.786999 0.462882
0.394614 0.781765 0.458244
0.514488 0.773663 0.452277
0.662135 0.757153 0.441123
0.809537 0.739986 0.430259
0.931502 0.72958 0.424536
1 0.726177 0.423713
1 0.725017 0.424536
1 0.724498 0.425925
0.315984 0.864805 0.486198
0.425788 0.85832 0.481483
0.543221 0.849073 0.475517
0.688182 0.832166 0.464881
0.83241 0.814954 0.454627
0.951843 0.804791 0.449561
1 0.80145 0.449088
1 0.800687 0.450355
1 0.800702 0.45214
0 0.0740826 0.24329
0.0960708 0.0643015 0.241672
0.205447 0.0546273 0.241306
0.346822 0.0366522 0.235431
0.497353 0.0174716 0.22855
0.631983 0.00468452 0.226154
0.744839 0.000457771 0.228641
0.852796 0.000289921 0.233097
0.961364 0.00262455 0.238392
0.0117647 0.139956 0.28835
0.131624 0.130251 0.284901
0.253819 0.122011 0.283009
0.41062 0.106615 0.275944
0.575143 0.0918135 0.269108
0.716579 0.0862287 0.267475
0.831144 0.0913252 0.271794
0.939544 0.100771 0.278996
1 0.111894 0.287343
0.0372015 0.224292 0.328176
0.171725 0.218891 0.324666
0.308568 0.215946 0.322362
0.476814 0.207172 0.316213
0.647349 0.200122 0.311772
0.792294 0.20177 0.313527
0.910704 0.211246 0.320531
1 0.222522 0.32874
1 0.233845 0.337026
0.0634928 0.3411 0.361318
0.211093 0.34139 0.359274
0.355871 0.343221 0.359472
0.528237 0.337743 0.355459
0.698711 0.331792 0.351797
0.841413 0.332891 0.353155
0.9579 0.341543 0.359426
1 0.351888 0.366827
1 0.36144 0.373785
0.107897 0.474601 0.397009
0.252918 0.47567 0.395544
0.395987 0.477165 0.395453
0.56582 0.470726 0.390753
0.733593 0.463539 0.386236
0.872938 0.462577 0.386191
0.983246 0.466941 0.389609
1 0.471641 0.393256
1 0.475227 0.396231
0.167971 0.600092 0.434165
0.307591 0.600656 0.432593
0.443397 0.599588 0.430915
0.604227 0.588922 0.423392
0.762631 0.57641 0.415274
0.893187 0.569604 0.411322
0.996063 0.568841 0.411368
1 0.569329 0.412284
1 0.569696 0.413245
0.238743 0.705699 0.46949
0.362448 0.702251 0.465599
0.487251 0.696468 0.460853
0.638834 0.681498 0.450385
0.790082 0.665568 0.439933
0.91519 0.65597 0.434195
1 0.653071 0.433036
1 0.652003 0.433234
1 0.651408 0.433951
0.287922 0.791653 0.496193
0.400473 0.786236 0.491463
0.519738 0.777829 0.485252
0.667216 0.761349 0.474037
0.814282 0.744228 0.463081
0.93579 0.733776 0.45716
1 0.730571 0.456336
1 0.729259 0.45687
1 0.728786 0.458076
0.321675 0.868742 0.51899
0.431434 0.862242 0.514214
0.548623 0.852964 0.508141
0.693263 0.836103 0.497353
0.837049 0.818982 0.486931
0.956161 0.808881 0.481651
1 0.805768 0.481132
1 0.804974 0.482155
1 0.805173 0.483894
0 0.0780652 0.272587
0.100221 0.0679026 0.27155
0.210834 0.0580606 0.271931
0.35375 0.0399939 0.266682
0.505714 0.0209812 0.260365
0.641489 0.00862135 0.258732
0.755062 0.00502022 0.261997
0.863661 0.00560006 0.267247
0.970748 0.00946059 0.27303
0.0162661 0.144167 0.320226
0.137194 0.134798 0.317647
0.260975 0.126879 0.316426
0.419303 0.111925 0.309957
0.584634 0.0975662 0.303563
0.725704 0.0932784 0.302205
0.840635 0.0991379 0.307057
0.949935 0.109087 0.314626
1 0.12076 0.3234
0.0454871 0.230091 0.362295
0.181094 0.225406 0.35935
0.319036 0.223224 0.35729
0.487938 0.215152 0.351644
0.658686 0.208682 0.347616
0.80322 0.210422 0.349477
0.921538 0.219959 0.356542
1 0.231113 0.364691
1 0.242359 0.372961
0.0764935 0.348562 0.396078
0.22359 0.349477 0.394614
0.368368 0.351781 0.395193
0.539651 0.34609 0.391104
0.709285 0.340078 0.387411
0.852018 0.341512 0.389013
0.968185 0.350042 0.395254
1 0.359884 0.40235
1 0.36907 0.40911
0.121294 0.482551 0.432151
0.265339 0.483757 0.430915
0.407462 0.485161 0.430838
0.576577 0.478691 0.426154
0.743572 0.471443 0.421607
0.881422 0.469718 0.421088
0.990738 0.473426 0.424109
1 0.477577 0.427405
1 0.48072 0.430091
0.180179 0.607523 0.469093
0.318242 0.607874 0.467506
0.452857 0.606424 0.465629
0.612329 0.595224 0.457771
0.769604 0.582284 0.449363
0.89929 0.575036 0.445121
1 0.573846 0.444862
1 0.574166 0.44564
1 0.574395 0.446464
0.247242 0.711315 0.503365
0.369512 0.707576 0.499367
0.493797 0.701579 0.494514
0.644709 0.686351 0.483864
0.795316 0.670222 0.473243
0.919829 0.660426 0.467292
1 0.657511 0.466072
1 0.656428 0.466163
1 0.655756 0.466712
0.294301 0.796216 0.529427
0.406332 0.790661 0.524636
0.525399 0.782193 0.518364
0.672236 0.765499 0.506966
0.818982 0.748425 0.495933
0.940124 0.737972 0.489891
1 0.734752 0.488884
1 0.733501 0.489296
1 0.733043 0.490303
0.327779 0.872786 0.551766
0.436973 0.866087 0.546838
0.55407 0.85684 0.540688
0.698238 0.839994 0.529763
0.841688 0.822995 0.519249
0.960494 0.81297 0.513802
1 0.81004 0.513207
1 0.809277 0.514061
1 0.808881 0.515175
