Grain/Grain/Resources/Luts/Cinema/CINECOLOR_SAVING_PRIVATE_RYAN.cube
TITLE "Generated by Resolve"
LUT_3D_SIZE 5
0 0 0
4.57771e-05 0 0
0.114809 0.0104372 0.0109102
0.253483 0.030457 0.0302129
0.413397 0.0479438 0.0468147
0 0.157733 0.029099
0.0958572 0.169055 0.0256809
0.295048 0.17969 0.0646982
0.454154 0.207477 0.114397
0.612329 0.243824 0.150561
0 0.4094 0.0236057
0.13518 0.429084 0.033814
0.398917 0.441688 0.0725109
0.637232 0.461738 0.144564
0.786847 0.508812 0.249393
0 0.704845 0.0560616
0.216754 0.729183 0.0942855
0.490211 0.744793 0.151843
0.737911 0.759289 0.259434
0.896681 0.792462 0.396094
0.212253 0.950607 0.239429
0.467216 0.957382 0.339055
0.692882 0.968017 0.452079
0.870604 0.990188 0.580911
1 1 0.707378
0 0 0.0482185
0.0224002 0 0.0641337
0.190036 0.00457771 0.0825666
0.386435 0.0096437 0.0901961
0.529503 0.0336461 0.105516
0 0.167529 0.144045
0.107973 0.179828 0.153079
0.28925 0.198703 0.181689
0.456733 0.228595 0.210529
0.620279 0.265736 0.246433
0 0.421759 0.173327
0.15053 0.443732 0.188663
0.414527 0.458701 0.216098
0.640558 0.482033 0.304906
0.776883 0.534936 0.398291
0 0.717891 0.218921
0.242069 0.742794 0.261784
0.510735 0.759136 0.316289
0.753307 0.77377 0.418082
0.904097 0.80824 0.545373
0.256123 0.954528 0.410758
0.50396 0.962905 0.500038
0.718013 0.978332 0.594797
0.888945 1 0.698268
1 1 0.79588
0 0 0.153048
0.0356451 0.00241093 0.181628
0.207034 0.0111849 0.212039
0.431281 0.00794995 0.232547
0.664179 0.00663767 0.25211
0 0.173831 0.306371
0.123125 0.186145 0.327382
0.338094 0.198871 0.344045
0.585855 0.208743 0.356878
0.779706 0.240269 0.379309
0 0.426627 0.38732
0.173892 0.450523 0.412024
0.424933 0.47097 0.432746
0.625559 0.506554 0.485954
0.770397 0.560662 0.542031
0.0274205 0.723568 0.44596
0.269642 0.750393 0.489158
0.529061 0.768688 0.53077
0.766293 0.786404 0.598795
0.90634 0.824659 0.70721
0.302495 0.955261 0.608438
0.541161 0.967269 0.675425
0.742306 0.98854 0.742992
0.905379 1 0.814527
1 1 0.8822
0 0 0.307668
0.0435798 0.00721752 0.356435
0.219074 0.0135195 0.406134
0.449165 0.00859083 0.444419
0.68249 0.00750744 0.47776
0 0.1776 0.528283
0.12842 0.19115 0.561639
0.346548 0.204578 0.58529
0.596811 0.215976 0.601114
0.814801 0.241825 0.626841
0 0.428733 0.640452
0.199893 0.454856 0.663264
0.443183 0.478859 0.679316
0.687587 0.506065 0.696956
0.879667 0.548348 0.727947
0.0697795 0.724544 0.706127
0.310536 0.751705 0.737881
0.560372 0.772869 0.762966
0.778119 0.798367 0.791791
0.900542 0.846128 0.843778
0.356649 0.953597 0.805844
0.584054 0.970779 0.845884
0.770214 0.998779 0.891585
0.921782 1 0.940993
1 1 0.984222
0 0.000854505 0.490166
0.0497444 0.0102846 0.557244
0.230182 0.0147097 0.622919
0.46424 0.00903334 0.670298
0.697765 0.00988785 0.710124
0 0.182422 0.752926
0.13434 0.197375 0.789166
0.356466 0.212238 0.81326
0.60766 0.225864 0.82681
0.825086 0.253437 0.850629
0 0.436423 0.861067
0.217578 0.465202 0.880369
0.457801 0.491966 0.892592
0.699519 0.521035 0.902647
0.887205 0.565148 0.920867
0.113329 0.729747 0.915312
0.354055 0.757321 0.930892
0.594736 0.780819 0.936828
0.795438 0.811582 0.946395
0.940169 0.854749 0.971298
0.416037 0.953735 0.963699
0.631052 0.975448 0.987671
0.803311 1 1
0.942306 1 1
1 1 1
