Grain/Grain/Resources/Luts/Cinema/CINECOLOR_SAVING_PRIVATE_RYAN.cube
TITLE "Generated by Resolve"
LUT_3D_SIZE 33
0 0 0
0 0 0
0 0 0
0 0 0
0 0 0
0 0 0
0 0 0
0 0 0
4.57771e-05 0 0
0.0140078 0 0
0.0270237 0 0
0.0409094 0 0
0.0559396 0 0
0.0700389 0.00149538 0.00228885
0.0845655 0.00444038 0.00521859
0.0994888 0.00762951 0.00823987
0.114809 0.0104372 0.0109102
0.130312 0.0132296 0.0135805
0.146487 0.0161746 0.0164187
0.163134 0.0187381 0.0188602
0.179919 0.0212711 0.0213321
0.197513 0.0236667 0.0236362
0.215976 0.0261387 0.0260319
0.234562 0.0283207 0.0281376
0.253483 0.030457 0.0302129
0.273518 0.0326696 0.0323491
0.293294 0.0346532 0.034287
0.313634 0.0365606 0.0361181
0.334478 0.0386358 0.0381323
0.355261 0.0406043 0.0400092
0.375509 0.04271 0.0419928
0.394659 0.045182 0.0442817
0.413397 0.0479438 0.0468147
0 0 0
0 0 0
0 0 0
0 0 0
0 0.000106813 0
0 0.00125124 0
0 0.00218204 0
0.00323491 0.00195315 0
0.0190433 0.00434882 0
0.0324102 0.00759899 0.00289921
0.0462501 0.011017 0.00593576
0.0600748 0.0141604 0.00900282
0.0742504 0.0172885 0.0116274
0.0889296 0.0205844 0.0149386
0.103532 0.0236515 0.0177462
0.11873 0.0265812 0.0204623
0.134417 0.0297398 0.0234073
0.150362 0.0325628 0.0257725
0.16701 0.0351873 0.0284428
0.184344 0.0380255 0.0310979
0.201968 0.0404974 0.0332494
0.220157 0.0428473 0.0355535
0.238911 0.0451057 0.037644
0.258488 0.0475166 0.0398413
0.278218 0.0496071 0.041825
0.298421 0.0516213 0.0436713
0.318944 0.0538033 0.045716
0.339834 0.0559091 0.0476081
0.360876 0.0578775 0.0494087
0.381903 0.0599222 0.0512856
0.402625 0.0623941 0.0535286
0.421836 0.065156 0.0560006
0.440436 0.068101 0.0586252
0 0.0127718 0
0 0.0153048 0
0 0.0174868 0
0 0.019379 0.000839246
0 0.0196689 0.000656138
0 0.0209964 0.00123598
0 0.0220493 0.00128176
0.017258 0.0227207 0.00131228
0.0380865 0.0238804 0.00511177
0.0532387 0.0264134 0.0110781
0.0667582 0.0297856 0.016083
0.0801709 0.0332647 0.0197452
0.0941482 0.0364996 0.0232395
0.108446 0.0397345 0.026215
0.123705 0.043061 0.0293278
0.139147 0.0460517 0.032166
0.154986 0.049012 0.0346532
0.171847 0.0520333 0.0375982
0.188663 0.0547799 0.0400854
0.206439 0.0573434 0.0422675
0.224735 0.0598001 0.0445411
0.243809 0.0624247 0.0469062
0.263066 0.064744 0.0487831
0.283085 0.0668956 0.0508431
0.303258 0.0691386 0.0527962
0.324208 0.0714275 0.0547951
0.345098 0.0735485 0.056672
0.366018 0.0757305 0.0585794
0.387411 0.0778973 0.0606546
0.40885 0.0803693 0.0626841
0.429068 0.0829633 0.0649729
0.448463 0.0858625 0.0677501
0.467002 0.0891585 0.0703746
0 0.0335241 0.00292973
0 0.0362097 0.00386053
0 0.0387732 0.00521859
0 0.040528 0.00637827
0 0.0414435 0.00657664
0 0.0429694 0.00703441
0.00560006 0.0437781 0.00683604
0.0289158 0.04448 0.00724804
0.051957 0.0453498 0.0107729
0.0713817 0.0469215 0.0151369
0.0873579 0.0493782 0.0212253
0.101289 0.052491 0.0272068
0.115434 0.0560464 0.0321355
0.129839 0.0593118 0.0359808
0.144701 0.0625467 0.0393835
0.160449 0.0659342 0.042649
0.176791 0.0688792 0.0455024
0.193591 0.0717479 0.048127
0.211292 0.0745556 0.0505837
0.229511 0.0773938 0.0531777
0.248203 0.079942 0.0554055
0.26775 0.0823224 0.057435
0.287419 0.0847334 0.0595102
0.308019 0.0872969 0.0617227
0.328695 0.0895552 0.0638437
0.349462 0.0918898 0.0656443
0.370596 0.0942092 0.0676127
0.392081 0.096788 0.0700999
0.413199 0.0992905 0.0719921
0.434501 0.101808 0.0741741
0.454932 0.104646 0.0768749
0.474159 0.107958 0.079469
0.492912 0.111635 0.0829175
0 0.0567178 0.00927749
0 0.059266 0.0108644
0 0.0614939 0.0119631
0 0.062974 0.0124819
0 0.0641947 0.0128176
0 0.0653697 0.0128176
0.016495 0.0663157 0.0126802
0.0397803 0.0671855 0.0128786
0.0629435 0.0679484 0.0149538
0.0849928 0.0691386 0.0196841
0.104829 0.0708324 0.024155
0.121981 0.0731365 0.0303197
0.137148 0.0760357 0.0368963
0.152056 0.0794842 0.0427863
0.167086 0.0827649 0.0471504
0.18294 0.0859083 0.0509651
0.199313 0.0890059 0.0543374
0.216831 0.0921645 0.0577554
0.234653 0.0950332 0.0602884
0.25301 0.0978256 0.0628672
0.272343 0.100481 0.0654765
0.292241 0.103243 0.0677043
0.312367 0.10576 0.0701152
0.332937 0.108248 0.0722057
0.353658 0.110811 0.0742046
0.37499 0.113558 0.0768444
0.396201 0.116136 0.0790265
0.417243 0.118868 0.081117
0.438437 0.121614 0.0837262
0.459724 0.124453 0.0861677
0.480034 0.127764 0.0887922
0.499535 0.131518 0.0922866
0.51783 0.135485 0.0956741
0 0.0804456 0.0159915
0 0.0831617 0.0173648
0 0.0853132 0.0180514
0 0.0862898 0.017731
0 0.0879072 0.0179141
0.00164797 0.088777 0.0176089
0.0256199 0.0896315 0.0171359
0.0493477 0.0908522 0.0175326
0.0730449 0.0917067 0.0190585
0.0964065 0.0924849 0.0225834
0.118273 0.0936599 0.0272984
0.139147 0.0955673 0.0319371
0.157488 0.0977493 0.0381933
0.174243 0.10042 0.0451209
0.190219 0.103456 0.0513008
0.206592 0.106859 0.0568399
0.223407 0.109941 0.061265
0.240711 0.113024 0.0651255
0.258915 0.115969 0.0684672
0.277775 0.119142 0.071809
0.297093 0.121996 0.0744793
0.317067 0.124727 0.0772412
0.337179 0.127535 0.0798352
0.357977 0.130266 0.0822766
0.378988 0.133318 0.0850385
0.399863 0.136217 0.0875868
0.421164 0.139071 0.090074
0.442054 0.142138 0.0927749
0.463142 0.145235 0.0956588
0.484474 0.148409 0.0982528
0.504692 0.152102 0.101503
0.52401 0.156207 0.105135
0.542138 0.160555 0.108843
0 0.105211 0.0215305
0 0.107713 0.0225528
0 0.109636 0.0228428
0 0.110872 0.0224155
0 0.112245 0.0220493
0.00932326 0.113313 0.0216678
0.0335699 0.11426 0.0210574
0.0574197 0.115343 0.0209049
0.081651 0.116274 0.0218357
0.10634 0.117266 0.0249332
0.130159 0.118105 0.0293126
0.152651 0.119371 0.0340276
0.174334 0.120989 0.0383612
0.194736 0.123201 0.0448615
0.21326 0.125612 0.0521553
0.230533 0.128557 0.0589761
0.247761 0.131624 0.0650645
0.265751 0.134844 0.0703746
0.284108 0.138094 0.0747845
0.302922 0.141176 0.0790112
0.322316 0.144259 0.0823682
0.342275 0.14725 0.0859083
0.362463 0.150362 0.0889906
0.383078 0.153719 0.0921798
0.404028 0.156756 0.0953536
0.424735 0.160037 0.0981765
0.445823 0.163241 0.101381
0.466606 0.166674 0.104494
0.48748 0.170199 0.107439
0.508827 0.173724 0.110857
0.528939 0.177859 0.114305
0.547967 0.182269 0.118441
0.566049 0.187015 0.122438
0 0.131044 0.0260471
0 0.133577 0.0265965
0 0.134829 0.0259403
0 0.136553 0.0256657
0 0.137881 0.0251316
0.0154879 0.13872 0.0241093
0.0399481 0.139818 0.0234226
0.0645304 0.141222 0.0235142
0.0893416 0.142214 0.0242161
0.114778 0.142947 0.0265049
0.140002 0.143679 0.0301213
0.164721 0.144869 0.0352178
0.188434 0.14612 0.0397192
0.211551 0.147646 0.0441749
0.233295 0.149462 0.0509194
0.253498 0.15198 0.0585489
0.272312 0.154879 0.0661936
0.29102 0.15787 0.0730907
0.309712 0.161059 0.0789044
0.328634 0.16434 0.0842298
0.348058 0.16762 0.0890516
0.367819 0.171191 0.0933852
0.38819 0.174548 0.0976883
0.408362 0.178042 0.101335
0.429053 0.181476 0.105226
0.449485 0.185107 0.10869
0.47042 0.188693 0.11249
0.491081 0.192508 0.115923
0.511818 0.196384 0.119677
0.532876 0.20032 0.123293
0.552651 0.204746 0.127382
0.571389 0.209567 0.131945
0.589426 0.214694 0.136538
0 0.157733 0.029099
0 0.16051 0.0295262
0 0.161532 0.0283665
0 0.163073 0.0278782
0 0.164416 0.0269627
0.0206455 0.16553 0.0259403
0.0454871 0.166766 0.0252079
0.0704356 0.167971 0.0251926
0.0958572 0.169055 0.0256809
0.122148 0.170199 0.0275883
0.148577 0.170916 0.0306249
0.174578 0.171695 0.0352941
0.200214 0.172671 0.0401617
0.225467 0.173861 0.0449378
0.250324 0.17557 0.0501564
0.273442 0.177401 0.0568704
0.295048 0.17969 0.0646982
0.315373 0.182406 0.0729534
0.334997 0.185519 0.0805066
0.354421 0.18883 0.0875563
0.373999 0.192309 0.0936141
0.393759 0.196216 0.0993973
0.413855 0.199832 0.104829
0.433722 0.203677 0.10956
0.454154 0.207477 0.114397
0.474403 0.21149 0.1187
0.495171 0.215457 0.123125
0.515602 0.219669 0.127398
0.536324 0.22388 0.131914
0.556863 0.228305 0.136049
0.576471 0.233021 0.140841
0.594659 0.238315 0.14551
0.612329 0.243824 0.150561
0 0.185855 0.03093
0 0.187518 0.0303655
0 0.189166 0.0295109
0 0.191119 0.0289616
0 0.192432 0.0278782
0.024445 0.193347 0.0268101
0.049897 0.194659 0.0260929
0.0755016 0.196078 0.0259403
0.101625 0.197498 0.0265812
0.128298 0.198535 0.0278019
0.15584 0.199268 0.0307164
0.183322 0.199969 0.03505
0.210727 0.200748 0.0400092
0.237873 0.202014 0.0454261
0.264134 0.203311 0.0505379
0.29012 0.204807 0.0556039
0.314778 0.206607 0.0628519
0.337514 0.208972 0.0712139
0.359014 0.21178 0.0798962
0.379522 0.214984 0.0885481
0.399619 0.218616 0.0964523
0.419623 0.222492 0.103883
0.439506 0.226535 0.110491
0.459403 0.23064 0.116716
0.47953 0.234821 0.122591
0.499763 0.239124 0.128115
0.520088 0.243549 0.133257
0.540383 0.248066 0.138613
0.560662 0.252735 0.143496
0.580911 0.257465 0.148791
0.600122 0.262638 0.15378
0.617899 0.268284 0.159243
0.634974 0.27422 0.165042
0 0.214923 0.0313725
0 0.216464 0.0304723
0 0.218311 0.0297551
0 0.220035 0.0290684
0.000549325 0.221286 0.027863
0.0275883 0.222553 0.0268559
0.0537728 0.224109 0.026627
0.0799573 0.225574 0.0265202
0.106645 0.226917 0.026978
0.133913 0.228138 0.0281682
0.162127 0.229053 0.0306706
0.190845 0.229953 0.0347143
0.219898 0.230762 0.0396735
0.248478 0.231586 0.0453651
0.276616 0.232654 0.0509499
0.304112 0.234043 0.0562753
0.331243 0.235645 0.061799
0.356802 0.237629 0.0693523
0.380758 0.24007 0.0784314
0.40296 0.243107 0.0878614
0.424338 0.246494 0.0973373
0.444541 0.250416 0.106249
0.464759 0.25449 0.114611
0.484977 0.259068 0.122423
0.504982 0.263523 0.129412
0.524956 0.268086 0.136172
0.545068 0.272725 0.142489
0.564965 0.27776 0.148913
0.584985 0.282658 0.154849
0.604471 0.287739 0.160494
0.623255 0.293095 0.166567
0.640681 0.299199 0.172625
0.657176 0.305394 0.178729
0 0.244709 0.0305486
0 0.246357 0.0296788
0 0.248386 0.0290227
0 0.250172 0.0285039
0.00259403 0.251713 0.0276188
0.0302739 0.25304 0.0267033
0.0569619 0.254612 0.0263218
0.0838636 0.256168 0.0265812
0.111101 0.25771 0.0270542
0.139162 0.259022 0.0284276
0.167895 0.260151 0.0308537
0.197864 0.26125 0.0346838
0.227817 0.262028 0.0393378
0.25774 0.262837 0.0449378
0.287465 0.263752 0.0511482
0.31667 0.264973 0.0572213
0.34519 0.26656 0.0628824
0.373159 0.26836 0.0689708
0.399542 0.270573 0.0771038
0.424201 0.273243 0.0867475
0.446952 0.276539 0.0968643
0.468696 0.280232 0.10721
0.489632 0.284337 0.116732
0.510002 0.288716 0.126146
0.530068 0.293355 0.134661
0.550072 0.298146 0.142885
0.569741 0.303166 0.15053
0.58941 0.308278 0.158083
0.608881 0.313573 0.16495
0.628183 0.31899 0.171862
0.646616 0.324758 0.178637
0.663447 0.331075 0.185428
0.679698 0.337575 0.192386
0 0.275334 0.028809
0 0.277485 0.028336
0 0.279652 0.0278935
0 0.281773 0.0277867
0.00459297 0.283162 0.0268559
0.0328069 0.284581 0.0261234
0.0599069 0.286366 0.0260014
0.0875105 0.28806 0.0264134
0.115358 0.289754 0.0272984
0.143877 0.291295 0.0288548
0.173297 0.292653 0.0312963
0.203876 0.293782 0.0347601
0.234928 0.294789 0.039353
0.266194 0.295613 0.0449378
0.297337 0.296498 0.0513161
0.327962 0.297627 0.0580148
0.357778 0.299123 0.0644541
0.386969 0.300938 0.0706035
0.415473 0.302998 0.0773175
0.442237 0.30547 0.086244
0.467262 0.308461 0.0962844
0.490654 0.311925 0.106996
0.513115 0.31577 0.117754
0.534173 0.320134 0.128374
0.554742 0.324742 0.138689
0.57467 0.329671 0.148241
0.594476 0.334768 0.157321
0.613993 0.340032 0.166003
0.633066 0.345556 0.174121
0.651728 0.351064 0.18201
0.669505 0.35697 0.18967
0.685847 0.363531 0.197192
0.701579 0.37026 0.204852
0 0.307347 0.0269932
0 0.309819 0.0268406
0 0.312291 0.0268559
0 0.31426 0.0267033
0.00680552 0.315694 0.0259251
0.0352483 0.317357 0.0255589
0.0632944 0.319203 0.0259556
0.0910811 0.321202 0.0267033
0.119554 0.323079 0.027863
0.148562 0.324849 0.0296635
0.178714 0.326329 0.0321202
0.209689 0.327626 0.0353552
0.241566 0.328618 0.0399786
0.273991 0.329732 0.0455329
0.306188 0.330648 0.0518196
0.337896 0.331731 0.0586709
0.368872 0.333089 0.0658732
0.399512 0.334951 0.0729686
0.429114 0.336858 0.0797894
0.457664 0.339117 0.0870222
0.484749 0.341817 0.0961624
0.510338 0.344945 0.106706
0.534295 0.348562 0.117769
0.556695 0.352682 0.129198
0.578103 0.357153 0.140688
0.598611 0.362036 0.151339
0.618418 0.367163 0.162005
0.637705 0.372534 0.172137
0.65658 0.378149 0.181537
0.674937 0.383948 0.190875
0.692302 0.390127 0.199802
0.708141 0.396872 0.208331
0.72343 0.40383 0.216983
0 0.340444 0.0252079
0 0.343297 0.0256199
0 0.345663 0.0259098
0 0.347814 0.0258488
0.00933852 0.34934 0.0253605
0.0385138 0.351125 0.0256809
0.0667124 0.353292 0.0263981
0.0952316 0.355444 0.0274815
0.124025 0.35758 0.0290532
0.153796 0.359487 0.0311131
0.18439 0.361196 0.0339055
0.215839 0.362692 0.0371252
0.248203 0.363928 0.0415198
0.281209 0.364981 0.0466926
0.314397 0.365972 0.0529335
0.34725 0.367071 0.0599527
0.379492 0.368399 0.0675364
0.41088 0.370016 0.0753185
0.441321 0.372 0.0829023
0.471183 0.374289 0.0900587
0.500053 0.376867 0.0978256
0.527764 0.379675 0.107454
0.553521 0.383017 0.118029
0.577615 0.386786 0.129839
0.600198 0.391028 0.141817
0.621347 0.395758 0.153582
0.641398 0.400671 0.165408
0.66067 0.405859 0.176791
0.679271 0.411582 0.187625
0.697368 0.417517 0.198459
0.714519 0.423865 0.208698
0.730037 0.430823 0.218509
0.745007 0.438025 0.228336
0 0.374517 0.0238956
0 0.37731 0.0247349
0 0.380072 0.0253147
0 0.38233 0.0256352
0.0129397 0.383917 0.0257877
0.0421607 0.386053 0.0264439
0.0710613 0.388357 0.0275425
0.0998398 0.390753 0.029099
0.129458 0.39295 0.0311589
0.159426 0.395117 0.0335241
0.190356 0.397086 0.0361791
0.222217 0.398749 0.039704
0.255085 0.400168 0.0438087
0.288823 0.401282 0.0492561
0.322698 0.402365 0.0552682
0.356405 0.403479 0.062211
0.389502 0.404791 0.06981
0.421683 0.406317 0.0777142
0.453025 0.408301 0.0858473
0.483574 0.410208 0.0936904
0.513497 0.412619 0.101213
0.54255 0.415335 0.109361
0.569986 0.418372 0.11928
0.595712 0.421836 0.130556
0.619623 0.425818 0.142641
0.642054 0.430259 0.155215
0.662989 0.435187 0.167971
0.68275 0.440543 0.180682
0.701579 0.446204 0.19324
0.719478 0.452201 0.20528
0.736248 0.458564 0.217029
0.751644 0.465629 0.228412
0.766247 0.473045 0.238972
0 0.4094 0.0236057
0 0.412375 0.0244907
0 0.415061 0.0254826
0 0.417517 0.0264591
0.0171359 0.419318 0.0268711
0.0468452 0.421576 0.027924
0.076051 0.423987 0.0296635
0.105623 0.426673 0.031754
0.13518 0.429084 0.033814
0.165454 0.431312 0.036347
0.197024 0.43331 0.0395666
0.229297 0.435172 0.0429236
0.262455 0.436744 0.0471504
0.296208 0.438132 0.0520333
0.330556 0.439323 0.0580148
0.364889 0.440482 0.0647593
0.398917 0.441688 0.0725109
0.431937 0.443198 0.0806897
0.464073 0.444984 0.0891432
0.49546 0.447013 0.0975662
0.526024 0.449332 0.105882
0.555978 0.451911 0.114137
0.584878 0.454841 0.122744
0.611719 0.458015 0.132937
0.637232 0.461738 0.144564
0.660731 0.466087 0.157336
0.682689 0.470893 0.170687
0.702968 0.476234 0.18439
0.722377 0.48188 0.198062
0.74081 0.487846 0.211826
0.757153 0.494331 0.224552
0.772442 0.50135 0.237186
0.786847 0.508812 0.249393
0 0.445136 0.0240635
0 0.448188 0.0256199
0 0.451011 0.0270237
0 0.453391 0.0281071
0.0228275 0.455344 0.029099
0.0526894 0.457862 0.030808
0.082063 0.460578 0.0328527
0.111772 0.463279 0.0349126
0.141833 0.465858 0.0376898
0.172549 0.468315 0.040528
0.20412 0.470573 0.043473
0.23653 0.472587 0.0471046
0.270115 0.474235 0.0512551
0.304158 0.475731 0.0561532
0.338796 0.477043 0.0616922
0.373526 0.478264 0.0681926
0.407736 0.479362 0.0755627
0.441215 0.480735 0.083711
0.474174 0.482383 0.0925765
0.506371 0.484337 0.101549
0.537728 0.48661 0.110491
0.568261 0.489204 0.119463
0.597848 0.492119 0.128435
0.626047 0.495476 0.137789
0.652522 0.499123 0.148775
0.677272 0.503136 0.160906
0.700099 0.507851 0.174426
0.721416 0.512978 0.188586
0.741268 0.518563 0.203174
0.759976 0.524498 0.217868
0.777005 0.530968 0.232151
0.791928 0.537835 0.245899
0.805966 0.545327 0.259297
0 0.481514 0.0256199
0 0.484733 0.0275425
0 0.487663 0.0293126
0 0.489998 0.0308995
0.029221 0.492226 0.0322271
0.0590677 0.495003 0.0339971
0.0889601 0.497765 0.0364691
0.118502 0.500557 0.0389868
0.148638 0.50341 0.041886
0.179629 0.505699 0.0446326
0.211292 0.50808 0.0479744
0.2439 0.510201 0.0514534
0.27747 0.512001 0.0556191
0.31191 0.513512 0.0603799
0.346685 0.5149 0.0660258
0.381704 0.516228 0.0723583
0.416495 0.517586 0.0797589
0.450523 0.519158 0.0881361
0.484077 0.520745 0.0970474
0.517098 0.522499 0.106569
0.54902 0.524666 0.116182
0.579995 0.527276 0.125704
0.609842 0.530251 0.13547
0.638834 0.533501 0.145327
0.666087 0.53727 0.155489
0.691661 0.541131 0.167239
0.71545 0.545693 0.180194
0.737636 0.550637 0.194644
0.758068 0.556085 0.209506
0.777478 0.561776 0.224964
0.794476 0.568215 0.240162
0.809598 0.574884 0.255055
0.823819 0.582162 0.269795
0 0.518242 0.0277562
0 0.521538 0.0301976
0 0.524559 0.0322423
0.00479133 0.526909 0.0336461
0.0360418 0.529427 0.035523
0.066041 0.532311 0.0378424
0.0957046 0.535317 0.0404974
0.125689 0.538262 0.0433356
0.1561 0.5411 0.0463874
0.187137 0.54374 0.0496529
0.219181 0.54612 0.0531167
0.251957 0.548302 0.0569772
0.28574 0.55024 0.0610513
0.319905 0.55172 0.0657511
0.355093 0.553246 0.0713664
0.390417 0.554711 0.0777752
0.425467 0.556222 0.0851606
0.459922 0.557855 0.0936294
0.494148 0.559564 0.102846
0.527749 0.56141 0.112779
0.560159 0.563333 0.122911
0.591562 0.565835 0.133425
0.621759 0.56878 0.143877
0.650736 0.57203 0.154803
0.678355 0.575723 0.165545
0.704356 0.579751 0.176669
0.728832 0.584039 0.189075
0.751583 0.588861 0.203098
0.772854 0.594034 0.218235
0.792691 0.599512 0.233997
0.810117 0.605615 0.250019
0.825345 0.612039 0.265614
0.839536 0.619058 0.281422
0 0.555673 0.0310674
0 0.559136 0.0336309
0 0.562127 0.0358587
0.0129244 0.564477 0.0375677
0.0437324 0.567239 0.0399481
0.0738994 0.570199 0.0425727
0.103426 0.573098 0.0452735
0.133501 0.575998 0.0486
0.164218 0.578912 0.0517433
0.195483 0.581659 0.055375
0.227634 0.584207 0.0591897
0.260899 0.586465 0.063386
0.294896 0.588525 0.0679942
0.329503 0.590417 0.0729534
0.364584 0.592004 0.0784924
0.400031 0.593454 0.0850538
0.43505 0.595132 0.092607
0.469963 0.596796 0.101183
0.504555 0.59852 0.110567
0.538338 0.600412 0.120882
0.571344 0.602411 0.131777
0.60293 0.604669 0.142672
0.63331 0.607492 0.154208
0.662531 0.610605 0.16614
0.689937 0.614282 0.177844
0.716106 0.618235 0.189807
0.740764 0.622324 0.202014
0.763912 0.626978 0.215412
0.785748 0.63183 0.230274
0.805875 0.637018 0.246326
0.823697 0.642756 0.262867
0.839139 0.648829 0.279179
0.853376 0.655512 0.295811
0 0.593118 0.0350195
0 0.596613 0.037644
0 0.599542 0.0401923
0.0217288 0.601877 0.0423743
0.0522927 0.604837 0.0449073
0.0826276 0.607858 0.0482032
0.112566 0.611063 0.0515297
0.142824 0.614221 0.0551461
0.173907 0.616983 0.0590219
0.205463 0.61976 0.0628214
0.237903 0.622339 0.0671244
0.271443 0.624704 0.0716716
0.305592 0.626856 0.0767224
0.340398 0.628855 0.0820478
0.375708 0.630655 0.088014
0.410864 0.632136 0.094789
0.446097 0.63386 0.102571
0.481147 0.635538 0.111254
0.515724 0.637293 0.121019
0.549844 0.639109 0.131609
0.583169 0.641062 0.143038
0.614847 0.643153 0.154665
0.645258 0.645838 0.167178
0.674083 0.648905 0.179797
0.70164 0.652247 0.193011
0.727428 0.656077 0.206043
0.751965 0.659922 0.219272
0.775189 0.664317 0.232486
0.797162 0.66894 0.247089
0.817441 0.673838 0.262959
0.835752 0.679164 0.279698
0.851392 0.684947 0.29633
0.865721 0.691234 0.313481
0 0.630793 0.0400244
0 0.634165 0.0433814
0 0.636988 0.0458991
0.0322271 0.639261 0.0485237
0.0627909 0.64239 0.0518959
0.093019 0.64567 0.0554971
0.123583 0.648829 0.059678
0.154192 0.652049 0.0637064
0.185443 0.655116 0.0681773
0.217609 0.657923 0.0727703
0.250172 0.660304 0.0773938
0.283848 0.66273 0.0823224
0.318456 0.664851 0.0877852
0.353429 0.666819 0.0937972
0.388525 0.668727 0.100298
0.423713 0.670359 0.107393
0.458915 0.671946 0.115602
0.493767 0.673671 0.124727
0.528496 0.675349 0.134752
0.562615 0.677089 0.145556
0.595499 0.678996 0.157504
0.627237 0.680842 0.169909
0.657481 0.68333 0.183322
0.686244 0.686122 0.196918
0.713359 0.689281 0.211139
0.738979 0.692805 0.225574
0.762936 0.696529 0.239948
0.785748 0.700587 0.254414
0.807584 0.704936 0.269368
0.828138 0.709545 0.284901
0.846372 0.714611 0.301701
0.862226 0.720241 0.318761
0.876616 0.725994 0.3364
0 0.667979 0.0467689
0 0.671351 0.0505074
0.01355 0.673884 0.053666
0.0452125 0.676829 0.0570382
0.0758068 0.67982 0.0611276
0.106172 0.683101 0.0652934
0.136889 0.686366 0.0699626
0.168109 0.689494 0.0747997
0.199771 0.692515 0.0798962
0.232166 0.695338 0.084947
0.265385 0.697765 0.0902724
0.299153 0.699962 0.0959029
0.333669 0.702129 0.101854
0.368673 0.704051 0.108461
0.403845 0.705882 0.115511
0.438666 0.707622 0.123278
0.473442 0.709148 0.131792
0.508385 0.710674 0.141436
0.542702 0.712261 0.15201
0.576532 0.713848 0.163317
0.609308 0.715541 0.175845
0.640558 0.71725 0.188876
0.670512 0.719478 0.203098
0.69865 0.722087 0.21799
0.725322 0.725032 0.233127
0.750546 0.728283 0.248753
0.774243 0.731853 0.264454
0.796567 0.7355 0.280293
0.817731 0.739696 0.296254
0.838056 0.74406 0.312413
0.856306 0.748898 0.328847
0.872404 0.754238 0.346181
0.886931 0.759731 0.363943
0 0.704845 0.0560616
0 0.708064 0.0599374
0.0291142 0.710658 0.0636606
0.0606241 0.713726 0.0680552
0.091371 0.717006 0.0729381
0.122133 0.719997 0.0777142
0.153109 0.723247 0.0830396
0.184512 0.726329 0.0885634
0.216754 0.729183 0.0942855
0.249516 0.731884 0.100038
0.282948 0.734279 0.106218
0.317006 0.736233 0.112428
0.351614 0.738262 0.119097
0.386267 0.740139 0.126284
0.421164 0.741848 0.134051
0.455909 0.743404 0.142687
0.490211 0.744793 0.151843
0.52462 0.746197 0.16199
0.558648 0.747616 0.172885
0.591897 0.74902 0.185229
0.62414 0.750561 0.198245
0.654734 0.752132 0.21207
0.68397 0.754238 0.227161
0.711772 0.756573 0.243137
0.737911 0.759289 0.259434
0.762539 0.762371 0.276158
0.785763 0.765728 0.293339
0.807446 0.769207 0.310216
0.828428 0.773053 0.327245
0.848112 0.777249 0.34435
0.866102 0.781872 0.361395
0.882109 0.786999 0.378607
0.896681 0.792462 0.396094
0 0.741192 0.0674449
0.0150454 0.743999 0.0716564
0.0476234 0.746792 0.0765698
0.0788434 0.749981 0.0816968
0.110063 0.75314 0.0872816
0.140856 0.75613 0.0930495
0.172137 0.759213 0.0989548
0.20415 0.762051 0.105257
0.236622 0.764767 0.11165
0.269718 0.767208 0.118364
0.303593 0.769345 0.125277
0.33753 0.771084 0.132113
0.371832 0.772946 0.139666
0.4065 0.774533 0.147753
0.440986 0.776059 0.156435
0.475029 0.777584 0.165667
0.508995 0.778729 0.175509
0.542977 0.779873 0.186603
0.576165 0.781186 0.198367
0.608743 0.782483 0.211292
0.640177 0.783932 0.225101
0.670268 0.785458 0.240131
0.698604 0.787289 0.255909
0.725689 0.789532 0.272602
0.751141 0.792096 0.290074
0.775265 0.794965 0.307866
0.797894 0.798169 0.325841
0.819394 0.801617 0.343832
0.839368 0.805188 0.361669
0.858747 0.80911 0.379736
0.876295 0.813565 0.397345
0.892088 0.818509 0.414878
0.906752 0.823743 0.432227
0.00384527 0.776638 0.0812543
0.0372931 0.779049 0.0864576
0.0690318 0.782086 0.0920882
0.100343 0.785168 0.0982376
0.131472 0.788251 0.104814
0.162707 0.791104 0.111269
0.194629 0.793759 0.118074
0.226886 0.796338 0.125017
0.259724 0.798718 0.132174
0.293202 0.800778 0.139727
0.326894 0.802686 0.147387
0.360769 0.804135 0.155169
0.395026 0.805661 0.163668
0.429068 0.807095 0.172869
0.462913 0.808438 0.182528
0.496651 0.809735 0.192584
0.530266 0.810727 0.203769
0.563073 0.811765 0.215396
0.595621 0.812894 0.228275
0.627298 0.814115 0.241932
0.657877 0.815473 0.256779
0.6869 0.817105 0.272587
0.71426 0.81883 0.289174
0.740536 0.820935 0.306691
0.765209 0.823407 0.324895
0.788571 0.826185 0.34313
0.810712 0.829236 0.361868
0.83151 0.832593 0.38056
0.851301 0.83621 0.399191
0.870298 0.839994 0.417273
0.88748 0.844282 0.435386
0.902724 0.849042 0.452735
0.917205 0.854154 0.470237
0.0301366 0.810483 0.098085
0.062089 0.813153 0.104173
0.0935225 0.816129 0.110842
0.125093 0.818952 0.117922
0.156451 0.821759 0.125322
0.187991 0.824308 0.132708
0.220188 0.826566 0.140398
0.252811 0.828748 0.148226
0.285969 0.830701 0.156283
