Grain/Grain/Resources/Luts/Cinema/CINECOLOR_JAWS.cube
TITLE "Generated by Resolve"
LUT_3D_SIZE 33
0.190112 0.188373 0.191028
0.198535 0.18793 0.1906
0.207279 0.187686 0.190341
0.215854 0.187457 0.190127
0.224765 0.187259 0.189914
0.234226 0.18677 0.189425
0.244816 0.186038 0.188708
0.257038 0.184802 0.187488
0.271885 0.182818 0.185519
0.290806 0.179782 0.182528
0.313924 0.175525 0.178317
0.340368 0.170474 0.173327
0.369451 0.164614 0.167544
0.40058 0.158236 0.161242
0.432715 0.151659 0.154726
0.465766 0.144762 0.147906
0.499962 0.137682 0.140902
0.533898 0.130587 0.133867
0.567315 0.123735 0.127077
0.599054 0.117327 0.120729
0.628626 0.111513 0.114961
0.655421 0.10663 0.110094
0.679698 0.102358 0.105852
0.7019 0.0986954 0.102205
0.72256 0.095613 0.0991531
0.741756 0.0928817 0.0964218
0.759854 0.0905165 0.0940719
0.777462 0.0885328 0.0920882
0.794553 0.0866865 0.0902266
0.811521 0.0849622 0.0885176
0.82884 0.0832685 0.0868238
0.846571 0.081651 0.0851911
0.864973 0.0799115 0.0834516
0.189364 0.196201 0.190295
0.198047 0.196002 0.190097
0.20679 0.195758 0.189853
0.215335 0.195499 0.189593
0.224186 0.195239 0.189319
0.23357 0.19469 0.188785
0.244129 0.193927 0.188037
0.256275 0.19263 0.186755
0.271107 0.190616 0.184802
0.290059 0.187594 0.181842
0.313222 0.183337 0.177691
0.339727 0.178302 0.172778
0.368902 0.172442 0.167071
0.400183 0.16614 0.160906
0.432349 0.159533 0.154452
0.465537 0.152682 0.147723
0.499886 0.145647 0.140841
0.534005 0.138628 0.133959
0.56762 0.131838 0.127306
0.599649 0.125551 0.121111
0.62948 0.119844 0.115511
0.656428 0.115007 0.110735
0.681086 0.110903 0.106691
0.703624 0.107393 0.103212
0.724575 0.104448 0.100298
0.744366 0.101991 0.0978561
0.762982 0.0998703 0.0957351
0.780896 0.098024 0.0938888
0.798474 0.0964065 0.092256
0.81622 0.0950484 0.0908827
0.834257 0.0936904 0.0894942
0.852689 0.0923781 0.0881666
0.87187 0.0909895 0.0867475
0.188754 0.204257 0.18967
0.197406 0.204044 0.189456
0.206058 0.203693 0.189105
0.214527 0.203387 0.1888
0.223331 0.203082 0.188495
0.232715 0.202533 0.187961
0.24329 0.201785 0.187228
0.255467 0.200504 0.185992
0.27042 0.198581 0.184131
0.289342 0.195514 0.18117
0.312581 0.191287 0.177096
0.339193 0.186282 0.172274
0.368475 0.180484 0.166674
0.399817 0.174166 0.160571
0.432273 0.167712 0.15433
0.46569 0.160937 0.147768
0.500298 0.154025 0.14107
0.534691 0.147097 0.13434
0.568505 0.140383 0.12781
0.60087 0.134218 0.121813
0.631113 0.128695 0.116426
0.658457 0.124041 0.111864
0.683528 0.120119 0.108019
0.706706 0.116899 0.104845
0.728099 0.114168 0.102129
0.748287 0.111894 0.0998703
0.767544 0.110079 0.0980392
0.786435 0.10869 0.0966201
0.804807 0.107439 0.0953231
0.823117 0.10634 0.0941939
0.841962 0.105348 0.0931563
0.861448 0.104524 0.0922713
0.881926 0.103731 0.0914015
0.188067 0.21207 0.188998
0.196704 0.211826 0.188754
0.205356 0.211475 0.188418
0.213855 0.211185 0.188128
0.22269 0.21091 0.187854
0.232105 0.210407 0.18735
0.242725 0.209674 0.186648
0.254948 0.208438 0.185458
0.269917 0.206516 0.183627
0.289021 0.203555 0.180804
0.312413 0.199405 0.176852
0.339208 0.194491 0.172168
0.368719 0.1888 0.16672
0.400305 0.182589 0.160784
0.433021 0.176242 0.154711
0.466712 0.169574 0.148333
0.501518 0.162707 0.141726
0.536446 0.156039 0.135302
0.570748 0.149523 0.12903
0.603525 0.143542 0.123232
0.634241 0.138201 0.118059
0.662242 0.133852 0.113817
0.687877 0.130175 0.110216
0.711604 0.127214 0.107301
0.733791 0.124849 0.104936
0.754757 0.122942 0.103014
0.774914 0.121553 0.101579
0.794522 0.120516 0.100481
0.814023 0.119799 0.0996872
0.833616 0.11931 0.0990921
0.853651 0.118883 0.098558
0.874296 0.118608 0.0981613
0.896132 0.118441 0.0978714
0.187198 0.219974 0.188113
0.19585 0.219745 0.1879
0.204532 0.21944 0.187594
0.213107 0.219226 0.187381
0.221958 0.218967 0.187121
0.231434 0.218509 0.186679
0.242145 0.217868 0.186053
0.25449 0.216724 0.18497
0.269581 0.214893 0.18323
0.288899 0.21207 0.180575
0.312505 0.208042 0.176776
0.339422 0.203174 0.172183
0.369299 0.197681 0.166995
0.401205 0.191623 0.161273
0.434211 0.185382 0.155352
0.468498 0.179034 0.14931
0.503807 0.172396 0.142992
0.539101 0.165835 0.136736
0.573922 0.159564 0.130724
0.607492 0.153933 0.125307
0.638956 0.148959 0.1205
0.667613 0.144884 0.116533
0.693996 0.141558 0.113268
0.718517 0.138964 0.110689
0.741665 0.137057 0.108766
0.763973 0.135805 0.107439
0.78526 0.134966 0.106493
0.805966 0.134463 0.105852
0.826642 0.134325 0.105577
0.847654 0.134539 0.105608
0.869291 0.13489 0.10576
0.891371 0.135317 0.105974
0.914427 0.135729 0.106172
0.185855 0.228199 0.186816
0.194568 0.228046 0.186648
0.203311 0.227802 0.186419
0.211933 0.227634 0.186236
0.22092 0.227527 0.186114
0.230533 0.227207 0.185794
0.241367 0.226688 0.18529
0.253895 0.225696 0.18436
0.269169 0.224002 0.182757
0.288624 0.221271 0.180209
0.312596 0.217487 0.176699
0.339879 0.212833 0.172366
0.370077 0.207507 0.167376
0.402548 0.201785 0.162005
0.436011 0.195758 0.156359
0.470695 0.189578 0.15053
0.506645 0.183246 0.144533
0.542794 0.177111 0.138735
0.578485 0.171252 0.133135
0.61265 0.165866 0.127993
0.644953 0.161273 0.123552
0.674662 0.157702 0.120073
0.702266 0.154986 0.117372
0.727977 0.152972 0.115312
0.752224 0.151614 0.113863
0.775616 0.150912 0.113008
0.798337 0.15079 0.112688
0.820569 0.151049 0.112718
0.842557 0.151583 0.112993
0.864744 0.152392 0.113542
0.887358 0.153246 0.114092
0.910506 0.154208 0.114763
0.934524 0.155108 0.115358
0.183841 0.237064 0.184848
0.192645 0.237034 0.184802
0.201511 0.236927 0.18468
0.210254 0.236912 0.184649
0.219394 0.236957 0.184649
0.229145 0.236774 0.184466
0.240085 0.236362 0.18407
0.252934 0.235676 0.183413
0.268513 0.234241 0.182071
0.288289 0.231769 0.179797
0.312535 0.228168 0.176471
0.340307 0.22385 0.172488
0.371023 0.218814 0.167834
0.403983 0.213352 0.162768
0.438148 0.207736 0.157549
0.473533 0.201923 0.152102
0.510246 0.195956 0.146502
0.547311 0.190295 0.141161
0.584039 0.184939 0.136065
0.61944 0.180194 0.131502
0.652888 0.17615 0.127581
0.683742 0.173144 0.124605
0.712673 0.171099 0.122499
0.73991 0.169863 0.121126
0.765606 0.169253 0.120317
0.790219 0.169177 0.119982
0.813993 0.169604 0.120119
0.837278 0.170413 0.120607
0.860258 0.171481 0.121309
0.883299 0.172747 0.12221
0.90692 0.174136 0.123201
0.931014 0.175601 0.124269
0.955947 0.176989 0.125261
0.180835 0.246937 0.181949
0.18967 0.246967 0.181949
0.198749 0.247135 0.182071
0.20766 0.247318 0.182193
0.216922 0.247517 0.182345
0.227039 0.24773 0.182498
0.23827 0.247623 0.182361
0.251286 0.247105 0.181857
0.26717 0.24596 0.180789
0.28748 0.243946 0.178943
0.312276 0.240772 0.176043
0.340551 0.236789 0.172412
0.371817 0.232136 0.168154
0.405447 0.22707 0.1635
0.440452 0.221942 0.15877
0.476921 0.21677 0.153948
0.514824 0.21146 0.148989
0.552895 0.206317 0.144137
0.590799 0.201556 0.139605
0.627588 0.197528 0.135698
0.662577 0.194278 0.132494
0.694774 0.191974 0.130129
0.724865 0.190524 0.128511
0.75314 0.189837 0.127581
0.779873 0.189776 0.127214
0.805432 0.190204 0.127291
0.830137 0.19115 0.12784
0.854154 0.192386 0.128634
0.877928 0.193896 0.129686
0.901808 0.195636 0.130938
0.926223 0.197482 0.13228
0.95111 0.199405 0.133684
0.976822 0.201236 0.134997
0.176165 0.258305 0.177462
0.185199 0.25861 0.177707
0.194415 0.258991 0.177996
0.203632 0.259556 0.178439
0.213138 0.260075 0.178851
0.223438 0.260517 0.179187
0.235019 0.260807 0.179385
0.248478 0.260777 0.179294
0.264942 0.260197 0.178729
0.285588 0.258488 0.177172
0.310933 0.255787 0.174731
0.339956 0.252415 0.171679
0.372183 0.248447 0.168078
0.40676 0.244022 0.16405
0.442695 0.239506 0.159884
0.480262 0.234974 0.155673
0.519402 0.230411 0.1514
0.558816 0.226017 0.147234
0.59794 0.221912 0.143297
0.635813 0.218433 0.139895
0.671824 0.215717 0.137148
0.705058 0.213962 0.135225
0.736065 0.213001 0.13402
0.765225 0.212818 0.133471
0.792859 0.213291 0.133516
0.819303 0.214237 0.133974
0.84477 0.215641 0.134844
0.869703 0.217441 0.136065
0.894347 0.219486 0.137499
0.918914 0.221683 0.139055
0.943954 0.223926 0.140673
0.969162 0.226078 0.142199
0.995392 0.228244 0.14374
0.169024 0.271824 0.170596
0.178241 0.272465 0.171115
0.187778 0.273304 0.171771
0.197238 0.27425 0.172519
0.207095 0.275257 0.173297
0.217746 0.276173 0.173999
0.229679 0.276921 0.174563
0.243732 0.277577 0.175036
0.260716 0.277607 0.174975
0.282109 0.276661 0.174075
0.308156 0.274617 0.172244
0.337957 0.271916 0.169802
0.371145 0.268727 0.166918
0.406897 0.265187 0.163684
0.443992 0.261479 0.16025
0.482567 0.257603 0.156664
0.522667 0.25362 0.152911
0.563043 0.24979 0.149264
0.603113 0.24622 0.145815
0.641871 0.243244 0.14284
0.678782 0.241047 0.140505
0.712886 0.239811 0.13901
0.744701 0.239368 0.138186
0.774624 0.239658 0.137987
0.802731 0.240436 0.138231
0.829831 0.24184 0.138994
0.855909 0.243702 0.140154
0.881392 0.245899 0.141619
0.906569 0.248356 0.143282
0.931609 0.250919 0.145068
0.957046 0.253498 0.146868
0.982864 0.256107 0.148669
1 0.258579 0.150362
0.159747 0.288029 0.1617
0.169238 0.289189 0.162585
0.178958 0.29041 0.163531
0.188739 0.291875 0.164645
0.199023 0.293523 0.165896
0.210254 0.295232 0.167193
0.222782 0.296773 0.168338
0.237278 0.298039 0.169268
0.254994 0.298939 0.169894
0.277195 0.298894 0.169726
0.304189 0.297826 0.168704
0.334859 0.295933 0.166964
0.368811 0.293416 0.164691
0.40531 0.290486 0.16202
0.443183 0.287358 0.159121
0.482383 0.28394 0.155947
0.523308 0.280522 0.152712
0.564385 0.277165 0.149493
0.605264 0.274128 0.146502
0.64477 0.271641 0.143938
0.682383 0.269917 0.141985
0.717174 0.269184 0.140841
0.749645 0.2692 0.140337
0.780118 0.269917 0.140429
0.808988 0.27129 0.141039
0.836591 0.273121 0.142061
0.862913 0.275242 0.143343
0.888716 0.277775 0.144945
0.914015 0.280446 0.1467
0.9393 0.283314 0.148592
0.964874 0.286122 0.150454
0.990738 0.288899 0.1523
1 0.291524 0.153994
0.149401 0.306706 0.151751
0.159319 0.308598 0.153155
0.169543 0.310658 0.154681
0.179797 0.312886 0.156329
0.19057 0.315282 0.158083
0.202365 0.31783 0.15996
0.21561 0.320378 0.161807
0.230838 0.322606 0.163409
0.249073 0.324208 0.164538
0.271824 0.324865 0.164904
0.299413 0.324453 0.164416
0.330694 0.323217 0.163226
0.365255 0.321279 0.161456
0.40238 0.318929 0.159289
0.44097 0.316396 0.156924
0.480995 0.313634 0.154314
0.522515 0.310674 0.151507
0.564355 0.307881 0.14876
0.60589 0.305333 0.146166
0.645869 0.303197 0.143893
0.684001 0.301885 0.142245
0.719188 0.301472 0.141329
0.752102 0.3019 0.14107
0.78294 0.302983 0.14136
0.8121 0.304662 0.142138
0.839948 0.306798 0.143282
0.866606 0.3093 0.144747
0.892515 0.312062 0.14641
0.917952 0.315007 0.148241
0.943206 0.318029 0.150134
0.968734 0.320974 0.15198
0.994766 0.324041 0.153918
1 0.326848 0.155642
0.139116 0.328649 0.141817
0.149432 0.331319 0.143725
0.16022 0.334325 0.145846
0.17113 0.337621 0.14818
0.182513 0.340978 0.150561
0.194797 0.344335 0.152926
0.208499 0.347601 0.155215
0.224186 0.350545 0.157275
0.242878 0.352834 0.158846
0.266087 0.354116 0.15967
0.294163 0.35433 0.159655
0.326009 0.353704 0.158968
0.360952 0.352193 0.157565
0.398642 0.350362 0.15584
0.43772 0.348318 0.153887
0.478309 0.346044 0.15172
0.520363 0.343542 0.149279
0.562676 0.341146 0.146899
0.6047 0.33901 0.14464
0.645258 0.337362 0.142733
0.683772 0.3364 0.141329
0.719341 0.33637 0.140658
0.752453 0.337041 0.140536
0.7832 0.338201 0.14081
0.812421 0.340093 0.141634
0.840238 0.342397 0.142809
0.866896 0.345068 0.144274
0.892866 0.348074 0.146014
0.918456 0.351293 0.147921
0.943954 0.354681 0.149966
0.969833 0.358053 0.151995
0.996033 0.361425 0.154025
1 0.364645 0.155947
0.129641 0.354101 0.132631
0.140429 0.357656 0.135058
0.15169 0.361563 0.137713
0.162936 0.365515 0.140398
0.174624 0.369512 0.143114
0.187274 0.373556 0.145861
0.201328 0.377478 0.148516
0.217395 0.381094 0.150958
0.2365 0.384039 0.152926
0.260121 0.385916 0.154131
0.288609 0.386694 0.154528
0.320897 0.386603 0.154253
0.356466 0.385763 0.153368
0.394583 0.38439 0.152041
0.43415 0.382803 0.150484
0.475105 0.38088 0.148608
0.517388 0.378592 0.146395
0.560037 0.376516 0.144274
0.60235 0.374655 0.14226
0.643153 0.373281 0.140566
0.681819 0.372519 0.139315
0.717449 0.372671 0.13872
0.750607 0.373526 0.138674
0.781643 0.375051 0.139132
0.810956 0.377188 0.140047
0.838972 0.379812 0.141344
0.865873 0.382849 0.142962
0.891829 0.386038 0.144717
0.917556 0.389563 0.146715
0.943069 0.393164 0.148775
0.969009 0.39678 0.150866
0.995224 0.400381 0.152926
1 0.403769 0.154833
0.121309 0.382376 0.124468
0.132464 0.386709 0.127321
0.143954 0.39118 0.130251
0.155581 0.395895 0.133318
0.167697 0.400687 0.136461
0.180682 0.405402 0.139528
0.195056 0.409934 0.142504
0.21146 0.414145 0.145266
0.230869 0.417609 0.147509
0.254719 0.419883 0.148959
0.283558 0.421118 0.149676
0.316213 0.421485 0.149737
0.352148 0.421042 0.149187
0.3906 0.42002 0.14815
0.430472 0.418738 0.146853
0.471778 0.417151 0.145266
0.514473 0.415244 0.143374
0.557305 0.413352 0.141436
0.599725 0.411627 0.139559
0.640513 0.4103 0.137926
0.679118 0.409583 0.136706
0.714916 0.409979 0.136263
0.748318 0.41117 0.1364
0.779614 0.413046 0.137026
0.80914 0.415518 0.138094
0.837293 0.418418 0.139483
0.864286 0.421714 0.141176
0.890517 0.425299 0.143084
0.916243 0.429038 0.145113
0.941756 0.432837 0.147204
0.967437 0.436484 0.149187
0.993317 0.440055 0.15111
1 0.443503 0.152941
0.113725 0.413291 0.117021
0.125109 0.418204 0.120134
0.136858 0.423255 0.123323
0.148745 0.42858 0.12668
0.161135 0.433997 0.130083
0.174411 0.439307 0.133425
0.189044 0.444373 0.136645
0.205707 0.449088 0.139635
0.225422 0.453101 0.142184
0.249653 0.455924 0.143969
0.278767 0.457527 0.14493
0.311681 0.458198 0.14522
0.347662 0.457801 0.144762
0.386328 0.456992 0.143923
0.426337 0.455879 0.142794
0.46775 0.454414 0.14136
0.510552 0.452628 0.139635
0.553567 0.450935 0.137865
0.596231 0.44947 0.136202
0.637415 0.448539 0.134859
0.676493 0.448295 0.133959
0.71252 0.448997 0.1337
0.746075 0.450431 0.133944
0.777356 0.452461 0.134615
0.806775 0.455009 0.135668
0.834913 0.458091 0.137087
0.861814 0.461524 0.138766
0.887922 0.465217 0.140642
0.913497 0.469032 0.142611
0.938766 0.472862 0.14461
0.964279 0.4766 0.146548
0.990021 0.480247 0.14844
1 0.483635 0.150134
0.106523 0.446418 0.109895
0.118242 0.452094 0.113359
0.130282 0.457801 0.116838
0.142397 0.463676 0.120409
0.154986 0.469581 0.12401
0.168322 0.475151 0.127428
0.183139 0.480674 0.1308
0.199939 0.485756 0.133944
0.219806 0.490089 0.136629
0.244205 0.493202 0.138567
0.273442 0.495018 0.139681
0.306462 0.495842 0.140108
0.342748 0.495781 0.13991
0.381552 0.495125 0.139254
0.421775 0.494224 0.138338
0.463462 0.49305 0.137148
0.506462 0.491463 0.135607
0.549676 0.489967 0.134051
0.592584 0.488762 0.132601
0.633936 0.48806 0.131426
0.673167 0.488029 0.130663
0.709285 0.488914 0.13051
0.74284 0.490486 0.130816
0.774166 0.492714 0.131548
0.803647 0.495491 0.132662
0.831632 0.498619 0.134051
0.858259 0.502022 0.135622
0.883803 0.505486 0.13727
0.909072 0.50927 0.139132
0.933974 0.513024 0.140978
0.95903 0.516609 0.142733
0.984283 0.520119 0.144427
1 0.523339 0.145922
0.100343 0.481392 0.103746
0.112276 0.487556 0.107393
0.124498 0.493736 0.111055
0.136767 0.500023 0.114763
0.149493 0.50631 0.118486
0.163088 0.512428 0.122133
0.177996 0.518242 0.125597
0.194873 0.523537 0.128786
0.21474 0.527947 0.131472
0.239063 0.531044 0.133394
0.268452 0.533043 0.13463
0.301686 0.534112 0.135256
0.338262 0.534371 0.135302
0.377401 0.534035 0.134905
0.417914 0.53341 0.134218
0.459861 0.532479 0.133242
0.503227 0.531212 0.131975
0.546731 0.529992 0.130648
0.589792 0.528923 0.129335
0.631174 0.528267 0.128237
0.670192 0.52813 0.127428
0.706249 0.529061 0.127291
0.739681 0.530663 0.127581
0.770809 0.532845 0.128267
0.800046 0.535561 0.129305
0.827741 0.538643 0.130571
0.854032 0.541955 0.132036
0.879408 0.545449 0.133623
0.904219 0.549065 0.135302
0.928634 0.552621 0.13695
0.95314 0.555962 0.138476
0.977676 0.559091 0.139879
1 0.561898 0.141054
0.0953841 0.517906 0.0987259
0.107332 0.524224 0.102373
0.119646 0.530694 0.106111
0.131991 0.53724 0.10988
0.144778 0.543725 0.113619
0.158389 0.549996 0.117266
0.173342 0.555978 0.12076
0.190311 0.561517 0.124025
0.210407 0.566308 0.126894
0.235126 0.569924 0.129107
0.26482 0.572244 0.130556
0.298329 0.573587 0.131365
0.335134 0.573999 0.131579
0.37435 0.573648 0.131243
0.415091 0.57319 0.130724
0.457221 0.572335 0.12987
0.50071 0.571145 0.12871
0.544305 0.569955 0.127459
0.587381 0.568887 0.126207
0.628763 0.568231 0.125154
0.667872 0.568185 0.124437
0.703761 0.569039 0.124269
0.736965 0.570535 0.124483
0.767605 0.572427 0.124971
0.796338 0.574853 0.125795
0.823636 0.577737 0.126909
0.849485 0.580835 0.128191
0.874311 0.584054 0.129564
0.898543 0.58735 0.130999
0.922393 0.590616 0.132418
0.946273 0.593637 0.133684
0.970214 0.596445 0.134829
0.994751 0.598993 0.135805
0.091722 0.554788 0.0949416
0.103868 0.561456 0.0987259
0.116258 0.568109 0.102495
0.128695 0.574853 0.106294
0.141588 0.581598 0.110124
0.155306 0.588098 0.113832
0.170382 0.594308 0.117388
0.187579 0.600183 0.12079
0.207874 0.605234 0.123781
0.232822 0.609064 0.126101
0.26276 0.611566 0.127672
0.296513 0.613031 0.128603
0.333577 0.613581 0.128939
0.373144 0.613443 0.128786
0.414054 0.612985 0.128328
0.456291 0.6121 0.127535
0.499596 0.610559 0.126253
0.543175 0.609232 0.125002
0.586191 0.608042 0.123751
0.627451 0.607217 0.122652
0.666316 0.606958 0.121843
0.70193 0.607584 0.121553
0.734798 0.608835 0.121645
0.765194 0.61059 0.122042
0.793545 0.612802 0.122713
0.82034 0.615366 0.123629
0.845655 0.618128 0.124681
0.869902 0.620966 0.125795
0.893462 0.62385 0.12694
0.916655 0.626719 0.128084
0.939879 0.629313 0.129091
0.963058 0.631647 0.129915
0.98677 0.633661 0.130541
0.0896315 0.591684 0.0926528
0.101946 0.598627 0.0965286
0.114565 0.605631 0.100435
0.12723 0.612741 0.104387
0.140322 0.619806 0.108324
0.154299 0.626688 0.112184
0.16965 0.633265 0.115908
0.187015 0.639323 0.119371
0.207492 0.644526 0.122408
0.232441 0.648142 0.124636
0.262547 0.65066 0.126238
0.296513 0.652094 0.127199
0.33373 0.652552 0.127535
0.373419 0.652293 0.127367
0.414405 0.651667 0.126894
0.456687 0.650599 0.12607
0.500191 0.649073 0.124865
0.543664 0.647471 0.123537
0.586557 0.646006 0.122179
0.627619 0.644892 0.120974
0.666087 0.64419 0.119982
0.701183 0.644312 0.119448
0.733654 0.645228 0.119356
0.763592 0.646632 0.119554
0.791394 0.648402 0.119982
0.817578 0.650507 0.120638
0.842329 0.652873 0.121447
0.865934 0.655268 0.122286
0.888747 0.657618 0.12311
0.911177 0.659937 0.123934
0.933715 0.662074 0.124636
0.956405 0.664103 0.125277
0.979431 0.665644 0.125628
0.0901503 0.629236 0.0928511
0.102708 0.636469 0.096849
0.115389 0.643442 0.10071
0.128237 0.650752 0.104723
0.141512 0.658 0.108721
0.155627 0.664988 0.112612
0.171084 0.671611 0.116335
0.188586 0.677714 0.119799
0.209201 0.682887 0.12282
0.234455 0.686671 0.125124
0.264729 0.689021 0.12668
0.298741 0.69015 0.127504
0.33611 0.690394 0.127779
0.375753 0.689708 0.127459
0.416754 0.688762 0.126864
0.459022 0.687388 0.125933
0.502464 0.685496 0.124605
0.545785 0.683497 0.12311
0.588464 0.68162 0.121599
0.629267 0.680095 0.120226
0.667506 0.679072 0.119097
0.702281 0.678828 0.118395
0.734279 0.679271 0.118074
0.763729 0.680217 0.118044
0.790967 0.681498 0.118212
0.81648 0.68304 0.118547
0.840543 0.684855 0.119051
0.863539 0.686763 0.119631
0.885725 0.688624 0.12018
0.907439 0.69041 0.120699
0.92929 0.692027 0.121111
0.951202 0.693462 0.121416
0.973846 0.694759 0.12163
0.0924697 0.666773 0.0947738
0.105241 0.674174 0.0988174
0.118242 0.681483 0.102831
0.131212 0.688823 0.106859
0.144488 0.695903 0.11075
0.158694 0.702846 0.114611
0.174182 0.709316 0.118227
0.19173 0.715267 0.121599
0.212421 0.720272 0.124529
0.237781 0.723827 0.126726
0.268132 0.725856 0.12813
0.302312 0.726787 0.128893
0.339757 0.726665 0.12903
0.379522 0.725704 0.128603
0.420478 0.7243 0.127825
0.462669 0.722469 0.126696
0.506004 0.720134 0.1252
0.549111 0.717632 0.123507
0.591501 0.715206 0.121752
0.631952 0.713146 0.12015
0.669856 0.711635 0.118807
0.704143 0.710826 0.117845
0.735546 0.710674 0.11722
0.764446 0.71107 0.116915
0.791135 0.711833 0.116838
0.816052 0.712856 0.116899
0.83946 0.714092 0.117113
0.86186 0.715511 0.117418
0.883513 0.716945 0.117739
0.904723 0.718318 0.118029
0.925978 0.719463 0.118196
0.947478 0.720592 0.118334
0.969482 0.721401 0.118273
0.0962997 0.704173 0.0981308
0.109224 0.711543 0.102174
0.122347 0.718791 0.106157
0.135393 0.726024 0.110109
0.148836 0.733135 0.114015
0.163073 0.739925 0.117769
0.178607 0.746212 0.121294
0.196139 0.751858 0.124514
0.216724 0.756359 0.127184
0.24213 0.759609 0.129244
0.272419 0.76109 0.130373
0.306615 0.761532 0.130922
0.34406 0.760952 0.130846
0.38381 0.759503 0.130205
0.424628 0.757534 0.129183
0.466651 0.755138 0.127825
0.509804 0.752255 0.126085
0.552666 0.749187 0.124147
0.594675 0.746105 0.122118
0.634745 0.74345 0.120256
0.672206 0.74136 0.118654
0.70605 0.740032 0.117449
0.737026 0.739361 0.116594
0.765454 0.739284 0.11606
0.791669 0.73959 0.11574
0.816114 0.740169 0.115587
0.839033 0.740963 0.115572
0.860883 0.741894 0.115633
0.882048 0.742916 0.11574
0.902815 0.743923 0.115846
0.923873 0.744915 0.115923
0.944762 0.745541 0.115816
0.966201 0.745892 0.115526
0.101289 0.741146 0.102586
0.114214 0.74818 0.106462
0.127382 0.75523 0.110338
0.140414 0.762188 0.114153
0.153826 0.769009 0.117906
0.168048 0.775479 0.121508
0.18352 0.781415 0.124849
0.200961 0.786633 0.127855
0.221592 0.790875 0.130388
0.246952 0.793622 0.132189
0.277287 0.79469 0.133135
0.311406 0.794537 0.133394
0.348775 0.793378 0.133059
0.388434 0.791333 0.132158
0.429084 0.788739 0.130846
0.470848 0.785641 0.129168
0.513726 0.782116 0.127153
0.556313 0.778454 0.124956
0.598001 0.774792 0.122683
0.637644 0.771496 0.120531
0.674693 0.768811 0.118669
0.708156 0.766979 0.117235
0.738781 0.765911 0.116197
0.766735 0.765316 0.115434
0.792447 0.765118 0.114885
0.81648 0.765286 0.114534
0.839017 0.765728 0.114336
0.860471 0.766293 0.114214
0.881315 0.767025 0.114183
0.901732 0.767742 0.114137
0.92221 0.768215 0.113954
0.942733 0.768536 0.113695
0.963867 0.768627 0.113283
0.106798 0.777081 0.107546
0.119814 0.783978 0.111345
0.132982 0.790692 0.115068
0.145953 0.797269 0.118685
0.159258 0.803632 0.12221
0.173327 0.809628 0.125566
0.188724 0.815152 0.128695
0.205997 0.819791 0.131395
0.226398 0.823362 0.133593
0.251606 0.825467 0.135088
0.281987 0.826154 0.135851
0.315938 0.825299 0.135775
0.353124 0.823407 0.135103
0.39263 0.820752 0.133913
0.433127 0.817578 0.132357
0.474647 0.81384 0.130388
0.51722 0.809628 0.128069
0.559533 0.805386 0.125628
0.600977 0.801205 0.12314
0.64033 0.797421 0.12079
0.676997 0.794217 0.118685
0.710094 0.791897 0.117052
0.740459 0.790494 0.115862
0.768017 0.789441 0.114885
0.793362 0.788861 0.114153
0.816999 0.788617 0.113603
0.839139 0.788678 0.113237
0.860471 0.78912 0.113054
0.880873 0.789441 0.112825
0.900847 0.789746 0.112581
0.920928 0.789883 0.112245
0.941314 0.790097 0.111925
0.962081 0.789868 0.11136
0.112474 0.811566 0.112673
0.125429 0.818006 0.116258
0.138506 0.824277 0.119738
0.151354 0.830381 0.12314
0.164492 0.836194 0.126375
0.178408 0.841688 0.129473
0.193591 0.846616 0.132311
0.210697 0.850721 0.134737
0.23093 0.853712 0.136645
0.25597 0.855192 0.137819
0.286076 0.855055 0.138186
0.319921 0.853605 0.137835
0.356893 0.851026 0.136843
0.396216 0.84773 0.135363
0.436637 0.844099 0.133608
0.478019 0.839872 0.131426
0.520378 0.835126 0.128893
0.562448 0.83032 0.126207
0.603632 0.82565 0.123507
0.642771 0.821439 0.120989
0.679377 0.818021 0.118822
0.712169 0.81529 0.116991
0.742 0.813245 0.115526
0.769238 0.811841 0.114382
0.794293 0.810925 0.113512
0.817838 0.810575 0.112917
0.839643 0.8103 0.112383
0.860426 0.810208 0.111955
0.880491 0.810224 0.111574
0.900389 0.810437 0.111299
0.920195 0.810315 0.110842
0.940093 0.810086 0.110307
0.960769 0.809781 0.109712
0.118044 0.844648 0.117693
0.130846 0.850507 0.121004
0.143771 0.856229 0.124208
0.156451 0.861784 0.127337
0.16936 0.866987 0.130266
0.182986 0.871778 0.132998
0.197925 0.876066 0.135515
