Grain/Grain/Resources/Luts/Cinema/CINECOLOR_ALIEN.cube
TITLE "Generated by Resolve"
LUT_3D_SIZE 5
0.0113069 0.0194705 0.0199588
0.134768 0.0345312 0.0345006
0.308614 0.035462 0.0316472
0.494331 0.0354772 0.0301976
0.632029 0.0546426 0.0509346
0.0574197 0.182818 0.0670329
0.188327 0.20708 0.0933242
0.388251 0.223285 0.108232
0.594995 0.250019 0.135348
0.755444 0.298939 0.187152
0.108324 0.431128 0.118471
0.26244 0.48368 0.1691
0.487007 0.515663 0.198779
0.687785 0.549645 0.233555
0.839963 0.591516 0.280629
0.217929 0.721477 0.238865
0.375967 0.760174 0.284916
0.587381 0.779126 0.306218
0.770047 0.798627 0.328283
0.905653 0.823224 0.359319
0.334218 0.948211 0.380819
0.485222 0.966293 0.404547
0.669032 0.970062 0.407385
0.834348 0.974792 0.410773
0.958968 0.988312 0.427085
0.0158541 0.024033 0.160952
0.13901 0.0391089 0.175784
0.313603 0.0399634 0.175814
0.500587 0.0413214 0.176791
0.64033 0.063035 0.199634
0.06421 0.189807 0.211444
0.197253 0.216663 0.239918
0.402197 0.23566 0.259998
0.610468 0.266072 0.292454
0.771099 0.316289 0.347082
0.122728 0.448478 0.27686
0.277913 0.500618 0.330571
0.502373 0.530892 0.363378
0.700633 0.563043 0.400397
0.851316 0.603677 0.448936
0.230137 0.734432 0.407599
0.388586 0.771115 0.453483
0.596887 0.788296 0.4748
0.776989 0.805859 0.495171
0.911101 0.828901 0.522179
0.341848 0.955047 0.541299
0.491234 0.971633 0.560281
0.672953 0.974304 0.562387
0.837705 0.97821 0.566171
0.962158 0.991714 0.580835
0.017319 0.0252232 0.358526
0.139544 0.0396582 0.375509
0.314626 0.0411231 0.377249
0.50309 0.0438849 0.382162
0.645197 0.0679637 0.412055
0.067216 0.193042 0.420645
0.202884 0.222568 0.456336
0.412009 0.244678 0.482307
0.621958 0.278157 0.518975
0.782361 0.329107 0.570642
0.133577 0.46125 0.50428
0.289281 0.512596 0.5552
0.513161 0.541726 0.584161
0.709651 0.573007 0.616266
0.859678 0.612741 0.657298
0.239231 0.743801 0.623377
0.397757 0.77911 0.66128
0.603479 0.794919 0.678187
0.781613 0.810697 0.69485
0.914015 0.832105 0.717525
0.34699 0.959274 0.735698
0.494316 0.974411 0.751583
0.674708 0.976013 0.753414
0.83856 0.979492 0.75668
0.96318 0.993057 0.77084
0.018143 0.0263828 0.55021
0.140597 0.0408179 0.565591
0.317174 0.0431373 0.56878
0.507881 0.0481575 0.574914
0.652537 0.075349 0.604242
0.0727855 0.198749 0.610681
0.211734 0.231876 0.645258
0.426017 0.257313 0.671641
0.636194 0.293431 0.70721
0.795575 0.344182 0.755199
0.146883 0.476844 0.69279
0.303075 0.527092 0.7402
0.526131 0.554391 0.766796
0.72108 0.584894 0.79707
0.869444 0.623285 0.835294
0.250355 0.755108 0.804105
0.40856 0.788479 0.838544
0.611093 0.802563 0.853346
0.787305 0.816648 0.867918
0.918013 0.836439 0.888334
0.35259 0.964385 0.90631
0.498421 0.97818 0.921019
0.677424 0.979049 0.921904
0.841138 0.982101 0.925444
0.965759 0.995972 0.93962
0.0235752 0.0319371 0.673625
0.146181 0.0468147 0.689006
0.325032 0.0503395 0.693309
0.518196 0.057847 0.702007
0.665827 0.088365 0.733898
0.0831922 0.209628 0.737591
0.225605 0.246387 0.774792
0.444633 0.274891 0.802899
0.653834 0.312642 0.838865
0.81149 0.362554 0.884672
0.163195 0.496025 0.82443
0.320333 0.544411 0.869963
0.542031 0.57023 0.895232
0.735241 0.599802 0.924498
0.882033 0.6365 0.960754
0.264363 0.769345 0.93135
0.422034 0.800443 0.963211
0.621485 0.812879 0.976379
0.795483 0.825055 0.989227
0.924849 0.843503 1
0.361105 0.972015 1
0.505531 0.98468 1
0.683391 0.984955 1
0.846555 0.987991 1
0.971496 1 1
