Grain/Grain/Resources/Luts/Cinema/CINECOLOR_PSYCHO.cube
TITLE "Generated by Resolve"
LUT_3D_SIZE 33
0.104234 0.104234 0.104234
0.104646 0.104646 0.104646
0.105989 0.105989 0.105989
0.107454 0.107454 0.107454
0.109178 0.109178 0.109178
0.110719 0.110719 0.110719
0.112627 0.112627 0.112627
0.114488 0.114488 0.114488
0.116365 0.116365 0.116365
0.118334 0.118334 0.118334
0.12047 0.12047 0.12047
0.122347 0.122347 0.122347
0.124559 0.124559 0.124559
0.126528 0.126528 0.126528
0.128832 0.128832 0.128832
0.13106 0.13106 0.13106
0.133227 0.133227 0.133227
0.135607 0.135607 0.135607
0.137804 0.137804 0.137804
0.140352 0.140352 0.140352
0.142733 0.142733 0.142733
0.14519 0.14519 0.14519
0.147875 0.147875 0.147875
0.150393 0.150393 0.150393
0.15314 0.15314 0.15314
0.155917 0.155917 0.155917
0.158831 0.158831 0.158831
0.161669 0.161669 0.161669
0.164843 0.164843 0.164843
0.167971 0.167971 0.167971
0.171099 0.171099 0.171099
0.174548 0.174548 0.174548
0.177981 0.177981 0.177981
0.108049 0.108049 0.108049
0.109773 0.109773 0.109773
0.111406 0.111406 0.111406
0.113359 0.113359 0.113359
0.115251 0.115251 0.115251
0.117159 0.117159 0.117159
0.119142 0.119142 0.119142
0.121187 0.121187 0.121187
0.123232 0.123232 0.123232
0.125475 0.125475 0.125475
0.127474 0.127474 0.127474
0.129717 0.129717 0.129717
0.131884 0.131884 0.131884
0.134188 0.134188 0.134188
0.13666 0.13666 0.13666
0.138888 0.138888 0.138888
0.141375 0.141375 0.141375
0.143771 0.143771 0.143771
0.146319 0.146319 0.146319
0.148806 0.148806 0.148806
0.151568 0.151568 0.151568
0.154147 0.154147 0.154147
0.157061 0.157061 0.157061
0.159915 0.159915 0.159915
0.162966 0.162966 0.162966
0.165957 0.165957 0.165957
0.169345 0.169345 0.169345
0.172534 0.172534 0.172534
0.175967 0.175967 0.175967
0.179507 0.179507 0.179507
0.183169 0.183169 0.183169
0.187366 0.187366 0.187366
0.191363 0.191363 0.191363
0.114 0.114 0.114
0.115846 0.115846 0.115846
0.117845 0.117845 0.117845
0.119905 0.119905 0.119905
0.12192 0.12192 0.12192
0.124025 0.124025 0.124025
0.126146 0.126146 0.126146
0.128328 0.128328 0.128328
0.130571 0.130571 0.130571
0.132815 0.132815 0.132815
0.135134 0.135134 0.135134
0.137514 0.137514 0.137514
0.139895 0.139895 0.139895
0.142367 0.142367 0.142367
0.144854 0.144854 0.144854
0.147417 0.147417 0.147417
0.149889 0.149889 0.149889
0.152728 0.152728 0.152728
0.155337 0.155337 0.155337
0.158221 0.158221 0.158221
0.161074 0.161074 0.161074
0.164248 0.164248 0.164248
0.167254 0.167254 0.167254
0.170459 0.170459 0.170459
0.173861 0.173861 0.173861
0.177295 0.177295 0.177295
0.181033 0.181033 0.181033
0.184771 0.184771 0.184771
0.188693 0.188693 0.188693
0.192935 0.192935 0.192935
0.197162 0.197162 0.197162
0.201709 0.201709 0.201709
0.206699 0.206699 0.206699
0.120607 0.120607 0.120607
0.122545 0.122545 0.122545
0.124804 0.124804 0.124804
0.126802 0.126802 0.126802
0.129152 0.129152 0.129152
0.131365 0.131365 0.131365
0.133562 0.133562 0.133562
0.136049 0.136049 0.136049
0.138277 0.138277 0.138277
0.140871 0.140871 0.140871
0.143191 0.143191 0.143191
0.145754 0.145754 0.145754
0.148318 0.148318 0.148318
0.150988 0.150988 0.150988
0.153567 0.153567 0.153567
0.156512 0.156512 0.156512
0.15938 0.15938 0.15938
0.16228 0.16228 0.16228
0.16524 0.16524 0.16524
0.168582 0.168582 0.168582
0.171725 0.171725 0.171725
0.175174 0.175174 0.175174
0.178607 0.178607 0.178607
0.182467 0.182467 0.182467
0.186374 0.186374 0.186374
0.190341 0.190341 0.190341
0.194522 0.194522 0.194522
0.198947 0.198947 0.198947
0.203494 0.203494 0.203494
0.208347 0.208347 0.208347
0.213687 0.213687 0.213687
0.219059 0.219059 0.219059
0.224643 0.224643 0.224643
0.127565 0.127565 0.127565
0.129809 0.129809 0.129809
0.132052 0.132052 0.132052
0.134401 0.134401 0.134401
0.136904 0.136904 0.136904
0.139178 0.139178 0.139178
0.141665 0.141665 0.141665
0.144152 0.144152 0.144152
0.146746 0.146746 0.146746
0.149218 0.149218 0.149218
0.152056 0.152056 0.152056
0.154665 0.154665 0.154665
0.157534 0.157534 0.157534
0.160464 0.160464 0.160464
0.163531 0.163531 0.163531
0.166522 0.166522 0.166522
0.169879 0.169879 0.169879
0.173098 0.173098 0.173098
0.176425 0.176425 0.176425
0.180102 0.180102 0.180102
0.18378 0.18378 0.18378
0.187884 0.187884 0.187884
0.192004 0.192004 0.192004
0.19617 0.19617 0.19617
0.200595 0.200595 0.200595
0.205417 0.205417 0.205417
0.210376 0.210376 0.210376
0.21561 0.21561 0.21561
0.221057 0.221057 0.221057
0.226963 0.226963 0.226963
0.233036 0.233036 0.233036
0.239521 0.239521 0.239521
0.246342 0.246342 0.246342
0.135195 0.135195 0.135195
0.137545 0.137545 0.137545
0.140032 0.140032 0.140032
0.142519 0.142519 0.142519
0.145037 0.145037 0.145037
0.147692 0.147692 0.147692
0.150195 0.150195 0.150195
0.153079 0.153079 0.153079
0.155734 0.155734 0.155734
0.158663 0.158663 0.158663
0.161501 0.161501 0.161501
0.164736 0.164736 0.164736
0.167788 0.167788 0.167788
0.170916 0.170916 0.170916
0.174334 0.174334 0.174334
0.177859 0.177859 0.177859
0.181613 0.181613 0.181613
0.185367 0.185367 0.185367
0.189273 0.189273 0.189273
0.19353 0.19353 0.19353
0.197757 0.197757 0.197757
0.202228 0.202228 0.202228
0.207324 0.207324 0.207324
0.212436 0.212436 0.212436
0.217762 0.217762 0.217762
0.223285 0.223285 0.223285
0.229114 0.229114 0.229114
0.235355 0.235355 0.235355
0.24213 0.24213 0.24213
0.248997 0.248997 0.248997
0.256168 0.256168 0.256168
0.263432 0.263432 0.263432
0.271046 0.271046 0.271046
0.143221 0.143221 0.143221
0.145815 0.145815 0.145815
0.148425 0.148425 0.148425
0.151141 0.151141 0.151141
0.15375 0.15375 0.15375
0.156771 0.156771 0.156771
0.159594 0.159594 0.159594
0.162631 0.162631 0.162631
0.165621 0.165621 0.165621
0.169009 0.169009 0.169009
0.172198 0.172198 0.172198
0.175677 0.175677 0.175677
0.179141 0.179141 0.179141
0.182818 0.182818 0.182818
0.186954 0.186954 0.186954
0.190936 0.190936 0.190936
0.195056 0.195056 0.195056
0.199557 0.199557 0.199557
0.20412 0.20412 0.20412
0.208988 0.208988 0.208988
0.214176 0.214176 0.214176
0.21973 0.21973 0.21973
0.22533 0.22533 0.22533
0.231281 0.231281 0.231281
0.237659 0.237659 0.237659
0.244419 0.244419 0.244419
0.251423 0.251423 0.251423
0.258671 0.258671 0.258671
0.266148 0.266148 0.266148
0.273854 0.273854 0.273854
0.281758 0.281758 0.281758
0.289876 0.289876 0.289876
0.297932 0.297932 0.297932
0.152041 0.152041 0.152041
0.154696 0.154696 0.154696
0.15761 0.15761 0.15761
0.160586 0.160586 0.160586
0.163699 0.163699 0.163699
0.166735 0.166735 0.166735
0.170062 0.170062 0.170062
0.173419 0.173419 0.173419
0.176791 0.176791 0.176791
0.180514 0.180514 0.180514
0.184253 0.184253 0.184253
0.188296 0.188296 0.188296
0.192493 0.192493 0.192493
0.196735 0.196735 0.196735
0.201144 0.201144 0.201144
0.206027 0.206027 0.206027
0.211002 0.211002 0.211002
0.216251 0.216251 0.216251
0.221698 0.221698 0.221698
0.227451 0.227451 0.227451
0.233722 0.233722 0.233722
0.240238 0.240238 0.240238
0.247074 0.247074 0.247074
0.25417 0.25417 0.25417
0.261509 0.261509 0.261509
0.269032 0.269032 0.269032
0.276631 0.276631 0.276631
0.284611 0.284611 0.284611
0.292805 0.292805 0.292805
0.301167 0.301167 0.301167
0.309712 0.309712 0.309712
0.318227 0.318227 0.318227
0.326802 0.326802 0.326802
0.16144 0.16144 0.16144
0.164721 0.164721 0.164721
0.167819 0.167819 0.167819
0.170993 0.170993 0.170993
0.174456 0.174456 0.174456
0.178027 0.178027 0.178027
0.181857 0.181857 0.181857
0.185672 0.185672 0.185672
0.189639 0.189639 0.189639
0.193942 0.193942 0.193942
0.198215 0.198215 0.198215
0.202731 0.202731 0.202731
0.207675 0.207675 0.207675
0.212985 0.212985 0.212985
0.218326 0.218326 0.218326
0.22385 0.22385 0.22385
0.22974 0.22974 0.22974
0.235981 0.235981 0.235981
0.242542 0.242542 0.242542
0.24947 0.24947 0.24947
0.256672 0.256672 0.256672
0.264118 0.264118 0.264118
0.271763 0.271763 0.271763
0.279606 0.279606 0.279606
0.287495 0.287495 0.287495
0.295781 0.295781 0.295781
0.30399 0.30399 0.30399
0.312505 0.312505 0.312505
0.321294 0.321294 0.321294
0.330205 0.330205 0.330205
0.339254 0.339254 0.339254
0.348363 0.348363 0.348363
0.357382 0.357382 0.357382
0.172076 0.172076 0.172076
0.175601 0.175601 0.175601
0.17911 0.17911 0.17911
0.182818 0.182818 0.182818
0.18703 0.18703 0.18703
0.191073 0.191073 0.191073
0.195254 0.195254 0.195254
0.199817 0.199817 0.199817
0.20444 0.20444 0.20444
0.209369 0.209369 0.209369
0.214588 0.214588 0.214588
0.220218 0.220218 0.220218
0.225864 0.225864 0.225864
0.231861 0.231861 0.231861
0.23827 0.23827 0.23827
0.245029 0.245029 0.245029
0.252033 0.252033 0.252033
0.259297 0.259297 0.259297
0.266758 0.266758 0.266758
0.274464 0.274464 0.274464
0.282368 0.282368 0.282368
0.290303 0.290303 0.290303
0.298589 0.298589 0.298589
0.307088 0.307088 0.307088
0.315755 0.315755 0.315755
0.32459 0.32459 0.32459
0.333333 0.333333 0.333333
0.342168 0.342168 0.342168
0.3514 0.3514 0.3514
0.360708 0.360708 0.360708
0.370123 0.370123 0.370123
0.379355 0.379355 0.379355
0.388754 0.388754 0.388754
0.184054 0.184054 0.184054
0.18819 0.18819 0.18819
0.192294 0.192294 0.192294
0.196643 0.196643 0.196643
0.20116 0.20116 0.20116
0.206119 0.206119 0.206119
0.21117 0.21117 0.21117
0.216464 0.216464 0.216464
0.221988 0.221988 0.221988
0.227756 0.227756 0.227756
0.234134 0.234134 0.234134
0.240711 0.240711 0.240711
0.247593 0.247593 0.247593
0.254704 0.254704 0.254704
0.262043 0.262043 0.262043
0.269398 0.269398 0.269398
0.27718 0.27718 0.27718
0.285161 0.285161 0.285161
0.293355 0.293355 0.293355
0.301701 0.301701 0.301701
0.310231 0.310231 0.310231
0.318593 0.318593 0.318593
0.327352 0.327352 0.327352
0.33637 0.33637 0.33637
0.345525 0.345525 0.345525
0.354788 0.354788 0.354788
0.363897 0.363897 0.363897
0.373098 0.373098 0.373098
0.382605 0.382605 0.382605
0.392142 0.392142 0.392142
0.401541 0.401541 0.401541
0.411063 0.411063 0.411063
0.420478 0.420478 0.420478
0.19794 0.19794 0.19794
0.202502 0.202502 0.202502
0.207462 0.207462 0.207462
0.212726 0.212726 0.212726
0.218128 0.218128 0.218128
0.223713 0.223713 0.223713
0.229755 0.229755 0.229755
0.235981 0.235981 0.235981
0.242649 0.242649 0.242649
0.249699 0.249699 0.249699
0.256931 0.256931 0.256931
0.26453 0.26453 0.26453
0.27219 0.27219 0.27219
0.279942 0.279942 0.279942
0.287907 0.287907 0.287907
0.296162 0.296162 0.296162
0.304356 0.304356 0.304356
0.312963 0.312963 0.312963
0.321721 0.321721 0.321721
0.330632 0.330632 0.330632
0.339681 0.339681 0.339681
0.348608 0.348608 0.348608
0.357702 0.357702 0.357702
0.367041 0.367041 0.367041
0.376516 0.376516 0.376516
0.385794 0.385794 0.385794
0.395346 0.395346 0.395346
0.404685 0.404685 0.404685
0.414282 0.414282 0.414282
0.423713 0.423713 0.423713
0.433448 0.433448 0.433448
0.443259 0.443259 0.443259
0.453208 0.453208 0.453208
0.214221 0.214221 0.214221
0.219883 0.219883 0.219883
0.225589 0.225589 0.225589
0.231647 0.231647 0.231647
0.238117 0.238117 0.238117
0.244953 0.244953 0.244953
0.252033 0.252033 0.252033
0.259358 0.259358 0.259358
0.266911 0.266911 0.266911
0.274678 0.274678 0.274678
0.282597 0.282597 0.282597
0.290578 0.290578 0.290578
0.298924 0.298924 0.298924
0.307439 0.307439 0.307439
0.316121 0.316121 0.316121
0.324941 0.324941 0.324941
0.333639 0.333639 0.333639
0.342519 0.342519 0.342519
0.351736 0.351736 0.351736
0.361028 0.361028 0.361028
0.370352 0.370352 0.370352
0.37966 0.37966 0.37966
0.388998 0.388998 0.388998
0.398505 0.398505 0.398505
0.408072 0.408072 0.408072
0.417472 0.417472 0.417472
0.427161 0.427161 0.427161
0.436728 0.436728 0.436728
0.446586 0.446586 0.446586
0.456611 0.456611 0.456611
0.466972 0.466972 0.466972
0.477256 0.477256 0.477256
0.487617 0.487617 0.487617
0.233631 0.233631 0.233631
0.240269 0.240269 0.240269
0.247211 0.247211 0.247211
0.254398 0.254398 0.254398
0.261662 0.261662 0.261662
0.269245 0.269245 0.269245
0.277104 0.277104 0.277104
0.285176 0.285176 0.285176
0.293416 0.293416 0.293416
0.301839 0.301839 0.301839
0.310384 0.310384 0.310384
0.318715 0.318715 0.318715
0.327611 0.327611 0.327611
0.336645 0.336645 0.336645
0.345815 0.345815 0.345815
0.35491 0.35491 0.35491
0.364157 0.364157 0.364157
0.373342 0.373342 0.373342
0.382834 0.382834 0.382834
0.392248 0.392248 0.392248
0.401663 0.401663 0.401663
0.411261 0.411261 0.411261
0.42063 0.42063 0.42063
0.430365 0.430365 0.430365
0.439994 0.439994 0.439994
0.450034 0.450034 0.450034
0.460029 0.460029 0.460029
0.470329 0.470329 0.470329
0.480751 0.480751 0.480751
0.491417 0.491417 0.491417
0.502052 0.502052 0.502052
0.512718 0.512718 0.512718
0.523644 0.523644 0.523644
0.256504 0.256504 0.256504
0.264012 0.264012 0.264012
0.271763 0.271763 0.271763
0.279667 0.279667 0.279667
0.287617 0.287617 0.287617
0.295842 0.295842 0.295842
0.304219 0.304219 0.304219
0.312917 0.312917 0.312917
0.321736 0.321736 0.321736
0.330709 0.330709 0.330709
0.339788 0.339788 0.339788
0.348745 0.348745 0.348745
0.357839 0.357839 0.357839
0.367239 0.367239 0.367239
0.376715 0.376715 0.376715
0.385977 0.385977 0.385977
0.395514 0.395514 0.395514
0.404852 0.404852 0.404852
0.414435 0.414435 0.414435
0.423819 0.423819 0.423819
0.433585 0.433585 0.433585
0.443366 0.443366 0.443366
0.453315 0.453315 0.453315
0.463416 0.463416 0.463416
0.473899 0.473899 0.473899
0.48426 0.48426 0.48426
0.49482 0.49482 0.49482
0.505653 0.505653 0.505653
0.51635 0.51635 0.51635
0.527382 0.527382 0.527382
0.538277 0.538277 0.538277
0.549187 0.549187 0.549187
0.560357 0.560357 0.560357
0.281773 0.281773 0.281773
0.289998 0.289998 0.289998
0.298421 0.298421 0.298421
0.306996 0.306996 0.306996
0.315755 0.315755 0.315755
0.324498 0.324498 0.324498
0.333471 0.333471 0.333471
0.342397 0.342397 0.342397
0.351675 0.351675 0.351675
0.361028 0.361028 0.361028
0.370245 0.370245 0.370245
0.379751 0.379751 0.379751
0.389075 0.389075 0.389075
0.398627 0.398627 0.398627
0.407996 0.407996 0.407996
0.417594 0.417594 0.417594
0.427268 0.427268 0.427268
0.436835 0.436835 0.436835
0.446555 0.446555 0.446555
0.456703 0.456703 0.456703
0.467063 0.467063 0.467063
0.477272 0.477272 0.477272
0.487724 0.487724 0.487724
0.498543 0.498543 0.498543
0.509224 0.509224 0.509224
0.519951 0.519951 0.519951
0.531044 0.531044 0.531044
0.541939 0.541939 0.541939
0.552819 0.552819 0.552819
0.563897 0.563897 0.563897
0.574975 0.574975 0.574975
0.585855 0.585855 0.585855
0.596735 0.596735 0.596735
0.309575 0.309575 0.309575
0.318135 0.318135 0.318135
0.327031 0.327031 0.327031
0.336141 0.336141 0.336141
0.345373 0.345373 0.345373
0.354452 0.354452 0.354452
0.363882 0.363882 0.363882
0.373144 0.373144 0.373144
0.382696 0.382696 0.382696
0.39202 0.39202 0.39202
0.401648 0.401648 0.401648
0.411261 0.411261 0.411261
0.420661 0.420661 0.420661
0.43032 0.43032 0.43032
0.440055 0.440055 0.440055
0.450095 0.450095 0.450095
0.460075 0.460075 0.460075
0.470237 0.470237 0.470237
0.480797 0.480797 0.480797
0.491432 0.491432 0.491432
0.501915 0.501915 0.501915
0.512734 0.512734 0.512734
0.523674 0.523674 0.523674
0.53463 0.53463 0.53463
0.545525 0.545525 0.545525
0.556451 0.556451 0.556451
0.567666 0.567666 0.567666
0.578576 0.578576 0.578576
0.589487 0.589487 0.589487
0.600595 0.600595 0.600595
0.611353 0.611353 0.611353
0.622034 0.622034 0.622034
0.632868 0.632868 0.632868
0.33875 0.33875 0.33875
0.348043 0.348043 0.348043
0.357351 0.357351 0.357351
0.366644 0.366644 0.366644
0.376043 0.376043 0.376043
0.385534 0.385534 0.385534
0.395148 0.395148 0.395148
0.404562 0.404562 0.404562
0.414084 0.414084 0.414084
0.423667 0.423667 0.423667
0.433494 0.433494 0.433494
0.44332 0.44332 0.44332
0.453071 0.453071 0.453071
0.463401 0.463401 0.463401
0.473899 0.473899 0.473899
0.484245 0.484245 0.484245
0.494743 0.494743 0.494743
0.505623 0.505623 0.505623
0.516335 0.516335 0.516335
0.527092 0.527092 0.527092
0.538216 0.538216 0.538216
0.549111 0.549111 0.549111
0.560143 0.560143 0.560143
0.571252 0.571252 0.571252
0.582162 0.582162 0.582162
0.593317 0.593317 0.593317
0.604059 0.604059 0.604059
0.614893 0.614893 0.614893
0.625788 0.625788 0.625788
0.636316 0.636316 0.636316
0.646708 0.646708 0.646708
0.657191 0.657191 0.657191
0.667491 0.667491 0.667491
0.36936 0.36936 0.36936
0.378958 0.378958 0.378958
0.388525 0.388525 0.388525
0.397986 0.397986 0.397986
0.407401 0.407401 0.407401
0.417075 0.417075 0.417075
0.426856 0.426856 0.426856
0.436515 0.436515 0.436515
0.446296 0.446296 0.446296
0.456519 0.456519 0.456519
0.466941 0.466941 0.466941
0.476982 0.476982 0.476982
0.487648 0.487648 0.487648
0.498482 0.498482 0.498482
0.509041 0.509041 0.509041
0.519875 0.519875 0.519875
0.530968 0.530968 0.530968
0.541848 0.541848 0.541848
0.552728 0.552728 0.552728
0.563821 0.563821 0.563821
0.574853 0.574853 0.574853
0.585718 0.585718 0.585718
0.596628 0.596628 0.596628
0.607675 0.607675 0.607675
0.618357 0.618357 0.618357
0.629053 0.629053 0.629053
0.63975 0.63975 0.63975
0.650324 0.650324 0.650324
0.660487 0.660487 0.660487
0.670481 0.670481 0.670481
0.680507 0.680507 0.680507
0.690303 0.690303 0.690303
0.699672 0.699672 0.699672
0.400763 0.400763 0.400763
0.410452 0.410452 0.410452
0.420111 0.420111 0.420111
0.429511 0.429511 0.429511
0.43949 0.43949 0.43949
0.449607 0.449607 0.449607
0.45977 0.45977 0.45977
0.469917 0.469917 0.469917
0.480537 0.480537 0.480537
0.491295 0.491295 0.491295
0.501671 0.501671 0.501671
0.512642 0.512642 0.512642
0.523613 0.523613 0.523613
0.534295 0.534295 0.534295
0.545449 0.545449 0.545449
0.55639 0.55639 0.55639
0.567452 0.567452 0.567452
0.57847 0.57847 0.57847
0.589364 0.589364 0.589364
0.600458 0.600458 0.600458
0.6112 0.6112 0.6112
0.621866 0.621866 0.621866
0.6327 0.6327 0.6327
0.643122 0.643122 0.643122
0.653544 0.653544 0.653544
0.663783 0.663783 0.663783
0.673961 0.673961 0.673961
0.68365 0.68365 0.68365
0.693385 0.693385 0.693385
0.702647 0.702647 0.702647
0.71194 0.71194 0.71194
0.721019 0.721019 0.721019
0.729702 0.729702 0.729702
0.43267 0.43267 0.43267
0.44271 0.44271 0.44271
0.452399 0.452399 0.452399
0.462806 0.462806 0.462806
0.473365 0.473365 0.473365
0.483726 0.483726 0.483726
0.494377 0.494377 0.494377
0.505333 0.505333 0.505333
0.516106 0.516106 0.516106
0.526955 0.526955 0.526955
0.538125 0.538125 0.538125
0.54905 0.54905 0.54905
0.559976 0.559976 0.559976
0.571206 0.571206 0.571206
0.582132 0.582132 0.582132
0.592996 0.592996 0.592996
0.603998 0.603998 0.603998
0.614801 0.614801 0.614801
0.625681 0.625681 0.625681
0.636194 0.636194 0.636194
0.646555 0.646555 0.646555
0.657023 0.657023 0.657023
0.667109 0.667109 0.667109
0.67715 0.67715 0.67715
0.686778 0.686778 0.686778
0.696452 0.696452 0.696452
0.705867 0.705867 0.705867
0.71487 0.71487 0.71487
0.723873 0.723873 0.723873
0.732662 0.732662 0.732662
0.741238 0.741238 0.741238
0.749599 0.749599 0.749599
0.757763 0.757763 0.757763
0.466209 0.466209 0.466209
0.476326 0.476326 0.476326
0.487068 0.487068 0.487068
0.497993 0.497993 0.497993
0.508461 0.508461 0.508461
0.519524 0.519524 0.519524
0.530709 0.530709 0.530709
0.541421 0.541421 0.541421
0.552605 0.552605 0.552605
0.56376 0.56376 0.56376
0.574731 0.574731 0.574731
0.585733 0.585733 0.585733
0.596643 0.596643 0.596643
0.607691 0.607691 0.607691
0.618387 0.618387 0.618387
0.629053 0.629053 0.629053
0.639735 0.639735 0.639735
0.650065 0.650065 0.650065
0.660441 0.660441 0.660441
0.67039 0.67039 0.67039
0.6804 0.6804 0.6804
0.690181 0.690181 0.690181
0.699519 0.699519 0.699519
0.708873 0.708873 0.708873
0.718029 0.718029 0.718029
0.726848 0.726848 0.726848
0.735439 0.735439 0.735439
0.743816 0.743816 0.743816
0.75201 0.75201 0.75201
0.760098 0.760098 0.760098
0.767971 0.767971 0.767971
0.775906 0.775906 0.775906
0.783383 0.783383 0.783383
0.50106 0.50106 0.50106
0.512108 0.512108 0.512108
0.523232 0.523232 0.523232
0.533913 0.533913 0.533913
0.545144 0.545144 0.545144
0.556222 0.556222 0.556222
0.567147 0.567147 0.567147
0.578378 0.578378 0.578378
0.589334 0.589334 0.589334
0.600275 0.600275 0.600275
0.611276 0.611276 0.611276
0.621973 0.621973 0.621973
0.632807 0.632807 0.632807
0.643229 0.643229 0.643229
0.653605 0.653605 0.653605
0.663859 0.663859 0.663859
0.673945 0.673945 0.673945
0.683665 0.683665 0.683665
0.693385 0.693385 0.693385
0.702632 0.702632 0.702632
0.711894 0.711894 0.711894
0.720958 0.720958 0.720958
0.729564 0.729564 0.729564
0.738216 0.738216 0.738216
0.746639 0.746639 0.746639
0.754879 0.754879 0.754879
0.762905 0.762905 0.762905
0.770703 0.770703 0.770703
0.778317 0.778317 0.778317
0.785687 0.785687 0.785687
0.792737 0.792737 0.792737
0.8 0.8 0.8
0.806897 0.806897 0.806897
0.537652 0.537652 0.537652
0.54847 0.54847 0.54847
0.55967 0.55967 0.55967
0.570947 0.570947 0.570947
0.581888 0.581888 0.581888
0.592874 0.592874 0.592874
0.603967 0.603967 0.603967
0.614816 0.614816 0.614816
0.625498 0.625498 0.625498
0.636316 0.636316 0.636316
0.646723 0.646723 0.646723
0.657206 0.657206 0.657206
0.667247 0.667247 0.667247
0.677333 0.677333 0.677333
0.686931 0.686931 0.686931
0.69659 0.69659 0.69659
0.70576 0.70576 0.70576
0.714961 0.714961 0.714961
0.723934 0.723934 0.723934
0.732708 0.732708 0.732708
0.741253 0.741253 0.741253
0.749599 0.749599 0.749599
0.757687 0.757687 0.757687
0.765454 0.765454 0.765454
0.773205 0.773205 0.773205
0.780743 0.780743 0.780743
0.788098 0.788098 0.788098
0.79527 0.79527 0.79527
0.802258 0.802258 0.802258
0.809216 0.809216 0.809216
0.815991 0.815991 0.815991
0.822522 0.822522 0.822522
0.828916 0.828916 0.828916
0.574182 0.574182 0.574182
0.585443 0.585443 0.585443
0.596475 0.596475 0.596475
0.607385 0.607385 0.607385
0.61828 0.61828 0.61828
0.629038 0.629038 0.629038
0.63975 0.63975 0.63975
0.650111 0.650111 0.650111
0.660578 0.660578 0.660578
0.670588 0.670588 0.670588
0.680598 0.680598 0.680598
0.690227 0.690227 0.690227
0.699748 0.699748 0.699748
0.709102 0.709102 0.709102
0.718242 0.718242 0.718242
0.726986 0.726986 0.726986
0.735454 0.735454 0.735454
0.743908 0.743908 0.743908
0.752102 0.752102 0.752102
0.760174 0.760174 0.760174
0.768017 0.768017 0.768017
0.775937 0.775937 0.775937
0.783413 0.783413 0.783413
0.790677 0.790677 0.790677
0.797787 0.797787 0.797787
0.804715 0.804715 0.804715
0.81149 0.81149 0.81149
0.818112 0.818112 0.818112
0.82475 0.82475 0.82475
0.831205 0.831205 0.831205
0.8374 0.8374 0.8374
0.843473 0.843473 0.843473
0.849668 0.849668 0.849668
0.610971 0.610971 0.610971
0.621744 0.621744 0.621744
0.632471 0.632471 0.632471
0.643137 0.643137 0.643137
0.653574 0.653574 0.653574
0.663874 0.663874 0.663874
0.673823 0.673823 0.673823
0.683787 0.683787 0.683787
0.693553 0.693553 0.693553
0.702831 0.702831 0.702831
0.712077 0.712077 0.712077
0.720974 0.720974 0.720974
0.729809 0.729809 0.729809
0.73846 0.73846 0.73846
0.746868 0.746868 0.746868
0.755077 0.755077 0.755077
0.763073 0.763073 0.763073
0.77084 0.77084 0.77084
0.778424 0.778424 0.778424
0.785611 0.785611 0.785611
0.792798 0.792798 0.792798
0.800046 0.800046 0.800046
0.806958 0.806958 0.806958
0.813672 0.813672 0.813672
0.820249 0.820249 0.820249
0.826688 0.826688 0.826688
0.833112 0.833112 0.833112
0.83946 0.83946 0.83946
0.845563 0.845563 0.845563
0.851591 0.851591 0.851591
0.857694 0.857694 0.857694
0.863645 0.863645 0.863645
0.869444 0.869444 0.869444
0.646448 0.646448 0.646448
0.656886 0.656886 0.656886
0.667094 0.667094 0.667094
0.677241 0.677241 0.677241
0.6869 0.6869 0.6869
0.69659 0.69659 0.69659
0.705821 0.705821 0.705821
0.715068 0.715068 0.715068
0.724102 0.724102 0.724102
0.732906 0.732906 0.732906
0.741482 0.741482 0.741482
0.749844 0.749844 0.749844
0.757748 0.757748 0.757748
0.765682 0.765682 0.765682
0.773419 0.773419 0.773419
0.780941 0.780941 0.780941
0.788266 0.788266 0.788266
0.795392 0.795392 0.795392
0.802365 0.802365 0.802365
0.809293 0.809293 0.809293
0.816068 0.816068 0.816068
0.822583 0.822583 0.822583
0.828977 0.828977 0.828977
0.835248 0.835248 0.835248
0.841657 0.841657 0.841657
0.847761 0.847761 0.847761
0.853742 0.853742 0.853742
0.859648 0.859648 0.859648
0.86566 0.86566 0.86566
0.87155 0.87155 0.87155
0.877287 0.877287 0.877287
0.882963 0.882963 0.882963
0.888884 0.888884 0.888884
0.68014 0.68014 0.68014
0.689921 0.689921 0.689921
0.699565 0.699565 0.699565
0.708965 0.708965 0.708965
0.718151 0.718151 0.718151
0.72697 0.72697 0.72697
0.735378 0.735378 0.735378
