Grain/Grain/Resources/Luts/Cinema/CINECOLOR_ALIEN.cube
TITLE "Generated by Resolve"
LUT_3D_SIZE 33
0.0113069 0.0194705 0.0199588
0.0243229 0.0213626 0.0218662
0.0389868 0.0237278 0.0244144
0.0534981 0.0259403 0.0267338
0.0684367 0.0282902 0.02916
0.0838178 0.0301671 0.0309606
0.0995956 0.0318761 0.032639
0.116747 0.0334936 0.0339666
0.134768 0.0345312 0.0345006
0.153994 0.035462 0.0349432
0.17435 0.0358892 0.0348363
0.195468 0.0360266 0.0344549
0.217472 0.0362402 0.034165
0.239612 0.0361181 0.0335546
0.262013 0.0361028 0.0330968
0.284947 0.035935 0.032517
0.308614 0.035462 0.0316472
0.333104 0.0350958 0.0308995
0.357748 0.0344396 0.0298924
0.382559 0.0337987 0.0289464
0.406973 0.0336004 0.0285801
0.430426 0.0334325 0.0283665
0.45275 0.0336614 0.0284733
0.474235 0.0344854 0.0292363
0.494331 0.0354772 0.0301976
0.51313 0.0369421 0.0315099
0.531487 0.0388952 0.033814
0.548623 0.0410315 0.0361181
0.565362 0.0434272 0.038468
0.581994 0.0459297 0.0414435
0.59855 0.0488746 0.0445106
0.615106 0.0517433 0.0476692
0.632029 0.0546426 0.0509346
0.0171969 0.0392462 0.0263218
0.0307317 0.0416419 0.0288701
0.0452125 0.0440528 0.0311742
0.0597848 0.0460365 0.0335241
0.0745403 0.048249 0.0358282
0.0895705 0.0500649 0.0375219
0.105379 0.0516518 0.0388952
0.122286 0.0532387 0.0402075
0.140444 0.0541848 0.0408942
0.159472 0.054902 0.0411383
0.180117 0.0554971 0.0412299
0.201251 0.0556802 0.0408942
0.223346 0.0559091 0.0406348
0.245655 0.0558175 0.0400854
0.268132 0.0557259 0.0395819
0.291417 0.0557565 0.0392309
0.315419 0.0553445 0.0384833
0.340185 0.0548409 0.0376135
0.365377 0.0545052 0.0369726
0.390234 0.054078 0.0362707
0.414618 0.0538643 0.0358282
0.438407 0.0541848 0.0360113
0.460975 0.0546426 0.0365301
0.482551 0.0554971 0.0374762
0.503059 0.057084 0.0388952
0.522103 0.0588846 0.0408179
0.540444 0.0609751 0.0433509
0.5579 0.0634928 0.0458534
0.575006 0.0665293 0.0491798
0.59205 0.0694591 0.0523842
0.608865 0.0725719 0.0558175
0.626001 0.0757458 0.0593423
0.643244 0.079057 0.0629892
0.0231632 0.0593576 0.0332494
0.0372473 0.0614023 0.0357061
0.0515908 0.0637064 0.0379187
0.0657206 0.0657206 0.0400702
0.0802167 0.067689 0.0421302
0.095552 0.0695964 0.0443275
0.11136 0.0711986 0.0456092
0.128435 0.0727398 0.0469062
0.146304 0.0738079 0.0475013
0.16553 0.0745403 0.047776
0.18613 0.075227 0.0479744
0.207446 0.0754711 0.047776
0.229526 0.0755474 0.0474556
0.252354 0.0757763 0.0473335
0.275196 0.0757763 0.0469825
0.298787 0.0758373 0.0466926
0.32314 0.0756847 0.0461891
0.348257 0.0753033 0.0454871
0.373632 0.0749523 0.0448615
0.399039 0.0750134 0.0446784
0.423758 0.0750591 0.0445563
0.447623 0.0755016 0.0448768
0.470588 0.0765545 0.0459297
0.492546 0.07776 0.0471809
0.512856 0.0795453 0.0490883
0.532296 0.0817273 0.0514534
0.550774 0.0843977 0.0543679
0.568719 0.08748 0.0577554
0.586343 0.0905776 0.0611887
0.603616 0.0939498 0.0649424
0.620996 0.0974746 0.068864
0.63827 0.101213 0.0730144
0.656092 0.104967 0.0771038
0.0296788 0.0788281 0.0399329
0.0433814 0.0809339 0.0422217
0.0575723 0.083238 0.0446784
0.07187 0.0852064 0.0468147
0.0863203 0.0871595 0.0489052
0.101534 0.0892042 0.0510109
0.117388 0.090837 0.0525978
0.134615 0.0922866 0.0538643
0.152697 0.0935683 0.0547189
0.172107 0.0944076 0.0551003
0.192828 0.0952468 0.0554818
0.214359 0.0956283 0.0554055
0.236652 0.0958877 0.0552224
0.259724 0.0962997 0.0552377
0.282933 0.0964828 0.0550698
0.306798 0.0965744 0.0548409
0.33196 0.0966812 0.0548104
0.357458 0.0966201 0.054551
0.383215 0.0965896 0.0542763
0.408835 0.0967117 0.0542
0.434211 0.0971695 0.0545357
0.458549 0.0981308 0.0551919
0.481712 0.0993362 0.056672
0.503532 0.101076 0.0585184
0.5243 0.103258 0.0606394
0.543923 0.105959 0.0638132
0.56286 0.109163 0.0671855
0.581155 0.11252 0.0709087
0.598978 0.116152 0.0750439
0.6168 0.119951 0.0792706
0.634562 0.12398 0.0836042
0.652583 0.128115 0.0884565
0.670634 0.132509 0.0931106
0.0356756 0.0983902 0.0461891
0.0495003 0.100481 0.0487068
0.0636759 0.102831 0.0512551
0.077821 0.104921 0.0534218
0.0924849 0.106905 0.0556649
0.107805 0.109071 0.0579232
0.123766 0.110842 0.0596933
0.140856 0.112383 0.0609293
0.159274 0.113939 0.0621347
0.179034 0.1149 0.0628519
0.199756 0.115694 0.0632029
0.22182 0.116518 0.0636149
0.244511 0.116991 0.0636759
0.267765 0.117418 0.0637369
0.291615 0.118029 0.0640421
0.316167 0.118456 0.06421
0.341619 0.118669 0.0642557
0.367712 0.118853 0.0643473
0.394125 0.119341 0.0644236
0.420264 0.119921 0.0648661
0.445716 0.120745 0.0655985
0.470329 0.12192 0.0669261
0.493782 0.123583 0.0685435
0.515877 0.125795 0.0708934
0.537041 0.128634 0.0742046
0.557015 0.131868 0.0775006
0.575967 0.135424 0.0814221
0.594827 0.139223 0.0856489
0.613306 0.143343 0.0903182
0.631373 0.147784 0.0951705
0.649729 0.1523 0.100221
0.66807 0.157015 0.105516
0.686748 0.161898 0.110979
0.0415503 0.118212 0.0523842
0.0552682 0.1205 0.0546578
0.0694285 0.122667 0.0572976
0.0840009 0.125109 0.059968
0.0985885 0.127352 0.0621653
0.114061 0.129427 0.064622
0.130297 0.131594 0.066865
0.147601 0.133349 0.0683909
0.165957 0.134905 0.0696422
0.186297 0.136339 0.0709239
0.207401 0.137407 0.0715953
0.229618 0.138308 0.0721294
0.252842 0.139162 0.0726329
0.276829 0.140017 0.0731823
0.301106 0.140764 0.0736706
0.326207 0.141466 0.0739147
0.352422 0.141985 0.0744488
0.379232 0.142794 0.0750744
0.405936 0.143465 0.0756085
0.432425 0.144381 0.0764172
0.458457 0.145602 0.0777447
0.483268 0.147341 0.0793774
0.506783 0.149569 0.0817273
0.529198 0.15227 0.0846265
0.550637 0.155718 0.088365
0.571008 0.159457 0.0924544
0.590646 0.163531 0.0969406
0.609735 0.16791 0.101793
0.62855 0.17261 0.106935
0.647318 0.177554 0.11252
0.66598 0.182696 0.118166
0.68484 0.18793 0.123964
0.703899 0.193301 0.130358
0.0471809 0.138735 0.0576944
0.0610513 0.141161 0.0604257
0.0752728 0.143587 0.062974
0.0899672 0.14612 0.066041
0.104845 0.148653 0.0686198
0.120348 0.150988 0.0712291
0.136736 0.153307 0.0738231
0.154498 0.15552 0.0758831
0.173388 0.157351 0.0775311
0.193668 0.158923 0.0790417
0.215198 0.160311 0.0801099
0.238132 0.161791 0.0812543
0.261784 0.162921 0.0820935
0.286244 0.163989 0.082826
0.311421 0.164996 0.0836805
0.337148 0.166003 0.0845197
0.364019 0.167193 0.0855268
0.391104 0.1682 0.0863966
0.418296 0.169375 0.0872816
0.445319 0.170703 0.088716
0.471504 0.172473 0.0904707
0.496712 0.174762 0.092668
0.520577 0.177569 0.0957961
0.543282 0.180896 0.0991531
0.564828 0.18468 0.103441
0.585428 0.188998 0.107912
0.605707 0.193591 0.113191
0.625162 0.198581 0.118563
0.644465 0.203769 0.124224
0.663706 0.209201 0.130571
0.682628 0.214984 0.137087
0.702007 0.220752 0.143618
0.721462 0.226658 0.150134
0.0523995 0.159991 0.0622416
0.0666209 0.16289 0.0654765
0.0809491 0.165606 0.0684367
0.0956588 0.168322 0.0715953
0.110765 0.171145 0.0747845
0.126787 0.173999 0.0778821
0.143542 0.176547 0.080766
0.161288 0.179004 0.083299
0.180728 0.181216 0.085359
0.201526 0.183413 0.08748
0.223514 0.185199 0.0889906
0.246738 0.186801 0.0903182
0.271122 0.188235 0.0914626
0.296239 0.18967 0.0927138
0.321996 0.19115 0.0940261
0.348531 0.192767 0.095491
0.375891 0.194125 0.0967269
0.403616 0.195575 0.0980545
0.431418 0.197238 0.0996262
0.458854 0.199191 0.101366
0.485481 0.201495 0.103838
0.510796 0.204364 0.106783
0.535027 0.207797 0.110369
0.557763 0.21181 0.114626
0.579721 0.216175 0.119295
0.6009 0.220966 0.124254
0.621378 0.226169 0.130175
0.641474 0.231724 0.136172
0.66096 0.237507 0.142718
0.680507 0.243427 0.149401
0.699855 0.249622 0.156176
0.719387 0.255924 0.162799
0.739254 0.262165 0.169451
0.0574197 0.182818 0.0670329
0.0717632 0.18584 0.0701457
0.0863813 0.188876 0.0737774
0.101472 0.192248 0.0772869
0.116838 0.195377 0.0807965
0.133089 0.198444 0.084184
0.150164 0.201434 0.0874647
0.168521 0.204364 0.0907607
0.188327 0.20708 0.0933242
0.209339 0.209506 0.0956436
0.231937 0.211673 0.0977951
0.255802 0.213703 0.099443
0.280705 0.215595 0.101122
0.306462 0.217441 0.10277
0.332967 0.219379 0.104616
0.360235 0.221378 0.106447
0.388251 0.223285 0.108232
0.416724 0.225193 0.110277
0.444923 0.227436 0.112169
0.472526 0.23003 0.114717
0.499535 0.232959 0.117632
0.524987 0.236439 0.121157
0.54934 0.240467 0.125322
0.572442 0.245106 0.130129
0.594995 0.250019 0.135348
0.616327 0.255344 0.141115
0.637079 0.261051 0.147448
0.65745 0.266972 0.153933
0.676997 0.273091 0.160204
0.69659 0.279377 0.166857
0.716228 0.285801 0.1738
0.735576 0.292439 0.180453
0.755444 0.298939 0.187152
0.06215 0.20705 0.0712749
0.0771649 0.210651 0.0751354
0.0919203 0.21416 0.0790417
0.107073 0.217731 0.0829633
0.122927 0.221241 0.0868238
0.13933 0.224765 0.0905776
0.157198 0.228397 0.0945602
0.175723 0.231724 0.098024
0.195804 0.234821 0.101091
0.217487 0.237613 0.10399
0.240513 0.240284 0.106294
0.26508 0.242741 0.108797
0.290486 0.245197 0.111055
0.317113 0.247501 0.113024
0.344427 0.249775 0.115312
0.372244 0.252171 0.117571
0.400824 0.254612 0.119615
0.429587 0.257084 0.122194
0.458167 0.259831 0.124758
0.486213 0.262989 0.127642
0.513359 0.266575 0.131334
0.53904 0.270726 0.135195
0.563485 0.275303 0.140063
0.586862 0.2804 0.145098
0.609445 0.285847 0.150744
0.631083 0.291554 0.157183
0.651942 0.297627 0.163302
0.672206 0.30396 0.169833
0.692164 0.31043 0.176501
0.711498 0.317082 0.183169
0.731044 0.323674 0.189837
0.750561 0.330282 0.196445
0.769848 0.33695 0.202777
0.0672923 0.233295 0.0757458
0.0826581 0.236973 0.079942
0.0973831 0.241047 0.0840467
0.112978 0.245029 0.0885634
0.128939 0.249149 0.0927596
0.145953 0.253223 0.0972915
0.163989 0.257267 0.101411
0.183062 0.261067 0.105318
0.203586 0.264714 0.108934
0.225818 0.268055 0.112474
0.249424 0.271244 0.115251
0.274418 0.274235 0.118227
0.300771 0.277134 0.12076
0.328099 0.279957 0.123293
0.3561 0.282704 0.126085
0.38439 0.285634 0.128557
0.413504 0.288579 0.131456
0.442786 0.291691 0.134157
0.471672 0.295018 0.137209
0.499748 0.29868 0.140902
0.526726 0.302892 0.14464
0.55256 0.3075 0.149325
0.576959 0.312581 0.154055
0.600534 0.317937 0.159426
0.622995 0.32369 0.165393
0.6448 0.329671 0.171511
0.665385 0.335912 0.1776
0.685695 0.342382 0.184222
0.705211 0.348821 0.190585
0.724453 0.355276 0.196811
0.743648 0.361868 0.203159
0.762676 0.368368 0.209766
0.781781 0.374792 0.215732
0.0724346 0.261112 0.0807355
0.0881056 0.265354 0.085069
0.103227 0.269902 0.0896925
0.119112 0.274418 0.0945296
0.135271 0.279103 0.0991379
0.152712 0.283726 0.104067
0.170977 0.288289 0.108553
0.19057 0.292638 0.112932
0.211566 0.296971 0.117174
0.234333 0.300908 0.120974
0.258412 0.304662 0.124453
0.28426 0.30808 0.127672
0.311284 0.311452 0.130587
0.339391 0.314763 0.133669
0.367742 0.318151 0.136629
0.396429 0.321416 0.139544
0.426169 0.32491 0.142718
0.45539 0.328374 0.145785
0.484245 0.332052 0.149218
0.512337 0.336156 0.15285
0.539239 0.340688 0.157015
0.56492 0.345632 0.161685
0.589395 0.350912 0.166629
0.612787 0.356451 0.172183
0.635279 0.362234 0.178088
0.656565 0.368368 0.183993
0.677348 0.374548 0.190219
0.697063 0.380987 0.196231
0.716594 0.387335 0.202426
0.735744 0.393668 0.208835
0.754391 0.400198 0.214923
0.773419 0.406577 0.221134
0.792386 0.412909 0.227253
0.0779278 0.290974 0.0861067
0.0938582 0.295827 0.0907149
0.109438 0.300969 0.0958877
0.125536 0.306111 0.101167
0.142061 0.311376 0.106126
0.159777 0.316518 0.111315
0.17847 0.32163 0.116381
0.198413 0.326574 0.121035
0.219806 0.331273 0.125597
0.242969 0.33579 0.129702
0.267781 0.340078 0.133639
0.29424 0.34403 0.137179
0.321904 0.347799 0.140505
0.350484 0.351507 0.143801
0.379385 0.355306 0.147158
0.408789 0.359014 0.150454
0.438315 0.362768 0.153735
0.467628 0.366705 0.156985
0.496696 0.370718 0.160784
0.524514 0.375113 0.164599
0.55111 0.379797 0.169009
0.576455 0.384833 0.173678
0.600885 0.390082 0.178668
0.624063 0.395621 0.183795
0.646433 0.401236 0.18967
0.667445 0.407156 0.195209
0.687938 0.413138 0.201068
0.707652 0.419333 0.207385
0.726833 0.425666 0.213306
0.745693 0.432013 0.219516
0.764508 0.438239 0.225605
0.782864 0.44448 0.231647
0.801968 0.450706 0.237751
0.0840162 0.323064 0.0923476
0.100252 0.328496 0.0973373
0.116197 0.334249 0.102861
0.132525 0.340063 0.10869
0.149523 0.345876 0.114
0.167605 0.351583 0.119493
0.186709 0.35729 0.125017
0.207218 0.362799 0.130159
0.229221 0.368002 0.135042
0.252735 0.372961 0.13959
0.278309 0.377554 0.143786
0.305241 0.381918 0.147646
0.333425 0.385977 0.151247
0.362402 0.389929 0.154681
0.391806 0.393835 0.158145
0.420951 0.397848 0.161654
0.450355 0.401602 0.16466
0.479973 0.405615 0.168444
0.508431 0.409613 0.171954
0.535897 0.413962 0.175891
0.562112 0.418647 0.180133
0.587427 0.423453 0.184619
0.611353 0.428534 0.189364
0.63444 0.433829 0.194491
0.656336 0.43946 0.199893
0.677607 0.445136 0.205829
0.697643 0.451164 0.211566
0.717433 0.457221 0.217609
0.736522 0.463401 0.223819
0.755199 0.469551 0.229831
0.773816 0.475608 0.235874
0.792416 0.481621 0.241962
0.811063 0.487541 0.247822
0.0911421 0.357259 0.099794
0.107759 0.363134 0.105425
0.123842 0.369604 0.111315
0.140795 0.375982 0.117357
0.158328 0.382193 0.123293
0.176333 0.388373 0.129046
0.196109 0.394583 0.134951
0.216815 0.400397 0.140261
0.239322 0.405951 0.145617
0.2636 0.411093 0.150393
0.289204 0.415991 0.154818
0.316884 0.420401 0.15877
0.34551 0.424567 0.162432
0.374777 0.42858 0.165728
0.403998 0.432547 0.169467
0.433371 0.4365 0.172717
0.462989 0.440284 0.176303
0.491753 0.444236 0.179797
0.520012 0.448218 0.183261
0.547143 0.452399 0.187137
0.573114 0.456962 0.191073
0.59826 0.461646 0.195727
0.62211 0.466667 0.200275
0.64509 0.471839 0.205631
0.666896 0.477348 0.211078
0.687892 0.482948 0.216861
0.708156 0.488594 0.22269
0.727367 0.494469 0.228611
0.746487 0.500313 0.234623
0.765225 0.506127 0.24065
0.783383 0.51194 0.246571
0.80177 0.517418 0.252491
0.820233 0.522896 0.258305
0.0989395 0.393256 0.108385
0.116167 0.399741 0.114473
0.132753 0.406516 0.120974
0.149966 0.413367 0.127275
0.167971 0.420127 0.133684
0.186755 0.426719 0.139986
0.206607 0.433112 0.146059
0.227893 0.4392 0.151873
0.250599 0.444984 0.157092
0.275212 0.450202 0.162234
0.301396 0.455055 0.166445
0.32932 0.459358 0.170596
0.358038 0.463478 0.174029
0.387518 0.467262 0.177676
0.416739 0.471077 0.18085
0.44596 0.474739 0.184268
0.475013 0.478401 0.18761
0.503639 0.482185 0.190845
0.531685 0.486107 0.194705
0.558404 0.490288 0.198352
0.584085 0.494545 0.202625
0.608881 0.499107 0.206806
0.632853 0.503914 0.211841
0.655421 0.508843 0.216663
0.677424 0.513909 0.222156
0.6981 0.51928 0.227863
0.718074 0.524681 0.233646
0.737469 0.530114 0.23949
0.75613 0.535698 0.245396
0.774716 0.541238 0.251545
0.793256 0.546731 0.257557
0.811444 0.55227 0.263432
0.830167 0.557595 0.269612
0.108324 0.431128 0.118471
0.125963 0.437995 0.125002
0.143038 0.44509 0.131762
0.160479 0.452171 0.138552
0.178668 0.459144 0.145235
0.197742 0.465721 0.151614
0.217731 0.472038 0.157702
0.239399 0.478172 0.1635
0.26244 0.48368 0.1691
0.287114 0.488869 0.173816
0.313802 0.49337 0.178332
0.341558 0.497536 0.181933
0.37052 0.501213 0.185565
0.399847 0.504845 0.188647
0.429038 0.508476 0.192004
0.458061 0.512078 0.195575
0.487007 0.515663 0.198779
0.515633 0.51931 0.202502
0.543175 0.523217 0.206012
0.569619 0.527214 0.210132
0.595285 0.531365 0.214038
0.620066 0.535668 0.218555
0.643717 0.5402 0.223102
0.666255 0.544854 0.228183
0.687785 0.549645 0.233555
0.708675 0.554589 0.239124
0.728344 0.559808 0.244892
0.747738 0.565026 0.250843
0.766476 0.570382 0.25684
0.784924 0.575799 0.262669
0.803174 0.58114 0.268986
0.821607 0.586374 0.274983
0.839963 0.591516 0.280629
0.119036 0.469596 0.129702
0.13669 0.476722 0.136553
0.153948 0.483955 0.143694
0.171832 0.49102 0.150637
0.190417 0.497871 0.157443
0.209491 0.504601 0.163912
0.229999 0.510811 0.170443
0.251591 0.516701 0.176196
0.274815 0.521996 0.181476
0.299825 0.526726 0.186358
0.326452 0.531075 0.190417
0.35462 0.534951 0.194186
0.38381 0.538491 0.197543
0.413169 0.541939 0.20087
0.442283 0.545434 0.204547
0.471214 0.548898 0.207736
0.499977 0.552209 0.211246
0.527764 0.555764 0.214557
0.554864 0.559426 0.218219
0.581292 0.563149 0.222004
0.606592 0.566934 0.225879
0.631006 0.570764 0.229908
0.654368 0.575006 0.234485
0.676875 0.579431 0.23946
0.698207 0.584115 0.244724
0.718746 0.588952 0.250431
0.738674 0.593912 0.256092
0.75758 0.5991 0.261753
0.776333 0.604196 0.267887
0.794659 0.609384 0.273793
0.812726 0.614557 0.279667
0.830991 0.619593 0.285527
0.849042 0.624582 0.291356
0.131075 0.508522 0.142824
0.149218 0.515496 0.149859
0.166659 0.522622 0.15697
0.184604 0.529549 0.163882
0.203067 0.536187 0.170962
0.222416 0.542504 0.177386
0.242893 0.54844 0.183505
0.264637 0.553887 0.189441
0.28809 0.559197 0.19472
0.313252 0.563607 0.199268
0.340032 0.567605 0.203326
0.36849 0.571252 0.207111
0.397421 0.574655 0.210391
0.426703 0.577798 0.213748
0.455604 0.581033 0.216815
0.484138 0.584283 0.220111
0.512276 0.587472 0.223316
0.539696 0.590738 0.226612
0.566476 0.594125 0.23006
0.592279 0.597726 0.233768
0.617624 0.601389 0.237629
0.641871 0.60528 0.24181
0.665263 0.609354 0.246296
0.687419 0.613687 0.251225
0.708949 0.618097 0.256428
0.729168 0.622827 0.261677
0.748699 0.627619 0.267536
0.767788 0.632486 0.273243
0.78616 0.637476 0.278859
0.804257 0.642405 0.284871
0.822171 0.647349 0.290486
0.840116 0.652155 0.296178
0.858198 0.656809 0.301976
0.144335 0.54641 0.156741
0.162432 0.553109 0.163775
0.179919 0.559869 0.171038
0.197681 0.566598 0.177981
0.216373 0.573037 0.18471
0.23592 0.579171 0.191241
0.256229 0.585061 0.197513
0.27834 0.590463 0.203265
0.302037 0.595346 0.208591
0.32726 0.59968 0.213016
0.354391 0.603387 0.216892
0.382376 0.606836 0.220417
0.411292 0.609949 0.223331
0.440452 0.612787 0.226459
0.468788 0.615793 0.229389
0.496941 0.618784 0.232624
0.524605 0.621851 0.235798
0.551812 0.624994 0.239033
0.577951 0.628367 0.242542
0.6038 0.631724 0.245991
0.628916 0.635294 0.249882
0.652964 0.639033 0.253681
0.676036 0.642802 0.258152
0.697917 0.646876 0.262623
0.719203 0.651286 0.268147
0.739422 0.655634 0.273243
0.758602 0.660197 0.278538
0.777401 0.664775 0.284245
0.795636 0.669764 0.289891
0.813642 0.674403 0.29546
0.831296 0.679042 0.301091
0.84892 0.683604 0.30663
0.866819 0.687953 0.31194
0.158541 0.583337 0.17203
0.176333 0.590021 0.178882
0.19382 0.596689 0.185992
0.211902 0.603174 0.19292
0.230442 0.609537 0.19971
0.249897 0.615503 0.206226
0.270542 0.620996 0.212238
0.292332 0.626154 0.217639
0.315908 0.630549 0.22266
0.341253 0.634684 0.226841
0.368139 0.637888 0.230488
0.39617 0.640879 0.233387
0.425071 0.643641 0.2365
0.453605 0.646494 0.239216
0.481956 0.649271 0.242405
0.509667 0.652232 0.245319
0.536736 0.655283 0.248493
0.563455 0.658335 0.251865
0.589563 0.661524 0.254948
0.615274 0.664714 0.258564
0.64004 0.668116 0.261997
0.663844 0.671641 0.266087
0.686717 0.675364 0.270176
0.708705 0.679194 0.274907
0.729488 0.683284 0.279683
0.749416 0.687465 0.284825
0.768505 0.691798 0.289906
0.786923 0.696208 0.295232
0.804822 0.700618 0.300633
0.822568 0.704967 0.305974
0.839796 0.709346 0.311131
0.857282 0.713573 0.316594
0.874907 0.717754 0.321553
0.1729 0.61941 0.187655
0.190814 0.62591 0.194476
0.208103 0.632425 0.201404
0.22591 0.638651 0.208423
0.244587 0.644602 0.215015
0.263935 0.650324 0.221118
0.284443 0.655543 0.226963
0.306386 0.660227 0.232441
0.330114 0.664424 0.236988
0.355642 0.66807 0.241199
0.382544 0.671305 0.244602
0.410452 0.674205 0.2477
0.439155 0.67686 0.250538
0.467643 0.6795 0.253315
0.495506 0.682231 0.256214
0.522606 0.6851 0.259251
0.549569 0.687953 0.262242
0.575814 0.690913 0.265354
0.601465 0.693935 0.268589
0.626886 0.696941 0.271778
0.651408 0.700099 0.275242
0.675166 0.703349 0.27892
0.697658 0.706828 0.282979
0.719265 0.710445 0.287251
0.73991 0.714214 0.291798
0.759564 0.718135 0.296529
0.778347 0.722164 0.301472
0.79646 0.726238 0.306523
0.814069 0.730343 0.311376
0.831479 0.73434 0.316625
0.848341 0.738415 0.321416
0.865629 0.742367 0.326497
0.882841 0.746227 0.33109
0.187839 0.654749 0.204242
0.20557 0.66096 0.211032
0.222705 0.667185 0.217975
0.240574 0.67306 0.224521
0.258976 0.678706 0.2309
0.278355 0.684047 0.236881
0.298817 0.689021 0.242725
0.321202 0.693401 0.248127
0.344839 0.697368 0.252491
0.370306 0.700679 0.256428
0.397391 0.703838 0.259693
0.425376 0.706355 0.262669
0.453422 0.708858 0.265126
0.481636 0.71133 0.267903
0.509178 0.713985 0.270665
0.535775 0.716655 0.273564
0.561975 0.719387 0.276753
0.5879 0.722164 0.279454
0.613626 0.725017 0.282567
0.638712 0.727794 0.285466
0.662913 0.730709 0.28864
0.686366 0.733715 0.292241
0.708675 0.737011 0.295827
0.729809 0.740368 0.299809
0.750103 0.743816 0.30399
0.769421 0.747417 0.308415
0.787884 0.75111 0.312993
0.805661 0.754864 0.317678
0.823117 0.758572 0.322316
0.839902 0.762387 0.326818
0.856779 0.766003 0.331624
0.873701 0.769818 0.336217
0.890684 0.773175 0.340658
0.20267 0.688563 0.221103
0.220005 0.694469 0.227741
0.237232 0.700374 0.23447
0.25507 0.706035 0.241016
0.273701 0.711406 0.247471
0.293141 0.716518 0.253742
0.313924 0.721248 0.259083
0.336217 0.725444 0.26421
0.360052 0.729213 0.268315
0.385657 0.732418 0.272221
0.412512 0.735241 0.275166
0.440406 0.737652 0.278126
0.468406 0.740001 0.280461
0.496071 0.742321 0.283162
0.522835 0.744823 0.285832
0.548959 0.747372 0.288502
0.574914 0.749859 0.291417
0.600473 0.752377 0.293858
0.625498 0.75491 0.29659
0.650294 0.757366 0.299519
0.674174 0.759976 0.30219
0.697078 0.762707 0.305257
0.719188 0.765637 0.308919
0.740322 0.76878 0.312383
0.76025 0.771893 0.316396
0.779126 0.775219 0.320226
0.797238 0.778592 0.324468
0.814878 0.781994 0.328679
0.831846 0.785458 0.333043
0.8486 0.789029 0.33753
0.865125 0.792493 0.341939
0.881697 0.795712 0.346029
0.898207 0.79884 0.350011
0.217929 0.721477 0.238865
0.234943 0.727275 0.24564
0.252415 0.732891 0.252445
0.270298 0.738354 0.258991
0.289128 0.743465 0.265293
0.308675 0.748318 0.271077
0.32961 0.752773 0.276127
0.352056 0.756695 0.281025
0.375967 0.760174 0.284916
0.401434 0.763119 0.288563
0.428061 0.765728 0.291264
0.455619 0.767941 0.294011
0.483177 0.770077 0.296147
0.510307 0.772213 0.298528
0.53666 0.774441 0.301259
0.562005 0.776867 0.303685
0.587381 0.779126 0.306218
0.612726 0.781262 0.308766
0.637552 0.783459 0.310887
0.661799 0.785672 0.313298
0.685466 0.787884 0.315999
0.70808 0.790356 0.318578
0.729778 0.793118 0.321706
0.750393 0.795789 0.325109
0.770047 0.798627 0.328283
0.788556 0.801633 0.332021
0.806531 0.804654 0.335912
0.823713 0.807797 0.339757
0.840574 0.811154 0.344198
0.856947 0.814328 0.348013
0.873243 0.817334 0.352117
0.889372 0.82034 0.355657
0.905653 0.823224 0.359319
0.233265 0.753338 0.257877
0.250263 0.758831 0.264561
0.26775 0.764218 0.271015
0.285832 0.769421 0.277012
0.304692 0.774258 0.28307
0.324529 0.778775 0.288548
0.345418 0.78294 0.293309
0.367849 0.786587 0.297856
0.391836 0.789746 0.301442
0.417166 0.792386 0.304875
0.443534 0.794705 0.307362
0.470527 0.79675 0.309834
0.497719 0.798886 0.31223
0.524193 0.800824 0.314351
0.549813 0.802853 0.316732
0.574914 0.804898 0.319051
0.599893 0.806882 0.32105
0.624628 0.808789 0.323095
0.649104 0.81062 0.325307
0.672999 0.812528 0.327108
0.696162 0.814511 0.329274
0.718669 0.816831 0.33196
0.740124 0.819013 0.334646
0.760266 0.821454 0.337285
0.7794 0.824033 0.340414
0.79794 0.826642 0.343908
0.815717 0.829679 0.347402
0.832563 0.832517 0.351156
0.848981 0.835386 0.35462
0.865019 0.838239 0.358267
0.881071 0.840986 0.361746
0.897139 0.843931 0.365438
0.9131 0.846494 0.368704
0.248966 0.784421 0.277134
0.266026 0.7897 0.283726
0.283833 0.79472 0.289815
0.301778 0.799664 0.295521
0.320867 0.804166 0.300999
0.340734 0.808331 0.306325
0.361563 0.812177 0.310872
0.384115 0.815427 0.315099
0.407675 0.818341 0.318502
0.432731 0.820691 0.32163
0.458686 0.822736 0.323812
0.48513 0.824491 0.325887
0.511559 0.826139 0.327749
0.537713 0.828046 0.32987
0.562463 0.829908 0.33193
0.58703 0.831678 0.333913
0.611795 0.83328 0.335882
0.636255 0.834897 0.337346
0.660319 0.836469 0.33901
0.683894 0.838102 0.34078
0.706996 0.839948 0.342901
0.728969 0.841749 0.344823
0.749813 0.843732 0.347051
0.769818 0.845823 0.349523
