Grain/Grain/Resources/Luts/Vintage/MAD_MAX_04.cube
TITLE "Generated by Resolve"
LUT_3D_SIZE 33
0 0 0
0 0 0
0.0039826 0 0
0.0416114 0 0
0.0776684 0 0
0.111879 0 0
0.146914 0 0
0.182345 0 0
0.21796 0 0
0.253773 0 0
0.289631 0 0
0.326284 0 0
0.363851 0 0
0.401617 0 0
0.439826 0 0
0.477699 0 0
0.514839 0 0
0.550729 0 0
0.585153 0 0
0.617777 0 0
0.647852 0 0
0.675608 0 0
0.702602 0 0
0.729107 0 0
0.755673 0 0
0.782177 0 0
0.808927 0 0
0.835691 0 0
0.862516 0 0
0.889143 0 0
0.915969 0 0
0.94287 0 0
0.969757 0 0
0 0.00300603 0
0 0.00483711 0
0.00561532 0.00712596 0
0.0414893 0.00517281 0
0.0797589 0.00213626 0
0.11751 0 0
0.154406 0 0
0.190921 0 0
0.22742 0 0
0.263996 0 0
0.300496 0 0
0.337682 0 0
0.375692 0 0
0.414054 0 0
0.452476 0 0
0.490486 0 0
0.527901 0 0
0.564034 0 0
0.598718 0 0
0.631601 0 0
0.661936 0 0
0.690227 0 0
0.717449 0 0
0.744167 0 0
0.770871 0 0
0.79765 0 0
0.824628 0 0
0.851637 0 0
0.878691 0 0
0.905745 0 0
0.93283 0 0
0.959838 0 0
0.986801 0 0
0 0.0204776 0
0.00141909 0.0235142 0
0.0159457 0.0282292 0
0.0422522 0.0308232 0
0.0800793 0.0293736 0
0.119509 0.0269627 0
0.158434 0.0246128 0
0.197177 0.0223545 0
0.235325 0.0200961 0
0.273426 0.0181735 0
0.311208 0.0164187 0
0.349477 0.0146029 0
0.388418 0.0126955 0
0.427543 0.0108186 0
0.466667 0.00901808 0
0.505302 0.00741588 0
0.543038 0.00610361 0
0.579156 0.005066 0
0.614054 0.00462348 0
0.647135 0.0047303 0
0.677745 0.00552377 0
0.706371 0.00688182 0
0.734035 0.00852979 0
0.761181 0.0103609 0
0.788357 0.0122377 0
0.815167 0.0139925 0
0.842466 0.0159304 0
0.869764 0.0178988 0
0.897063 0.019913 0
0.924392 0.0219577 0
0.95172 0.024033 0
0.979049 0.026154 0
1 0.0283055 0
0 0.0429084 0.00523384
0.0165255 0.0464332 0.00624094
0.0307469 0.0512551 0.00309758
0.0487831 0.0562753 0
0.0801251 0.0579232 0
0.118776 0.0567025 0
0.158587 0.0547036 0
0.198489 0.0525521 0
0.238102 0.0504616 0
0.277501 0.0484627 0
0.316381 0.0465095 0
0.355718 0.0445258 0
0.395789 0.0425116 0
0.435981 0.0405127 0
0.476097 0.0386053 0
0.515663 0.0368963 0
0.554269 0.0355077 0
0.59144 0.0345464 0
0.626902 0.0339818 0
0.66041 0.0339666 0
0.691432 0.0348058 0
0.720302 0.0362554 0
0.748135 0.0380255 0
0.775433 0.0399786 0
0.802747 0.0419623 0
0.829984 0.0440223 0
0.857313 0.0459907 0
0.884703 0.0480354 0
0.912032 0.0500649 0
0.939483 0.0522164 0
0.966949 0.0544137 0
0.994415 0.0566415 0
1 0.0588846 0
0.0147097 0.0670481 0.0151522
0.0316014 0.0709392 0.0167849
0.0464485 0.0759442 0.0144198
0.061326 0.0816815 0.0053254
0.0843214 0.0858473 0
0.118471 0.0868849 0
0.157443 0.0859083 0
0.197833 0.084123 0
0.238315 0.0821698 0
0.278614 0.0802014 0
0.318578 0.0783398 0
0.35906 0.0763714 0
0.399924 0.0740673 0
0.441093 0.0719921 0
0.482155 0.0699931 0
0.52256 0.0682078 0
0.561944 0.066743 0
0.599802 0.0657511 0
0.635996 0.0652476 0
0.670161 0.0653239 0
0.701579 0.0661784 0
0.730541 0.0675059 0
0.758663 0.0693217 0
0.786221 0.0713512 0
0.813794 0.0734112 0
0.841276 0.0755474 0
0.86894 0.0776532 0
0.896605 0.0798047 0
0.924285 0.082002 0
0.95169 0.0840162 0
0.97937 0.0862745 0
1 0.0885786 0
1 0.0909133 0
0.0294499 0.0923171 0.0265507
0.04654 0.0964523 0.0285191
0.0618906 0.101488 0.0271763
0.0762036 0.107576 0.0190585
0.0940261 0.113222 0.00541695
0.12137 0.116594 0
0.15697 0.117311 0
0.196475 0.116381 0
0.237201 0.114809 0
0.278141 0.113024 0
0.318853 0.111223 0
0.360082 0.109255 0
0.402014 0.107134 0
0.444083 0.104982 0
0.485863 0.102785 0
0.527031 0.100862 0
0.567163 0.0993362 0
0.605707 0.0982834 0
0.642512 0.0977646 0
0.677211 0.0978256 0
0.709072 0.0987106 0
0.738643 0.100252 0
0.766979 0.102022 0
0.79472 0.104005 0
0.822599 0.106126 0
0.850355 0.108309 0
0.878294 0.11046 0
0.906249 0.112673 0
0.934173 0.114916 0
0.962097 0.117205 0
0.989914 0.119432 0
1 0.121782 0
1 0.124193 0
0.0442817 0.118471 0.0387579
0.0615091 0.122774 0.0409705
0.0772717 0.127855 0.0404212
0.0916457 0.133959 0.0341497
0.107271 0.140444 0.0208286
0.128771 0.14551 0.00480659
0.159197 0.148318 0
0.196139 0.148836 0
0.235874 0.147875 0
0.276905 0.146487 0
0.31809 0.144869 0
0.359945 0.143008 0
0.402548 0.140902 0
0.445289 0.138766 0
0.487953 0.13666 0
0.529961 0.134752 0
0.570581 0.132982 0
0.609812 0.131899 0
0.647196 0.13135 0
0.682429 0.131411 0
0.714748 0.132296 0
0.744732 0.133867 0
0.773541 0.135775 0
0.801724 0.137896 0
0.829908 0.140032 0
0.85774 0.142077 0
0.886 0.144289 0
0.91426 0.146548 0
0.94255 0.148898 0
0.970855 0.151324 0
0.999161 0.15378 0
1 0.156344 0
1 0.159014 0
0.0592508 0.145571 0.0516213
0.0764324 0.149889 0.0538949
0.0925002 0.154955 0.0539254
0.107134 0.161044 0.0492256
0.121859 0.167788 0.0378271
0.139879 0.174121 0.0213169
0.164675 0.178515 0.00440986
0.197421 0.180804 0
0.235218 0.181231 0
0.275364 0.180438 0
0.316487 0.179187 0
0.358679 0.177508 0
0.401816 0.175509 0
0.445151 0.173419 0
0.488411 0.171344 0
0.531014 0.169436 0
0.572503 0.167865 0
0.612345 0.166751 0
0.650156 0.166033 0
0.685863 0.166033 0
0.718639 0.166934 0
0.749004 0.168521 0
0.77818 0.170474 0
0.806729 0.172625 0
0.835294 0.174853 0
0.863783 0.177188 0
0.892302 0.179385 0
0.920897 0.181704 0
0.949645 0.184222 0
0.978439 0.186847 0
1 0.189517 0
1 0.192248 0
1 0.195087 0
0.0740063 0.173114 0.0647288
0.0914321 0.177737 0.0672923
0.107836 0.182895 0.0678569
0.122744 0.188891 0.064332
0.137057 0.195544 0.0548714
0.153185 0.202502 0.0392615
0.173861 0.208331 0.0220188
0.201633 0.212161 0.00410468
0.235996 0.214099 0
0.274479 0.214466 0
0.314946 0.213931 0
0.357061 0.21265 0
0.40029 0.210712 0
0.444068 0.208743 0
0.487861 0.206744 0
0.530999 0.204883 0
0.573007 0.203326 0
0.613336 0.202243 0
0.651835 0.201678 0
0.68809 0.20174 0
0.72108 0.202457 0
0.751904 0.204135 0
0.781552 0.206195 0
0.810559 0.208469 0
0.839597 0.210834 0
0.868574 0.213352 0
0.89778 0.215885 0
0.926986 0.218479 0
0.95613 0.221118 0
0.985138 0.223713 0
1 0.22652 0
1 0.229389 0
1 0.232319 0
0.0887465 0.201251 0.078172
0.106279 0.205997 0.0808576
0.122927 0.211215 0.0818494
0.138201 0.217227 0.0793317
0.152697 0.224018 0.0717479
0.167697 0.231067 0.0579843
0.185763 0.237873 0.0396582
0.209155 0.243061 0.0227054
0.239277 0.246448 0.00407416
0.274891 0.248127 0
0.313787 0.248524 0
0.355276 0.247898 0
0.398581 0.24654 0
0.442405 0.244678 0
0.486519 0.242756 0
0.530114 0.240986 0
0.572595 0.239475 0
0.613413 0.238453 0
0.652399 0.237995 0
0.689158 0.238193 0
0.722881 0.239246 0
0.754192 0.241077 0
0.784161 0.243153 0
0.813657 0.245609 0
0.843198 0.248157 0
0.872648 0.250828 0
0.902327 0.253513 0
0.93196 0.256245 0
0.961547 0.259037 0
0.991135 0.261891 0
1 0.264622 0
1 0.267475 0
1 0.270436 0
0.103548 0.229892 0.0919356
0.121141 0.23476 0.0947433
0.138018 0.24004 0.0960708
0.153582 0.246036 0.0943313
0.168261 0.252796 0.0881971
0.183001 0.26009 0.0765393
0.199435 0.267414 0.0595254
0.219837 0.273869 0.0395361
0.245563 0.27834 0.0229038
0.277562 0.281361 0.00428778
0.314046 0.282887 0
0.354147 0.283116 0
0.396826 0.282353 0
0.440696 0.281025 0
0.485069 0.279438 0
0.529015 0.277852 0
0.571801 0.276387 0
0.613138 0.275532 0
0.652689 0.275257 0
0.690013 0.275669 0
0.724239 0.276951 0
0.756008 0.278981 0
0.786587 0.281407 0
0.81651 0.284031 0
0.846235 0.286534 0
0.876081 0.289311 0
0.906111 0.292088 0
0.936095 0.294896 0
0.966018 0.297749 0
0.995895 0.300618 0
1 0.303517 0
1 0.306432 0
1 0.3093 0
0.118334 0.259312 0.105959
0.13579 0.264088 0.108705
0.15285 0.269444 0.110323
0.168704 0.275441 0.109255
0.183612 0.282139 0.104341
0.198215 0.289448 0.0945296
0.213718 0.297047 0.0794232
0.231983 0.304295 0.0598917
0.254643 0.310369 0.0395209
0.282353 0.314321 0.0231479
0.315648 0.317082 0.00492866
0.353613 0.318441 0
0.395102 0.318563 0
0.438468 0.317891 0
0.482826 0.316808 0
0.527123 0.315679 0
0.57055 0.314717 0
0.612192 0.31397 0
0.652171 0.313863 0
0.689967 0.314473 0
0.724636 0.315923 0
0.756771 0.318105 0
0.787701 0.320653 0
0.817945 0.32343 0
0.848188 0.326223 0
0.878294 0.329061 0
0.908324 0.331655 0
0.938537 0.334462 0
0.968719 0.337301 0
0.998795 0.340139 0
1 0.342977 0
1 0.34583 0
1 0.348653 0
0.132631 0.289113 0.119814
0.150378 0.294224 0.12285
0.167544 0.29955 0.124681
0.18352 0.305425 0.124056
0.198688 0.312093 0.120195
0.213336 0.319371 0.112001
0.228321 0.327062 0.0988785
0.245106 0.334783 0.0808423
0.265248 0.341909 0.0598459
0.289952 0.347616 0.0399939
0.319509 0.351522 0.0239109
0.35462 0.354116 0.00561532
0.394141 0.355306 0
0.436515 0.355581 0
0.48043 0.355184 0
0.524681 0.354559 0
0.568307 0.353979 0
0.610468 0.353689 0
0.650858 0.353841 0
0.688914 0.354513 0
0.723735 0.355962 0
0.756161 0.358251 0
0.78732 0.360876 0
0.817807 0.363699 0
0.848264 0.366522 0
0.878538 0.369375 0
0.908949 0.372152 0
0.939254 0.374884 0
0.969345 0.377493 0
0.999527 0.38024 0
1 0.382956 0
1 0.385672 0
1 0.388342 0
0.146868 0.319402 0.133806
0.164675 0.32462 0.136934
0.182116 0.330083 0.139101
0.198459 0.336126 0.139086
0.213916 0.342824 0.136141
0.22858 0.34992 0.129183
0.243427 0.357733 0.117968
0.259388 0.365789 0.101854
0.277806 0.373648 0.0818647
0.299931 0.380682 0.0601358
0.326452 0.38616 0.0415503
0.358251 0.390005 0.0247807
0.395346 0.392538 0.00640879
0.435782 0.393622 0
0.478706 0.394034 0
0.522469 0.394003 0
0.565942 0.393835 0
0.608164 0.393866 0
0.648707 0.394232 0
0.687037 0.395117 0
0.722225 0.396811 0
0.754604 0.398947 0
0.785885 0.401572 0
0.81648 0.404379 0
0.847059 0.407187 0
0.877424 0.409995 0
0.907912 0.412695 0
0.938323 0.415366 0
0.968658 0.418036 0
0.99884 0.420645 0
1 0.42295 0
1 0.425483 0
1 0.427955 0
0.161151 0.350134 0.148013
0.179065 0.35552 0.151293
0.19675 0.361151 0.15375
0.213397 0.36733 0.154238
0.229221 0.374121 0.152132
0.244434 0.381567 0.14667
0.259327 0.389471 0.137102
0.274784 0.39765 0.122835
0.292027 0.406027 0.104326
0.312154 0.413916 0.0828565
0.336065 0.420768 0.0610971
0.364675 0.425864 0.0436408
0.398657 0.429511 0.0255131
0.437003 0.431891 0.00741588
0.478264 0.433127 0
0.520958 0.433692 0
0.56376 0.43389 0
0.605722 0.434241 0
0.646189 0.434836 0
0.684504 0.435859 0
0.719722 0.437598 0
0.752377 0.439979 0
0.783734 0.442618 0
0.814221 0.445258 0
0.844648 0.447852 0
0.875044 0.450553 0
0.905516 0.453117 0
0.935882 0.455634 0
0.966155 0.458122 0
0.996323 0.460548 0
1 0.462852 0
1 0.465064 0
1 0.467155 0
0.175921 0.381521 0.162844
0.194018 0.387137 0.166323
0.211994 0.393011 0.169116
0.229007 0.399405 0.170138
0.245197 0.406348 0.168765
0.260716 0.413901 0.16437
0.275883 0.422004 0.156313
0.291295 0.430488 0.143877
0.307805 0.439139 0.127047
0.326238 0.447318 0.106447
0.347951 0.455085 0.0839704
0.373968 0.461555 0.0618448
0.404715 0.466148 0.0448463
0.440238 0.46952 0.026276
0.479454 0.471702 0.00859083
0.520729 0.47303 0
0.562661 0.473854 0
0.603754 0.474311 0
0.643854 0.475135 0
0.681941 0.476265 0
0.717006 0.47805 0
0.749554 0.480415 0
0.780819 0.483009 0
0.811322 0.485664 0
0.841794 0.488243 0
0.871839 0.490578 0
0.90222 0.492973 0
0.932464 0.495277 0
0.962631 0.497536 0
0.99266 0.499733 0
1 0.501793 0
1 0.503777 0
1 0.50573 0
0.191806 0.413947 0.178866
0.210086 0.419821 0.182559
0.228138 0.425742 0.185504
0.24535 0.432212 0.186847
0.261845 0.439261 0.186069
0.277638 0.446876 0.182498
0.292943 0.455009 0.17557
0.308293 0.463554 0.164599
0.324315 0.472343 0.14934
0.341894 0.481086 0.130068
0.361807 0.48925 0.107988
0.385382 0.496498 0.0842451
0.413596 0.502373 0.0620432
0.446006 0.506432 0.0455787
0.482704 0.509407 0.0271305
0.522072 0.511437 0.0100404
0.562631 0.512764 0
0.603021 0.513817 0
0.642359 0.514778 0
0.679942 0.515984 0
0.714565 0.517693 0
0.746822 0.520012 0
0.777859 0.52253 0
0.808148 0.525048 0
0.838407 0.527459 0
0.868513 0.529839 0
0.898711 0.532036 0
0.928618 0.533974 0
0.958465 0.535866 0
0.988312 0.537789 0
1 0.539559 0
1 0.541222 0
1 0.54284 0
0.208423 0.446754 0.195743
0.226856 0.452811 0.199603
0.245182 0.459022 0.202884
0.262669 0.46569 0.204593
0.279149 0.472557 0.204028
0.295125 0.480171 0.201099
0.310552 0.488289 0.195056
0.325872 0.496803 0.185245
0.341573 0.505608 0.171328
0.358358 0.514458 0.153323
0.377096 0.523018 0.132174
0.398871 0.530968 0.108064
0.424735 0.537697 0.0834821
0.45449 0.54258 0.0620584
0.488334 0.546059 0.0458381
0.525505 0.548669 0.0279088
0.56437 0.550484 0.0118105
0.603494 0.551873 0
0.642023 0.55314 0
0.678996 0.554498 0
0.713161 0.556283 0
0.744762 0.558297 0
0.775433 0.560708 0
0.805386 0.563088 0
0.835309 0.565301 0
0.86511 0.567468 0
0.895033 0.569436 0
0.924804 0.571221 0
0.954467 0.572915 0
0.98381 0.574319 0
1 0.575723 0
1 0.576913 0
1 0.578042 0
0.225895 0.479912 0.213581
0.244388 0.486091 0.217548
0.262776 0.492378 0.220951
0.280385 0.499077 0.222843
0.297215 0.506203 0.222812
0.313313 0.513771 0.22034
0.328618 0.521614 0.214801
0.343832 0.529961 0.205814
0.359274 0.538674 0.192996
0.375479 0.547509 0.17612
0.393149 0.556191 0.155673
0.413443 0.564416 0.131975
0.437263 0.571694 0.106264
0.465003 0.577585 0.0817731
0.496361 0.581674 0.0623941
0.530953 0.584558 0.0458381
0.56791 0.586755 0.0288243
0.605539 0.588434 0.0139773
0.642924 0.589883 0.00189212
0.679026 0.591333 0
0.712505 0.593103 0
0.743755 0.595239 0
0.773816 0.597406 0
0.803265 0.599573 0
0.832715 0.601511 0
0.862104 0.603433 0
0.891646 0.605112 0
0.920958 0.606531 0
0.950118 0.607767 0
0.979217 0.608927 0
1 0.609842 0
1 0.610376 0
1 0.610864 0
0.244114 0.51313 0.232319
0.262623 0.519356 0.236332
0.28101 0.525658 0.23978
0.29865 0.532326 0.241764
0.315526 0.539391 0.241917
0.33164 0.546853 0.23975
0.347112 0.554726 0.234821
0.36228 0.562966 0.226535
0.377295 0.571298 0.214343
0.393027 0.579995 0.198398
0.409873 0.588617 0.178759
0.428946 0.596918 0.15555
0.451072 0.604517 0.129351
0.476783 0.610895 0.10309
0.506233 0.615824 0.0794842
0.538659 0.61915 0.0628519
0.573541 0.621592 0.0459602
0.609323 0.623255 0.030045
0.645411 0.624826 0.0165408
0.680491 0.626337 0.00572213
0.713161 0.628061 0
0.743694 0.630076 0
0.773266 0.632181 0
0.802182 0.634165 0
0.831037 0.635798 0
0.859602 0.63711 0
0.888563 0.638392 0
0.917296 0.639353 0
0.945846 0.64007 0
0.97435 0.640711 0
1 0.641169 0
1 0.641428 0
1 0.641581 0
0.263416 0.546288 0.252308
0.281712 0.552331 0.256153
0.299977 0.558526 0.259525
0.31754 0.565057 0.261463
0.334371 0.571984 0.261677
0.350454 0.579309 0.259648
0.365835 0.586969 0.254994
0.38088 0.594995 0.24712
0.395865 0.603342 0.235691
0.4112 0.611841 0.220401
0.427222 0.620111 0.201251
0.445289 0.628275 0.17847
0.466041 0.635966 0.152117
0.490043 0.642618 0.124773
0.517632 0.647929 0.0988174
0.548363 0.65185 0.0771496
0.581216 0.654353 0.0621958
0.615534 0.656291 0.0462806
0.650095 0.657755 0.0317082
0.684001 0.659159 0.0196689
0.715694 0.660731 0.0104829
0.745342 0.66244 0.00350958
0.774075 0.66421 0
0.802243 0.665827 0
0.830365 0.667048 0
0.858366 0.66807 0
0.886549 0.668788 0
0.914702 0.669322 0
0.942733 0.669642 0
0.970779 0.669902 0
0.998764 0.670054 0
1 0.670039 0
1 0.669917 0
0.282933 0.578714 0.27277
0.301259 0.584833 0.276692
0.319448 0.590967 0.280018
0.336858 0.597299 0.281834
0.353399 0.603845 0.281819
0.369375 0.610956 0.279835
0.384634 0.618372 0.275288
0.399496 0.626108 0.267643
0.414221 0.63418 0.25658
0.429191 0.642405 0.241764
0.4448 0.650629 0.223239
0.461967 0.658671 0.200595
0.481483 0.666072 0.174304
0.504051 0.672801 0.146258
0.529992 0.678325 0.1187
0.55906 0.682551 0.0942092
0.590356 0.685374 0.0754864
0.622812 0.687083 0.0612955
0.65597 0.688472 0.0465248
0.688655 0.689723 0.0335699
0.719234 0.690974 0.0232395
0.747707 0.692164 0.0150149
0.775509 0.693507 0.00827039
0.802884 0.694743 0.00247196
0.830335 0.695644 0
0.85774 0.69633 0
0.885481 0.696834 0
0.913222 0.697154 0
0.940902 0.697261 0
0.968444 0.697139 0
0.996155 0.697078 0
1 0.69691 0
1 0.696635 0
0.302296 0.610574 0.293385
0.320409 0.616526 0.297154
0.33846 0.622477 0.300328
0.355749 0.628626 0.302052
0.372274 0.635111 0.302083
0.387945 0.641779 0.299886
0.402975 0.648859 0.295338
0.417594 0.656245 0.2878
0.432044 0.663981 0.276982
0.446632 0.671901 0.262516
0.461707 0.679835 0.244373
0.478126 0.687633 0.222034
0.496788 0.695064 0.196017
0.517998 0.701717 0.167437
0.542123 0.706996 0.138445
0.569421 0.711223 0.111864
0.5991 0.714183 0.089601
0.629831 0.715755 0.0746319
0.661311 0.716793 0.0601053
0.692607 0.717739 0.0464179
0.722118 0.718761 0.0352178
0.749859 0.71986 0.026154
0.776715 0.72079 0.0183413
0.803372 0.721752 0.0115816
0.830259 0.722469 0.00535592
0.85716 0.722972 0
0.884459 0.723293 0
0.911833 0.723461 0
0.939254 0.723476 0
0.96669 0.723369 0
0.994095 0.72311 0
1 0.722835 0
1 0.722499 0
0.321141 0.641718 0.313863
0.33901 0.64744 0.317418
0.356863 0.653147 0.320378
0.373953 0.659022 0.321904
0.390249 0.665187 0.321736
0.405859 0.671717 0.3196
0.420737 0.678508 0.315068
0.43505 0.685481 0.30753
0.449042 0.692668 0.296712
0.463218 0.700221 0.28249
0.477699 0.707713 0.264576
0.493278 0.715068 0.242405
0.510857 0.722103 0.216449
0.530709 0.728511 0.187457
0.553384 0.733791 0.157595
0.578912 0.73785 0.129274
0.60676 0.740642 0.104509
0.636118 0.742397 0.0852827
0.66598 0.743191 0.0721599
0.695964 0.743938 0.0584573
0.724468 0.744839 0.0466011
0.7514 0.745815 0.0367742
0.777691 0.746761 0.028275
0.803769 0.747631 0.020737
0.830121 0.748226 0.0137179
0.856504 0.748562 0.00723278
0.883421 0.748806 0.00125124
0.910521 0.748928 0
0.937713 0.748913 0
0.964996 0.748806 0
0.992355 0.748623 0
1 0.748409 0
1 0.748104 0
0.339315 0.672251 0.334173
0.35668 0.67747 0.337194
0.374304 0.682872 0.339864
0.391196 0.688441 0.341161
0.407218 0.694255 0.340719
0.422568 0.700404 0.338384
0.437171 0.706798 0.33373
0.451164 0.713329 0.326131
0.46482 0.720104 0.315389
0.478325 0.72694 0.301076
0.492119 0.733883 0.283268
0.506828 0.740673 0.261219
0.523247 0.747265 0.23505
0.541909 0.753307 0.206149
0.563134 0.758465 0.175647
0.587106 0.762554 0.146136
0.61355 0.765576 0.119646
0.64152 0.767529 0.0977798
0.669963 0.768307 0.0826734
0.69865 0.768948 0.0697337
0.726177 0.769818 0.0575265
0.752361 0.770809 0.0471351
0.778012 0.77174 0.0379797
0.803555 0.77261 0.0297551
0.829496 0.773266 0.0220798
0.855634 0.773754 0.0150301
0.882124 0.773907 0.00831617
0.908949 0.774044 0.00222782
0.935988 0.774121 0
0.963165 0.774105 0
0.990478 0.774014 0
1 0.773907 0
1 0.773785 0
0.356313 0.701488 0.354177
0.373556 0.7066 0.357061
0.39086 0.711589 0.359365
0.407401 0.71667 0.360265
0.422965 0.721889 0.359228
0.437903 0.72752 0.356191
0.452079 0.733379 0.35111
0.465629 0.739345 0.343175
0.478752 0.74548 0.332204
0.491814 0.751873 0.317998
0.505058 0.758328 0.300374
0.51902 0.764645 0.278492
0.534463 0.770764 0.252476
0.552056 0.776593 0.223697
0.57203 0.78172 0.192874
0.594629 0.785885 0.162539
0.619638 0.789075 0.134676
0.646326 0.791272 0.110903
0.673884 0.792599 0.0923018
0.701305 0.79324 0.0801709
0.727779 0.794034 0.0681926
0.753231 0.795102 0.057435
0.778317 0.796155 0.0477913
0.803357 0.797116 0.0390173
0.828901 0.797879 0.0307622
0.854734 0.798505 0.0231479
0.881117 0.798932 0.0159762
0.907759 0.799222 0.00935378
0.934646 0.79942 0.00329595
0.9617 0.799496 0
0.989013 0.799619 0
1 0.799649 0
1 0.799298 0
0.372 0.729641 0.371939
0.388785 0.734234 0.374334
0.405707 0.738766 0.376242
0.421881 0.743358 0.376822
0.437095 0.748043 0.375586
0.451423 0.752804 0.372274
0.465202 0.758083 0.366934
0.478325 0.763592 0.358419
0.491066 0.769268 0.34728
0.503716 0.775189 0.333135
0.516518 0.781277 0.315785
0.530007 0.78735 0.294392
0.544839 0.793332 0.268894
0.561425 0.798856 0.24033
0.580316 0.804013 0.209476
0.601678 0.808331 0.178668
0.625391 0.811734 0.149798
0.650828 0.814267 0.124544
0.677317 0.815976 0.103822
0.703914 0.81706 0.0890974
0.729503 0.818036 0.0784314
0.754253 0.819272 0.0678874
0.778622 0.820356 0.0578164
0.80322 0.821515 0.0486152
0.828397 0.822492 0.0398871
0.853971 0.823362 0.0317845
0.880171 0.824048 0.0241398
0.906691 0.824582 0.0170748
0.93312 0.824643 0.0102541
0.960067 0.824903 0.00421149
0.987182 0.825055 0
1 0.825132 0
1 0.825132 0
0.386053 0.756115 0.387747
0.402335 0.760113 0.389548
0.418723 0.764035 0.39089
0.43447 0.768109 0.391043
0.449348 0.77232 0.389502
0.463523 0.776791 0.386175
0.476967 0.781537 0.380713
0.48986 0.786572 0.372519
0.502251 0.791882 0.361013
