Grain/Grain/Resources/Luts/Vintage/MAD_MAX_04.cube
TITLE "Generated by Resolve"
LUT_3D_SIZE 5
0 0 0
0.21796 0 0
0.514839 0 0
0.755673 0 0
0.969757 0 0
0.0740063 0.173114 0.0647288
0.235996 0.214099 0
0.573007 0.203326 0
0.839597 0.210834 0
1 0.232319 0
0.191806 0.413947 0.178866
0.324315 0.472343 0.14934
0.562631 0.512764 0
0.838407 0.527459 0
1 0.54284 0
0.339315 0.672251 0.334173
0.46482 0.720104 0.315389
0.61355 0.765576 0.119646
0.829496 0.773266 0.0220798
1 0.773785 0
0.438743 0.869871 0.447181
0.551858 0.899443 0.421164
0.666362 0.943969 0.245304
0.834607 0.969833 0.101061
1 0.979782 0.0305638
0 0 0.044831
0.10016 0.0119173 0.0728618
0.367681 0.000350958 0.123812
0.624353 0 0.148302
0.851255 0.0112764 0.172915
0.0968948 0.183185 0.172793
0.243153 0.220111 0.194751
0.558373 0.212451 0.188357
0.809598 0.226093 0.200748
1 0.251667 0.223529
0.216342 0.426123 0.306477
0.363226 0.474769 0.343603
0.574243 0.521263 0.205676
0.850782 0.531792 0.19379
1 0.545571 0.205982
0.360693 0.68275 0.464591
0.49601 0.719524 0.488365
0.619944 0.762341 0.357687
0.832883 0.77319 0.223789
1 0.771374 0.19617
0.45359 0.873899 0.571496
0.577188 0.897169 0.582238
0.687221 0.934524 0.495338
0.83566 0.969833 0.315343
1 0.980148 0.232349
0 0 0.12108
0.112474 0.0243839 0.153964
0.264042 0.0496071 0.201312
0.46952 0.0604868 0.276493
0.690669 0.071107 0.339986
0.114778 0.19675 0.263874
0.251698 0.235859 0.302068
0.421561 0.266133 0.360342
0.681727 0.274113 0.424964
0.923415 0.294224 0.465614
0.240345 0.440864 0.414069
0.38706 0.489036 0.461433
0.584833 0.526436 0.447639
0.845411 0.537301 0.458518
1 0.551812 0.471687
0.381735 0.693706 0.577646
0.512779 0.726925 0.607294
0.635843 0.756542 0.586969
0.835218 0.771038 0.450324
1 0.768185 0.437598
0.469474 0.879011 0.684199
0.591424 0.902205 0.702205
0.715267 0.927611 0.697597
0.83566 0.968963 0.542184
1 0.978897 0.455299
0 0.00975052 0.186465
0.128618 0.0378576 0.2215
0.265476 0.0700236 0.259648
0.416693 0.0988479 0.328023
0.601663 0.119539 0.408515
0.131579 0.212894 0.335088
0.268025 0.252964 0.374838
0.408499 0.294743 0.418082
0.58468 0.327825 0.500801
0.809705 0.349462 0.582071
0.262043 0.459342 0.49369
0.408392 0.507515 0.541711
0.553933 0.553246 0.586465
0.780804 0.566644 0.647745
0.999207 0.575082 0.666438
0.400412 0.707179 0.658976
0.528954 0.736599 0.689158
0.656458 0.759213 0.709789
0.840436 0.772107 0.637064
1 0.770581 0.637659
0.484291 0.887343 0.765057
0.606455 0.910414 0.787411
0.733639 0.932921 0.803601
0.840345 0.971954 0.715343
1 0.980957 0.634424
0.0141604 0.0221256 0.24506
0.145647 0.0524453 0.281804
0.282811 0.0858473 0.321172
0.410056 0.124239 0.375601
0.564462 0.155077 0.454719
0.14876 0.230091 0.39791
0.285237 0.270954 0.438941
0.42681 0.314107 0.483833
0.562539 0.362448 0.548028
0.743755 0.396063 0.63975
0.282612 0.479255 0.56199
0.42768 0.527489 0.609583
0.570596 0.572168 0.653193
0.704494 0.610071 0.712184
0.90518 0.615076 0.775769
0.416968 0.721141 0.725795
0.543252 0.747707 0.754238
0.670207 0.768826 0.777676
0.821927 0.781643 0.805982
1 0.783108 0.809781
0.498436 0.897536 0.831739
0.620981 0.920409 0.856138
0.747951 0.942519 0.878325
0.849805 0.976074 0.862501
1 0.984649 0.794858
