Grain/Grain/Resources/Luts/Vintage/MAD_MAX_04.cube
TITLE "Generated by Resolve"
LUT_3D_SIZE 9
0 0 0
0.0776684 0 0
0.21796 0 0
0.363851 0 0
0.514839 0 0
0.647852 0 0
0.755673 0 0
0.862516 0 0
0.969757 0 0
0.0147097 0.0670481 0.0151522
0.0843214 0.0858473 0
0.238315 0.0821698 0
0.399924 0.0740673 0
0.561944 0.066743 0
0.701579 0.0661784 0
0.813794 0.0734112 0
0.924285 0.082002 0
1 0.0909133 0
0.0740063 0.173114 0.0647288
0.137057 0.195544 0.0548714
0.235996 0.214099 0
0.40029 0.210712 0
0.573007 0.203326 0
0.72108 0.202457 0
0.839597 0.210834 0
0.95613 0.221118 0
1 0.232319 0
0.132631 0.289113 0.119814
0.198688 0.312093 0.120195
0.265248 0.341909 0.0598459
0.394141 0.355306 0
0.568307 0.353979 0
0.723735 0.355962 0
0.848264 0.366522 0
0.969345 0.377493 0
1 0.388342 0
0.191806 0.413947 0.178866
0.261845 0.439261 0.186069
0.324315 0.472343 0.14934
0.413596 0.502373 0.0620432
0.562631 0.512764 0
0.714565 0.517693 0
0.838407 0.527459 0
0.958465 0.535866 0
1 0.54284 0
0.263416 0.546288 0.252308
0.334371 0.571984 0.261677
0.395865 0.603342 0.235691
0.466041 0.635966 0.152117
0.581216 0.654353 0.0621958
0.715694 0.660731 0.0104829
0.830365 0.667048 0
0.942733 0.669642 0
1 0.669917 0
0.339315 0.672251 0.334173
0.407218 0.694255 0.340719
0.46482 0.720104 0.315389
0.523247 0.747265 0.23505
0.61355 0.765576 0.119646
0.726177 0.769818 0.0575265
0.829496 0.773266 0.0220798
0.935988 0.774121 0
1 0.773785 0
0.39855 0.780941 0.40177
0.46041 0.795361 0.402014
0.512779 0.813886 0.373907
0.563836 0.836194 0.299092
0.637507 0.856016 0.180728
0.734493 0.865782 0.0971389
0.828733 0.871778 0.0596475
0.93106 0.87541 0.0261387
1 0.876799 0.000839246
0.438743 0.869871 0.447181
0.49926 0.882307 0.446143
0.551858 0.899443 0.421164
0.601968 0.921523 0.356588
0.666362 0.943969 0.245304
0.749828 0.959533 0.147509
0.834607 0.969833 0.101061
0.929946 0.976196 0.0635843
1 0.979782 0.0305638
0 0 0.00962844
0.0257572 0 0.0182956
0.141268 0 0.0382391
0.295384 0 0.0415351
0.45214 0 0.0375982
0.587671 0 0.0378576
0.697673 0 0.0453346
0.806149 0 0.0536965
0.91548 0 0.0625925
0.0261997 0.0710307 0.0646677
0.0943618 0.086717 0.0796368
0.234195 0.0845808 0.0694743
0.383902 0.0800336 0.0655222
0.537942 0.0750286 0.0610361
0.673259 0.0758679 0.0621653
0.783459 0.084184 0.0704051
0.892378 0.0934768 0.0794995
1 0.103227 0.0889296
0.0856641 0.177386 0.124086
0.155062 0.196124 0.138552
0.239368 0.217258 0.0875563
0.405829 0.212116 0.0663767
0.57322 0.205371 0.0631876
0.716243 0.206241 0.0666819
0.831235 0.215976 0.076524
0.945068 0.22768 0.0877546
1 0.240131 0.0994888
0.144213 0.293706 0.184665
0.214862 0.314443 0.199512
0.27953 0.340887 0.180545
0.399435 0.359533 0.0921492
0.57557 0.356222 0.0695659
0.729625 0.358358 0.0714275
0.852125 0.369131 0.0810559
0.971283 0.380926 0.0918898
1 0.392203 0.102602
0.2038 0.419348 0.248081
0.277134 0.443427 0.265232
0.345663 0.471077 0.264363
0.421332 0.504906 0.182925
0.568353 0.51696 0.100175
0.721798 0.520226 0.0826123
0.844831 0.528847 0.085481
0.963745 0.536904 0.0913252
1 0.54316 0.0975662
0.275319 0.551949 0.324392
0.348531 0.576333 0.341299
0.416892 0.60209 0.343893
0.479454 0.634379 0.284108
0.58468 0.657145 0.16907
0.719692 0.662974 0.113909
0.834302 0.667124 0.099794
0.946242 0.668269 0.0960555
1 0.667292 0.0949874
0.349844 0.677028 0.404364
0.419348 0.697475 0.417334
0.483299 0.717739 0.41648
0.537881 0.742443 0.363363
0.616068 0.763699 0.243519
0.727138 0.770459 0.157275
0.831174 0.773053 0.123842
0.938537 0.772931 0.108003
1 0.77142 0.102754
0.406577 0.783475 0.467201
0.469551 0.79649 0.473198
0.528679 0.810269 0.468421
0.579522 0.829831 0.422446
0.643168 0.851743 0.312627
0.734798 0.864866 0.209644
0.829786 0.872297 0.15877
0.932998 0.875288 0.129412
1 0.875456 0.115633
0.446082 0.871687 0.512688
0.507774 0.883253 0.51722
0.567178 0.896361 0.513573
0.618936 0.915358 0.476097
0.676005 0.938445 0.380972
0.751919 0.957198 0.273762
0.835355 0.969818 0.207568
0.931243 0.976745 0.162783
1 0.979599 0.135576
0 0 0.044831
0.0327916 0.000518807 0.0557565
0.10016 0.0119173 0.0728618
0.214023 0.010544 0.104326
0.367681 0.000350958 0.123812
0.508965 0 0.134966
0.624353 0 0.148302
0.737926 0.00512703 0.161105
0.851255 0.0112764 0.172915
0.0352331 0.0769055 0.106661
0.102129 0.09308 0.122362
0.172061 0.109331 0.142397
0.316335 0.103395 0.170443
0.480232 0.0949721 0.175631
0.620249 0.094255 0.179278
0.733379 0.101946 0.188785
0.844587 0.110857 0.198703
0.955962 0.120211 0.208591
0.0968948 0.183185 0.172793
0.166247 0.201556 0.190936
0.243153 0.220111 0.194751
0.400732 0.215869 0.190997
0.558373 0.212451 0.188357
0.696406 0.215015 0.190814
0.809598 0.226093 0.200748
0.921828 0.238453 0.211795
1 0.251667 0.223529
0.156069 0.299641 0.238636
0.226123 0.320165 0.256977
0.297719 0.342046 0.271931
0.404654 0.363272 0.199054
0.581659 0.359594 0.184985
0.731945 0.362509 0.18883
0.851316 0.37438 0.200137
0.966995 0.386633 0.211673
1 0.398642 0.222919
0.216342 0.426123 0.306477
0.288899 0.450141 0.32636
0.363226 0.474769 0.343603
0.43122 0.506981 0.298314
0.574243 0.521263 0.205676
0.728725 0.523308 0.189548
0.850782 0.531792 0.19379
0.967666 0.539406 0.199939
1 0.545571 0.205982
0.287602 0.558846 0.384848
0.359609 0.582742 0.403571
0.432303 0.605844 0.418891
0.495201 0.633768 0.394018
0.587884 0.659892 0.278706
0.723217 0.664958 0.216281
0.83856 0.668055 0.200946
0.950103 0.668452 0.194751
1 0.667506 0.192187
0.360693 0.68275 0.464591
0.428702 0.702327 0.478782
0.49601 0.719524 0.488365
0.553109 0.73933 0.465202
0.619944 0.762341 0.357687
0.727214 0.770657 0.260899
0.832883 0.77319 0.223789
0.941558 0.772793 0.205325
1 0.771374 0.19617
0.414847 0.786465 0.525795
0.476844 0.799146 0.533349
0.539315 0.810803 0.53785
0.594659 0.826276 0.518181
0.651133 0.84863 0.429038
0.735409 0.8645 0.319112
0.830228 0.872679 0.261326
0.934981 0.875639 0.227893
1 0.875853 0.209262
0.45359 0.873899 0.571496
0.514916 0.885771 0.577996
0.577188 0.897169 0.582238
0.63415 0.912444 0.567575
0.687221 0.934524 0.495338
0.755016 0.955612 0.38912
0.83566 0.969833 0.315343
0.931991 0.977264 0.264363
1 0.980148 0.232349
0 0 0.0822156
0.0399634 0.00543221 0.0953841
0.105348 0.0184634 0.111833
0.179873 0.0303502 0.134554
0.29807 0.0293736 0.171267
0.428367 0.0264744 0.202197
0.542977 0.0297093 0.228244
0.658198 0.0338598 0.250538
0.77467 0.038819 0.270039
0.0426795 0.0831922 0.148379
0.1093 0.100023 0.165133
0.175723 0.117556 0.183139
0.254475 0.131823 0.20943
0.393896 0.127565 0.247257
0.53814 0.124102 0.270985
0.656779 0.12932 0.289891
0.773129 0.136217 0.306004
0.889372 0.144213 0.320455
0.106325 0.189639 0.21828
0.175631 0.20853 0.236927
0.244327 0.228016 0.255665
0.334722 0.240986 0.285557
0.500328 0.232944 0.305715
0.645289 0.233677 0.313817
0.761715 0.243854 0.325811
0.876707 0.25594 0.338338
0.99176 0.268559 0.350668
0.167025 0.306004 0.28864
0.237766 0.326772 0.309194
0.309575 0.348241 0.330205
0.410483 0.366155 0.318242
0.578042 0.363943 0.317632
0.72105 0.369329 0.322927
0.836316 0.382071 0.333928
0.949355 0.395209 0.34519
1 0.40734 0.355566
0.228504 0.433143 0.361028
0.301427 0.457374 0.383581
0.374746 0.481666 0.404623
0.446479 0.508232 0.407965
0.579675 0.52433 0.319982
0.733593 0.525521 0.31284
0.852827 0.533715 0.319615
0.96672 0.54168 0.32726
1 0.547616 0.333577
0.299672 0.565774 0.441886
0.37142 0.589502 0.462745
0.442695 0.611963 0.480552
0.512688 0.634333 0.487419
0.590616 0.661723 0.391577
0.726177 0.665888 0.327398
0.841276 0.667384 0.315999
0.951782 0.667384 0.312764
1 0.666194 0.31165
0.371298 0.688197 0.521859
0.438453 0.707088 0.537499
0.504082 0.723262 0.548775
0.567971 0.737987 0.550256
0.625803 0.759976 0.473106
0.726986 0.770672 0.369177
0.834043 0.772412 0.332738
0.943832 0.771756 0.31754
1 0.770092 0.310857
0.423301 0.789548 0.582162
0.48452 0.801709 0.591104
0.546044 0.813138 0.59762
0.608072 0.824826 0.597894
0.661692 0.844984 0.541329
0.73611 0.863813 0.431693
0.830228 0.872694 0.369146
0.936446 0.875196 0.336141
1 0.874983 0.319585
0.461509 0.876448 0.628397
0.522179 0.887984 0.636332
0.584009 0.899718 0.642756
0.64686 0.911696 0.644282
0.700633 0.930694 0.602228
0.75938 0.953521 0.505974
0.835737 0.969589 0.426474
0.932265 0.977356 0.371817
1 0.979873 0.339803
0 0 0.12108
0.0467842 0.010544 0.13666
0.112474 0.0243839 0.153964
0.179644 0.0393225 0.171847
0.264042 0.0496071 0.201312
0.368292 0.0539254 0.24004
0.46952 0.0604868 0.276493
0.577295 0.0662394 0.309987
0.690669 0.071107 0.339986
0.0499123 0.0897993 0.191577
0.116197 0.106783 0.208881
0.182986 0.124758 0.227588
0.250935 0.142901 0.246921
0.340963 0.154192 0.280293
0.458625 0.156985 0.321218
0.570092 0.163241 0.355642
0.685847 0.1691 0.384817
0.804822 0.175845 0.410056
0.114778 0.19675 0.263874
0.183261 0.215824 0.282582
0.251698 0.235859 0.302068
0.320546 0.256062 0.322606
0.421561 0.266133 0.360342
0.559442 0.266377 0.39765
0.681727 0.274113 0.424964
0.802686 0.283528 0.44686
0.923415 0.294224 0.465614
0.177111 0.31313 0.337438
0.247761 0.333974 0.358282
0.31989 0.356146 0.380133
0.392233 0.379324 0.402518
0.523613 0.384878 0.438712
0.673472 0.387076 0.45304
0.79205 0.398779 0.46659
0.906508 0.410773 0.478599
1 0.422339 0.489479
0.240345 0.440864 0.414069
0.313344 0.46482 0.43769
0.38706 0.489036 0.461433
0.46125 0.512566 0.48336
0.584833 0.526436 0.447639
0.731792 0.527962 0.449973
0.845411 0.537301 0.458518
0.954147 0.545602 0.466011
1 0.551812 0.471687
0.311604 0.573083 0.497398
0.38294 0.596063 0.519326
0.453819 0.618097 0.539635
0.52459 0.638331 0.55581
0.594247 0.662654 0.50956
0.728618 0.665492 0.447669
0.842542 0.666072 0.443183
0.950454 0.665736 0.442954
1 0.665049 0.443732
0.381735 0.693706 0.577646
0.448203 0.711666 0.594247
0.512779 0.726925 0.607294
0.577081 0.739849 0.615641
0.635843 0.756542 0.586969
0.726131 0.770108 0.482246
0.835218 0.771038 0.450324
0.945098 0.769818 0.440726
1 0.768185 0.437598
0.431495 0.792416 0.637018
0.49247 0.804273 0.64744
0.553399 0.815427 0.656001
0.616175 0.826505 0.662074
0.675196 0.840986 0.644892
0.737377 0.862516 0.54905
0.829877 0.872312 0.482277
0.937697 0.874052 0.452567
1 0.873304 0.440406
0.469474 0.879011 0.684199
0.530053 0.890517 0.693767
0.591424 0.902205 0.702205
0.654612 0.91368 0.708217
0.715267 0.927611 0.697597
0.766079 0.950515 0.62533
0.83566 0.968963 0.542184
0.932174 0.977005 0.484855
1 0.978897 0.455299
0 0.00411994 0.157015
0.0544289 0.016434 0.173404
0.120073 0.0307164 0.191058
0.187564 0.0462501 0.209674
0.259281 0.0613413 0.230961
0.34403 0.0721752 0.266667
0.430762 0.0829938 0.305562
0.527245 0.0916609 0.344472
0.632456 0.0986954 0.381659
0.0573587 0.0967575 0.229313
0.123873 0.114229 0.247379
0.190585 0.132219 0.2663
0.258839 0.150774 0.286198
0.331441 0.168231 0.308934
0.422782 0.179492 0.348653
0.517922 0.190005 0.38941
0.623606 0.198474 0.428092
0.737484 0.206134 0.463386
0.122866 0.204364 0.303197
0.191272 0.223957 0.322484
0.259403 0.243992 0.342245
0.328573 0.264576 0.363241
0.402792 0.283955 0.387961
0.506188 0.294591 0.4327
0.615457 0.304906 0.47422
0.733532 0.314427 0.510063
0.85536 0.323522 0.539666
0.186328 0.321035 0.378698
0.25713 0.342565 0.400031
0.328695 0.365148 0.421973
0.400992 0.388968 0.445045
0.479255 0.41088 0.473579
0.60557 0.41735 0.519417
0.727886 0.425757 0.550179
0.848371 0.434989 0.572122
0.966003 0.4439 0.588388
0.251255 0.44947 0.458381
0.324559 0.473716 0.482612
0.398032 0.497597 0.506508
0.472404 0.521004 0.5299
0.56286 0.537835 0.557168
0.707835 0.538933 0.566934
0.819776 0.547768 0.57525
0.927291 0.555764 0.582223
1 0.561135 0.586847
0.322545 0.581109 0.543389
0.393896 0.603845 0.565927
0.464408 0.625071 0.586938
0.534813 0.644755 0.605951
0.602777 0.663523 0.607797
0.731502 0.666072 0.55639
0.841306 0.666285 0.557031
0.944884 0.666743 0.558816
1 0.666758 0.560113
0.391501 0.700099 0.623743
0.457206 0.716915 0.640375
0.521111 0.731167 0.654185
0.58471 0.743587 0.665064
0.648371 0.755322 0.667033
0.726711 0.770886 0.578668
0.837293 0.770535 0.55436
0.945937 0.769039 0.55021
1 0.768002 0.549874
0.439384 0.796445 0.682277
0.500114 0.807813 0.693416
0.561044 0.818891 0.703563
0.623362 0.829923 0.712123
0.68748 0.84097 0.715007
0.74107 0.862196 0.648859
0.830854 0.873121 0.579019
0.940047 0.87396 0.554696
1 0.872892 0.547326
0.477256 0.882795 0.730358
0.537758 0.894087 0.740902
0.599039 0.905684 0.750866
0.661707 0.917144 0.758999
0.726604 0.92845 0.762661
0.775555 0.948882 0.72192
0.837064 0.969589 0.640635
0.933379 0.977859 0.581689
1 0.979034 0.5561
0 0.00975052 0.186465
0.0626078 0.0228733 0.20322
0.128618 0.0378576 0.2215
0.196002 0.0535897 0.240269
0.265476 0.0700236 0.259648
0.339406 0.0847486 0.290059
0.416693 0.0988479 0.328023
0.504112 0.110231 0.36817
0.601663 0.119539 0.408515
0.0656748 0.104524 0.26006
0.132052 0.122072 0.278355
0.1991 0.14049 0.29781
0.267247 0.159045 0.3178
0.337392 0.177981 0.338354
0.413993 0.194202 0.371389
0.496986 0.208743 0.412238
0.592294 0.220157 0.4542
0.699245 0.230045 0.495338
0.131579 0.212894 0.335088
0.199664 0.232517 0.354513
0.268025 0.252964 0.374838
0.337118 0.273518 0.39588
0.408499 0.294743 0.418082
0.490623 0.312642 0.455589
0.58468 0.327825 0.500801
0.692576 0.339513 0.543893
0.809705 0.349462 0.582071
0.195834 0.330129 0.411933
0.266468 0.351934 0.433433
0.33814 0.375204 0.456001
0.410224 0.399023 0.479255
0.483665 0.423224 0.503838
0.57467 0.440162 0.545739
0.682841 0.451621 0.589166
0.800153 0.459861 0.623026
0.919493 0.467109 0.648341
0.262043 0.459342 0.49369
0.335027 0.483436 0.517754
0.408392 0.507515 0.541711
0.481727 0.530648 0.564355
0.553933 0.553246 0.586465
0.66247 0.561471 0.625223
0.780804 0.566644 0.647745
0.892439 0.571557 0.659632
0.999207 0.575082 0.666438
0.333074 0.590265 0.5794
0.404074 0.612543 0.601816
0.474403 0.633402 0.622919
0.544182 0.652018 0.641978
0.613397 0.668009 0.658259
0.730724 0.669047 0.644465
0.834073 0.670634 0.646342
0.933623 0.671763 0.647593
1 0.672526 0.648478
0.400412 0.707179 0.658976
0.465507 0.72314 0.675288
0.528954 0.736599 0.689158
0.592309 0.74844 0.701122
0.656458 0.759213 0.709789
0.729091 0.773236 0.652018
0.840436 0.772107 0.637064
0.946715 0.770871 0.636393
1 0.770581 0.637659
0.446571 0.801328 0.716442
0.507347 0.812589 0.728069
0.568292 0.823453 0.738994
0.630777 0.834607 0.74931
0.694835 0.845212 0.756329
0.747585 0.863478 0.723552
0.833677 0.875608 0.652918
0.943664 0.875669 0.634653
1 0.87454 0.630976
0.484291 0.887343 0.765057
0.545129 0.898878 0.776516
0.606455 0.910414 0.787411
0.669001 0.921798 0.797009
0.733639 0.932921 0.803601
0.78613 0.949798 0.788952
0.840345 0.971954 0.715343
0.936355 0.980423 0.65565
1 0.980957 0.634424
0.00587472 0.0157015 0.215503
0.0710765 0.0297246 0.232975
0.137026 0.0449989 0.251423
0.204715 0.0612497 0.270741
0.274006 0.0778058 0.290166
0.341268 0.095552 0.315633
0.41062 0.112398 0.350927
0.489982 0.126589 0.390631
0.579675 0.138262 0.432166
0.0738537 0.112245 0.290272
0.14052 0.130236 0.309148
0.207477 0.148669 0.328725
0.275929 0.167636 0.349187
0.345937 0.186557 0.369802
0.414099 0.206409 0.396674
0.486671 0.224262 0.434546
0.57229 0.239246 0.477302
0.670542 0.251774 0.521431
0.140078 0.221347 0.366308
0.208316 0.241413 0.386267
0.276509 0.261814 0.406714
0.346014 0.282841 0.42829
0.417502 0.304265 0.450767
0.488411 0.327001 0.480751
0.568215 0.346609 0.523735
0.664027 0.362051 0.570001
0.772168 0.373724 0.613779
0.20502 0.339193 0.444343
0.275959 0.36173 0.466499
0.347387 0.385153 0.489281
0.419745 0.40943 0.5131
0.492943 0.433417 0.53753
0.565713 0.456931 0.569451
0.653376 0.473671 0.614298
0.75874 0.484474 0.656962
0.872938 0.491447 0.691661
0.272374 0.469184 0.527855
0.345388 0.493568 0.552132
0.418097 0.517372 0.575631
0.490852 0.540658 0.598199
0.562264 0.562707 0.619821
0.634394 0.582223 0.649882
0.7337 0.590173 0.689326
0.845167 0.592767 0.715496
0.955032 0.593301 0.730297
0.343282 0.599527 0.614206
0.41387 0.621378 0.636316
0.483528 0.64155 0.656855
0.552743 0.659632 0.675425
0.620676 0.674693 0.690776
0.697719 0.683467 0.713939
0.805844 0.681895 0.725597
0.907668 0.682017 0.728908
1 0.682155 0.730404
0.409094 0.714443 0.692912
0.473365 0.729366 0.708537
0.5364 0.742214 0.72224
0.599557 0.753536 0.734508
0.663584 0.76376 0.745525
0.732036 0.775555 0.725353
0.840742 0.774136 0.722164
0.942153 0.774227 0.723476
1 0.774975 0.72491
0.453666 0.806516 0.749355
0.51429 0.817441 0.76109
0.575525 0.828443 0.772763
0.637888 0.83917 0.783886
0.701946 0.849912 0.793698
0.756954 0.864607 0.791287
0.836835 0.878065 0.72636
0.946822 0.877379 0.715816
1 0.876539 0.715251
0.491432 0.892393 0.798657
0.552377 0.903883 0.81059
0.613794 0.915343 0.822202
0.676387 0.926619 0.83299
0.740627 0.937682 0.841718
0.79707 0.95169 0.844984
0.844343 0.974243 0.788769
0.939574 0.982986 0.728893
1 0.982864 0.713176
0.0141604 0.0221256 0.24506
0.0793469 0.0365759 0.262806
0.145647 0.0524453 0.281804
0.213214 0.0688334 0.301213
0.282811 0.0858473 0.321172
0.346853 0.104829 0.343679
0.410056 0.124239 0.375601
0.482094 0.140887 0.413306
0.564462 0.155077 0.454719
0.0822461 0.120226 0.320912
0.148806 0.138277 0.33994
0.216068 0.157122 0.360006
0.284413 0.176074 0.380514
0.354742 0.195392 0.401617
0.419257 0.216571 0.425086
0.484092 0.237766 0.458961
0.560647 0.255848 0.499992
0.650339 0.271504 0.54519
0.14876 0.230091 0.39791
0.21677 0.250141 0.417975
0.285237 0.270954 0.438941
0.354757 0.292042 0.460655
0.42681 0.314107 0.483833
0.493462 0.338598 0.50988
0.562539 0.362448 0.548028
0.646097 0.381353 0.593133
0.743755 0.396063 0.63975
0.214389 0.348684 0.477104
0.285237 0.37145 0.499504
0.356893 0.395438 0.522927
0.429053 0.419623 0.546777
0.502434 0.443854 0.571466
0.569024 0.469215 0.597864
0.640085 0.491417 0.637125
0.72929 0.50602 0.681529
0.832929 0.515129 0.722988
0.282612 0.479255 0.56199
0.355245 0.503532 0.586084
0.42768 0.527489 0.609583
0.499489 0.550317 0.631662
0.570596 0.572168 0.653193
0.633295 0.594202 0.675761
0.704494 0.610071 0.712184
0.799329 0.615137 0.748882
0.90518 0.615076 0.775769
0.353033 0.608652 0.648463
0.423148 0.630106 0.670192
0.49221 0.649836 0.690211
0.560372 0.667155 0.707774
0.62681 0.681743 0.722179
0.682765 0.696529 0.737163
0.7579 0.702602 0.767865
0.861616 0.699962 0.789364
0.967315 0.69781 0.799664
0.416968 0.721141 0.725795
0.480674 0.735409 0.740917
0.543252 0.747707 0.754238
0.606241 0.758801 0.766445
0.670207 0.768826 0.777676
0.726268 0.781216 0.790356
0.821927 0.781643 0.805982
0.92282 0.782177 0.808347
1 0.783108 0.809781
0.460395 0.811597 0.781567
0.521157 0.822599 0.793622
0.582452 0.833524 0.8056
0.645014 0.844236 0.817349
0.709285 0.854795 0.828763
0.766308 0.867582 0.840055
0.84033 0.88011 0.802884
0.947951 0.879332 0.8009
1 0.879515 0.802518
0.498436 0.897536 0.831739
0.559457 0.908995 0.844022
0.620981 0.920409 0.856138
0.683711 0.931594 0.867781
0.747951 0.942519 0.878325
0.805249 0.955642 0.888075
0.849805 0.976074 0.862501
0.943008 0.985321 0.803891
1 0.984649 0.794858
