Grain/Grain/Resources/Luts/Vintage/VINTAGE_01.cube
TITLE "Generate by Resolve"
LUT_3D_SIZE 5
0.108003 0.108003 0.108003
0.2365 0.101381 0.102266
0.524895 0.0581369 0.0612039
0.834424 0.0198062 0.0261387
0.99585 0.0446479 0.0534829
0.1308 0.225849 0.118883
0.238315 0.222629 0.120516
0.514549 0.19237 0.0978408
0.847227 0.168856 0.0827192
1 0.209354 0.130892
0.152239 0.490745 0.126787
0.264408 0.497597 0.139528
0.542275 0.488914 0.140398
0.866056 0.483955 0.146029
1 0.522347 0.194675
0.277485 0.856916 0.215808
0.388251 0.853162 0.214755
0.618799 0.839368 0.206958
0.876249 0.828107 0.205035
1 0.842786 0.232197
0.50988 1 0.39237
0.59176 1 0.379477
0.757656 1 0.353475
0.919066 0.999924 0.336446
1 0.993988 0.340276
0.110597 0.132738 0.244465
0.231159 0.126223 0.233707
0.510445 0.0876631 0.188983
0.829587 0.0527962 0.148211
1 0.0806744 0.172671
0.135561 0.242786 0.233783
0.241566 0.242313 0.234257
0.518105 0.217273 0.210971
0.855207 0.199344 0.19559
1 0.243107 0.242725
0.163058 0.515862 0.234455
0.274739 0.522622 0.245106
0.54931 0.513832 0.243198
0.868742 0.507317 0.245304
1 0.545571 0.293156
0.287633 0.869093 0.33022
0.397299 0.864637 0.327291
0.623926 0.849699 0.316457
0.876188 0.836332 0.310765
1 0.848371 0.334401
0.510536 1 0.500267
0.591226 1 0.486778
0.755337 1 0.45948
0.914366 0.997269 0.440833
1 0.99118 0.442451
0.112871 0.170565 0.559442
0.222004 0.167758 0.547311
0.496635 0.137163 0.505608
0.829618 0.111849 0.47013
1 0.150958 0.501274
0.136477 0.278614 0.538491
0.24271 0.282902 0.53959
0.521981 0.267613 0.519844
0.863508 0.259922 0.507973
1 0.305806 0.550607
0.177249 0.5617 0.533806
0.287831 0.566949 0.539788
0.554116 0.55642 0.530907
0.866514 0.55024 0.527443
1 0.587564 0.568643
0.305943 0.89012 0.601465
0.412909 0.883833 0.595026
0.630426 0.865995 0.577844
0.871168 0.848829 0.563439
1 0.856291 0.576501
0.513191 1 0.714961
0.591394 1 0.70071
0.751492 1 0.671611
0.905043 0.992523 0.650462
1 0.986374 0.647959
0.128923 0.237064 0.896269
0.233845 0.241047 0.898024
0.511437 0.225376 0.877089
0.852827 0.217731 0.861265
1 0.264744 0.897642
0.148379 0.36228 0.881209
0.257771 0.370672 0.890196
0.537072 0.363302 0.881819
0.870802 0.359731 0.874311
1 0.400015 0.907515
0.200198 0.634516 0.869017
0.309361 0.635935 0.872053
0.565728 0.625269 0.863523
0.866285 0.619928 0.859449
1 0.651484 0.890745
0.338964 0.921965 0.900069
0.440635 0.912398 0.890547
0.643885 0.890043 0.868452
0.866606 0.868421 0.847517
0.998917 0.870085 0.850462
0.524941 1 0.932555
0.599725 1 0.918761
0.753124 1 0.890364
0.89778 0.992798 0.869718
0.999771 0.986923 0.864988
0.173053 0.382467 1
0.282414 0.390768 1
0.558343 0.383795 1
0.885679 0.379675 1
1 0.419303 1
0.194369 0.510658 1
0.303532 0.515984 1
0.568139 0.505562 1
0.881117 0.499733 1
1 0.53756 1
0.250507 0.743877 1
0.360021 0.742336 1
0.599725 0.729656 1
0.875074 0.71899 1
1 0.737041 1
0.393072 0.964797 1
0.487388 0.952224 1
0.673823 0.925719 1
0.873396 0.900587 0.9906
0.994202 0.897261 0.987854
0.55198 1 1
0.62356 1 1
0.767544 1 1
0.900649 1 0.989883
1 1 0.985702
