Grain/Grain/Resources/Luts/Vintage/VINTAGE_01.cube
TITLE "Generate by Resolve"
LUT_3D_SIZE 33
0.108003 0.108003 0.108003
0.120882 0.107317 0.107393
0.13373 0.10692 0.107073
0.146426 0.106538 0.106783
0.161608 0.10605 0.106371
0.178225 0.105379 0.105821
0.19588 0.104479 0.105043
0.215091 0.103212 0.103914
0.2365 0.101381 0.102266
0.260884 0.0988327 0.0998856
0.288731 0.0953994 0.0965896
0.320485 0.0910048 0.092256
0.356497 0.0855268 0.0870832
0.396399 0.0790723 0.0811475
0.438605 0.0721294 0.0745708
0.481865 0.0650339 0.0677806
0.524895 0.0581369 0.0612039
0.566751 0.0517128 0.0551308
0.609476 0.0452277 0.049012
0.652689 0.038819 0.0429847
0.695094 0.0328374 0.0373999
0.735409 0.0276646 0.032639
0.772427 0.0236515 0.0290684
0.805325 0.0210574 0.0269169
0.834424 0.0198062 0.0261387
0.860197 0.0198367 0.0266575
0.883085 0.0210422 0.0285191
0.903777 0.0233005 0.0311131
0.923003 0.026566 0.0344549
0.941329 0.0303502 0.038468
0.959258 0.034699 0.0430457
0.977264 0.0395056 0.0480964
0.99585 0.0446479 0.0534829
0.109606 0.121416 0.108385
0.122728 0.120836 0.107866
0.135393 0.120348 0.107454
0.147982 0.11989 0.107057
0.16286 0.11928 0.106538
0.178698 0.118563 0.105928
0.195743 0.117617 0.105104
0.214435 0.116304 0.10396
0.23534 0.114488 0.102312
0.259251 0.111955 0.0999924
0.28658 0.108598 0.0968643
0.317769 0.104311 0.0928206
0.353185 0.0989853 0.0877852
0.392432 0.0927749 0.0818647
0.434195 0.0860151 0.0754406
0.477211 0.0790723 0.068864
0.520165 0.0723278 0.0624857
0.561975 0.0660716 0.0566415
0.604593 0.0598306 0.0508125
0.647837 0.0536507 0.0450599
0.690471 0.0478981 0.039765
0.731243 0.0429389 0.0352789
0.768902 0.0391241 0.0319677
0.802518 0.0368963 0.0300908
0.832425 0.0358282 0.0296483
0.859022 0.0359655 0.0306554
0.882734 0.0372168 0.0325933
0.904204 0.0394598 0.0355077
0.924193 0.0425422 0.0392309
0.943191 0.0463569 0.0436408
0.961715 0.0507515 0.0486458
0.98024 0.0556344 0.0540932
0.999298 0.0608988 0.0599069
0.111513 0.134463 0.109071
0.124437 0.133852 0.108522
0.136965 0.133318 0.108049
0.149493 0.132799 0.107607
0.163836 0.132189 0.107057
0.179019 0.131456 0.106432
0.195544 0.13051 0.105608
0.213794 0.129213 0.104479
0.234302 0.127443 0.102876
0.257771 0.125002 0.100649
0.284672 0.121767 0.0976425
0.315389 0.117632 0.0937819
0.350317 0.11252 0.0889601
0.389105 0.106523 0.0832685
0.430533 0.0999924 0.0770886
0.47332 0.0932784 0.0707408
0.516228 0.0867475 0.0646067
0.558007 0.0808881 0.0590066
0.600549 0.0748913 0.0535134
0.643931 0.0688945 0.0480964
0.6869 0.0632486 0.043122
0.728191 0.0583047 0.038941
0.766583 0.0544137 0.0359045
0.801053 0.0518807 0.0343328
0.831724 0.0506905 0.0343023
0.859083 0.0507668 0.0353399
0.883543 0.0520333 0.0375067
0.905669 0.0543374 0.0406958
0.926268 0.0575113 0.0447242
0.945815 0.0614176 0.0494392
0.964828 0.0659495 0.0547646
0.98381 0.0710002 0.0605631
1 0.0764324 0.0667277
0.113359 0.147311 0.109728
0.126131 0.1467 0.109163
0.138598 0.146151 0.108675
0.151202 0.145617 0.108202
0.164706 0.145037 0.107713
0.179339 0.144472 0.107088
0.195438 0.143572 0.10631
0.213306 0.142351 0.105257
0.233463 0.140673 0.103777
0.25658 0.138323 0.101686
0.283101 0.13521 0.0988632
0.313436 0.131228 0.0952316
0.347967 0.126268 0.0906691
0.386419 0.120424 0.0852827
0.427619 0.114 0.0793927
0.470344 0.107362 0.0733501
0.513344 0.100847 0.0674907
0.555398 0.0948043 0.0621805
0.597986 0.088838 0.0570382
0.64155 0.0828565 0.0519417
0.684825 0.0772106 0.0472725
0.726558 0.0722667 0.0433814
0.765515 0.0683604 0.0407721
0.800641 0.0658122 0.0393835
0.831998 0.064683 0.0393378
0.860014 0.0648356 0.0405585
0.8851 0.0661936 0.0429389
0.907805 0.0686351 0.0463722
0.928908 0.0719463 0.0506294
0.948943 0.0760204 0.0556344
0.968399 0.0807355 0.0612345
0.987778 0.0859693 0.0673381
1 0.0916152 0.0738231
0.115526 0.161608 0.110521
0.128222 0.160952 0.110018
0.140703 0.160388 0.109606
0.152926 0.159854 0.109209
0.16582 0.159274 0.108827
0.180026 0.158572 0.10837
0.195773 0.157671 0.107729
0.213352 0.156435 0.106828
0.233249 0.154757 0.105516
0.256123 0.152453 0.103639
0.282399 0.149401 0.101076
0.312444 0.145495 0.0977188
0.346685 0.140642 0.0934615
0.384878 0.134905 0.0884108
0.425895 0.128603 0.0828412
0.468544 0.122072 0.0771344
0.511574 0.115663 0.0715953
0.553765 0.109697 0.0665904
0.596384 0.103883 0.0618143
0.640085 0.098024 0.0570687
0.683635 0.0924849 0.052903
0.725795 0.0876478 0.0492866
0.765332 0.0838636 0.0467079
0.801144 0.0814679 0.0454871
0.833173 0.0804761 0.0456245
0.861845 0.0807965 0.0470588
0.887556 0.0823224 0.0496681
0.910842 0.0849622 0.0533455
0.932494 0.0884871 0.0578775
0.953017 0.0927901 0.0631723
0.972946 0.0977493 0.0690776
0.992767 0.103243 0.0755169
1 0.109163 0.0823377
0.118517 0.176059 0.111925
0.131197 0.175463 0.111559
0.14374 0.174914 0.111269
0.155108 0.174441 0.11104
0.167483 0.173922 0.110811
0.181292 0.173281 0.110506
0.196719 0.172412 0.110033
0.214069 0.171252 0.109316
0.233783 0.16965 0.108217
0.256489 0.167422 0.106584
0.282567 0.164492 0.10428
0.312413 0.160739 0.101213
0.34641 0.156069 0.0973068
0.384375 0.15053 0.092607
0.425223 0.144427 0.0874342
0.467765 0.138109 0.0820783
0.510796 0.131884 0.0769207
0.553109 0.126116 0.072282
0.595743 0.120531 0.0680705
0.639612 0.114931 0.0636912
0.683452 0.109667 0.0596475
0.726055 0.105089 0.0562753
0.766155 0.101549 0.0539101
0.802625 0.0993668 0.0528878
0.835309 0.0986038 0.0532692
0.864637 0.0991684 0.0549325
0.891005 0.100938 0.0578012
0.9149 0.103838 0.0617685
0.937102 0.107652 0.0666209
0.958175 0.112245 0.072221
0.978607 0.117525 0.0784924
0.998886 0.123369 0.0852827
1 0.129625 0.0924697
0.122194 0.191257 0.113817
0.135058 0.190738 0.113634
0.146761 0.190326 0.113558
0.157519 0.18996 0.113527
0.169451 0.189517 0.113466
0.182925 0.188952 0.113344
0.198108 0.18819 0.113085
0.21529 0.187137 0.112596
0.234897 0.185657 0.111727
0.257511 0.183581 0.110353
0.283482 0.180819 0.108354
0.313207 0.177264 0.105623
0.347066 0.172824 0.102083
0.384863 0.167544 0.0977951
0.425528 0.16173 0.093019
0.467948 0.155703 0.0882734
0.510994 0.149798 0.0835279
0.553445 0.144366 0.0792401
0.596201 0.139162 0.0751965
0.640253 0.133928 0.0711223
0.684382 0.12903 0.0673838
0.727382 0.124788 0.0643015
0.768002 0.121569 0.062211
0.805097 0.119692 0.0614633
0.838422 0.119219 0.0621195
0.868406 0.120089 0.0640726
0.895415 0.122194 0.0672618
0.919936 0.125429 0.0715343
0.942748 0.129595 0.0767376
0.964385 0.134569 0.0827192
0.985351 0.140215 0.0893568
1 0.146456 0.0965591
1 0.15314 0.104173
0.126665 0.20766 0.116106
0.13875 0.207324 0.116213
0.149691 0.20705 0.116365
0.159976 0.206806 0.116518
0.171542 0.206485 0.11667
0.184756 0.206043 0.116762
0.199786 0.205417 0.116747
0.216861 0.204501 0.116503
0.236469 0.203159 0.115908
0.259068 0.201266 0.114824
0.285023 0.198718 0.113329
0.314717 0.195422 0.110964
0.348531 0.191257 0.10779
0.386221 0.186343 0.103868
0.42681 0.180926 0.0994888
0.469215 0.175326 0.0949569
0.512291 0.169848 0.090547
0.554864 0.164828 0.0866255
0.597726 0.160052 0.0829633
0.641962 0.155261 0.0792706
0.686366 0.15079 0.0758984
0.729717 0.14696 0.073167
0.770825 0.144137 0.0714427
0.808499 0.142626 0.0710155
0.842451 0.14255 0.0720226
0.87306 0.143801 0.0743267
0.90074 0.146288 0.0778668
0.925902 0.14992 0.0825208
0.949325 0.154513 0.0881208
0.971557 0.159915 0.0945144
0.993088 0.166018 0.101595
1 0.172671 0.109194
1 0.179736 0.117189
0.1308 0.225849 0.118883
0.14197 0.225711 0.11928
0.152346 0.225589 0.119661
0.16228 0.225467 0.120027
0.173571 0.225284 0.120378
0.186618 0.224979 0.120699
0.201556 0.224506 0.120882
0.218631 0.223774 0.120882
0.238315 0.222629 0.120516
0.261036 0.220966 0.119692
0.287098 0.218708 0.118303
0.316915 0.215732 0.116228
0.35082 0.211948 0.113405
0.388525 0.207462 0.109865
0.429084 0.202502 0.105913
0.471458 0.197375 0.101793
0.514549 0.19237 0.0978408
0.557198 0.187839 0.0943465
0.600198 0.183551 0.0911116
0.644602 0.179263 0.0878767
0.68925 0.175265 0.0849317
0.732937 0.171908 0.0826429
0.774472 0.169543 0.0813306
0.81268 0.16849 0.0813153
0.847227 0.168856 0.0827192
0.878462 0.17055 0.0854353
0.906783 0.173495 0.0893873
0.932586 0.1776 0.0944839
0.956634 0.18265 0.100511
0.979431 0.18851 0.107317
1 0.19501 0.114733
1 0.201999 0.122652
1 0.209354 0.130892
0.133883 0.246433 0.120912
0.144411 0.246479 0.121523
0.154391 0.246525 0.122103
0.16408 0.24654 0.122621
0.175219 0.246525 0.123171
0.188205 0.246403 0.123705
0.203174 0.246143 0.124132
0.220386 0.24564 0.124376
0.240284 0.244755 0.124285
0.263218 0.243381 0.123766
0.289509 0.241443 0.122713
0.319524 0.238819 0.121004
0.353597 0.235431 0.118547
0.391363 0.231373 0.115465
0.431922 0.226902 0.111986
0.474266 0.222293 0.10837
0.517342 0.217823 0.104921
0.560037 0.213825 0.101946
0.603204 0.210071 0.0992142
0.647791 0.206302 0.0964828
0.692668 0.202853 0.0940566
0.73666 0.200031 0.0922713
0.778607 0.198199 0.0914473
0.817304 0.19765 0.0919203
0.852415 0.19852 0.0937972
0.88426 0.200732 0.0970016
0.913191 0.204166 0.101411
0.939574 0.208698 0.106905
0.964111 0.214145 0.113283
0.987335 0.22031 0.120378
1 0.227085 0.128054
1 0.234302 0.136141
1 0.24181 0.144518
0.136095 0.269993 0.121935
0.146227 0.270253 0.122805
0.155962 0.270497 0.123598
0.16553 0.27068 0.124331
0.176608 0.270848 0.125093
0.189624 0.270939 0.125872
0.204685 0.270909 0.126574
0.222126 0.270634 0.127092
0.242298 0.270008 0.127306
0.265507 0.268925 0.127108
0.292088 0.267308 0.126406
0.322393 0.265049 0.125093
0.356695 0.262058 0.123079
0.394568 0.258473 0.12047
0.435126 0.25452 0.117525
0.477455 0.250462 0.114473
0.520516 0.246571 0.11162
0.563241 0.243153 0.109224
0.606577 0.239948 0.107057
0.651362 0.236759 0.104906
0.696468 0.23389 0.103059
0.740764 0.231662 0.101869
0.783062 0.230396 0.10161
0.822202 0.230396 0.102632
0.857786 0.231769 0.104982
0.890089 0.234394 0.108598
0.919448 0.238193 0.113359
0.946227 0.243046 0.119142
0.971099 0.248737 0.125765
0.994614 0.2551 0.133043
1 0.262013 0.140841
1 0.269306 0.14902
1 0.276875 0.157412
0.137636 0.297139 0.122148
0.147494 0.297581 0.123232
0.157092 0.297993 0.124239
0.166598 0.298344 0.12517
0.177707 0.298695 0.126162
0.190799 0.298985 0.127184
0.206043 0.299168 0.128145
0.223758 0.299123 0.128954
0.244251 0.298772 0.129488
0.267826 0.297978 0.129641
0.294759 0.296696 0.12932
0.325414 0.294789 0.12842
0.360006 0.292226 0.126879
0.398001 0.289113 0.124804
0.438605 0.285695 0.122438
0.480903 0.282216 0.120012
0.523934 0.278935 0.1178
0.566659 0.276143 0.116075
0.610224 0.273533 0.114519
0.655207 0.270939 0.112993
0.700496 0.268666 0.111772
0.744976 0.266987 0.111147
0.787488 0.266224 0.111406
0.826841 0.266651 0.112871
0.862669 0.268376 0.115602
0.895232 0.271305 0.119509
0.924849 0.275319 0.124514
0.951858 0.280339 0.13048
0.976913 0.286152 0.137224
1 0.292576 0.144579
1 0.299504 0.152377
1 0.306767 0.16051
1 0.314229 0.168826
0.138491 0.328206 0.121477
0.148211 0.328832 0.122774
0.157763 0.329397 0.123995
0.167269 0.3299 0.125109
0.178439 0.330419 0.126314
0.191669 0.330922 0.127581
0.207172 0.331319 0.128817
0.225238 0.331502 0.129915
0.246113 0.331395 0.13077
0.270069 0.330907 0.131304
0.297429 0.329946 0.13138
0.328496 0.328405 0.130907
0.363394 0.326268 0.129854
0.401556 0.323674 0.128359
0.442206 0.320821 0.126635
0.484474 0.317937 0.12488
0.527428 0.315267 0.123339
0.570092 0.313085 0.122271
0.613794 0.310979 0.121294
0.658839 0.308873 0.120302
0.704143 0.307042 0.119585
0.748608 0.305776 0.119402
0.791089 0.305364 0.120058
0.830457 0.306081 0.121859
0.866331 0.308019 0.124849
0.898939 0.311116 0.128954
0.928618 0.315236 0.134081
0.955673 0.320287 0.140124
0.980758 0.32607 0.146883
1 0.332433 0.154177
1 0.339239 0.161898
1 0.346334 0.169879
1 0.353582 0.177996
0.139193 0.363378 0.120455
0.148836 0.364172 0.121935
0.158389 0.364904 0.123308
0.167956 0.36556 0.124605
0.179232 0.366247 0.126009
0.192645 0.366934 0.127504
0.208453 0.367529 0.128969
0.226886 0.367956 0.130343
0.248157 0.368124 0.131533
0.272557 0.367926 0.132403
0.300359 0.3673 0.132876
0.331884 0.36614 0.13283
0.367071 0.364416 0.132265
0.40531 0.36228 0.131319
0.445899 0.35993 0.130144
0.487999 0.357549 0.128954
0.530694 0.355367 0.127977
0.573114 0.353613 0.127413
0.6168 0.351873 0.126864
0.661707 0.350088 0.126268
0.706828 0.348577 0.125917
0.751064 0.34757 0.12607
0.793317 0.347356 0.127016
0.832471 0.348241 0.12903
0.868162 0.350271 0.132174
0.900664 0.353384 0.13637
0.930205 0.357473 0.141527
0.957153 0.362432 0.147524
0.982101 0.368063 0.154192
1 0.374228 0.161349
1 0.380758 0.168856
1 0.387549 0.176593
1 0.394446 0.184405
0.141024 0.402533 0.120317
0.150668 0.403479 0.12195
0.16025 0.404349 0.123476
0.169894 0.405158 0.12491
0.181308 0.406012 0.126497
0.19498 0.406882 0.128161
0.211109 0.40766 0.129839
0.229877 0.408301 0.131441
0.25153 0.408698 0.13286
0.276295 0.408743 0.134005
0.304479 0.408347 0.134737
0.336309 0.407416 0.134981
0.371603 0.405997 0.134752
0.409735 0.404196 0.134157
0.450065 0.402182 0.133394
0.491768 0.400153 0.132601
0.533974 0.398337 0.132036
0.576013 0.396887 0.131838
0.619471 0.395331 0.131533
0.664073 0.393759 0.131212
0.708797 0.392386 0.13109
0.752605 0.391516 0.131441
0.794415 0.391394 0.13254
0.833127 0.392309 0.134646
0.868452 0.394308 0.13785
0.900603 0.397314 0.142016
0.92987 0.401236 0.147082
0.956527 0.405951 0.152941
0.981186 0.411307 0.159396
1 0.417136 0.166293
1 0.423285 0.17351
1 0.429618 0.18088
1 0.436027 0.188312
0.145205 0.445335 0.122286
0.154849 0.446387 0.123995
0.164462 0.447349 0.125582
0.174151 0.448249 0.127092
0.185718 0.449195 0.128725
0.199588 0.450141 0.130449
0.215915 0.451011 0.132204
0.234928 0.451743 0.133898
0.256825 0.452232 0.135393
0.281834 0.452369 0.136629
0.310246 0.452079 0.137453
0.342214 0.451255 0.137819
0.377386 0.449989 0.137758
0.415244 0.448386 0.137377
0.455085 0.446601 0.136858
0.496193 0.4448 0.136324
0.537713 0.443198 0.136019
0.579202 0.441871 0.135988
0.622278 0.440391 0.135805
0.666362 0.438865 0.135592
0.710506 0.437552 0.135561
0.753674 0.436667 0.135973
0.794812 0.436515 0.137102
0.832868 0.437339 0.139208
0.867613 0.439185 0.142306
0.899229 0.441962 0.146334
0.928008 0.445594 0.151186
0.954208 0.449973 0.156786
0.978408 0.454902 0.162921
1 0.460243 0.169451
1 0.465995 0.176364
1 0.472129 0.183642
1 0.478523 0.19115
0.152239 0.490745 0.126787
0.161822 0.491829 0.128466
0.171435 0.492805 0.130037
0.181186 0.493706 0.131502
0.192828 0.494636 0.133089
0.20679 0.495567 0.134768
0.223255 0.496422 0.136461
0.24239 0.497139 0.138094
0.264408 0.497597 0.139528
0.289555 0.497704 0.140703
0.31809 0.497383 0.141466
0.349981 0.496559 0.141802
0.384848 0.495338 0.141772
0.422187 0.493812 0.141451
0.461387 0.492103 0.141024
0.501671 0.49041 0.140597
0.542275 0.488914 0.140398
0.583124 0.487602 0.140383
0.62562 0.486046 0.140154
0.669017 0.484459 0.139895
0.712367 0.483055 0.139818
0.754681 0.482063 0.140169
0.794919 0.481773 0.141192
0.83212 0.482383 0.143145
0.866056 0.483955 0.146029
0.896956 0.486381 0.149783
0.925078 0.489632 0.15433
0.950835 0.493736 0.159731
0.974838 0.498543 0.165835
0.997543 0.503944 0.172503
1 0.509789 0.179614
1 0.515969 0.187045
1 0.522347 0.194675
0.162402 0.537545 0.134096
0.171939 0.538552 0.135668
0.181537 0.539467 0.137102
0.191302 0.540291 0.138445
0.20296 0.541146 0.139895
0.216953 0.541985 0.141421
0.233433 0.542733 0.142947
0.252613 0.543328 0.144396
0.274662 0.543664 0.145647
0.29984 0.543633 0.146593
0.328313 0.54316 0.147173
0.35993 0.542245 0.147356
0.394308 0.540948 0.147204
0.430961 0.539391 0.146822
0.469276 0.537682 0.146334
0.508583 0.535973 0.145876
0.548058 0.534478 0.145647
0.58819 0.532998 0.145464
0.629923 0.531273 0.145052
0.672419 0.529503 0.14461
0.714794 0.527901 0.144335
0.756054 0.52668 0.144472
0.795193 0.526131 0.145281
0.831418 0.526574 0.147082
0.864683 0.528069 0.149935
0.895171 0.530556 0.153796
0.923095 0.533974 0.158572
0.948745 0.538201 0.164172
0.972702 0.543099 0.170428
0.995361 0.548501 0.177188
1 0.554314 0.18436
1 0.560403 0.191791
1 0.566644 0.199374
0.174426 0.585077 0.14284
0.183948 0.585931 0.144244
0.193561 0.586709 0.145541
0.203326 0.587396 0.146731
0.214984 0.588083 0.148013
0.228977 0.588739 0.14934
0.245472 0.589288 0.150652
0.264652 0.589654 0.151858
0.286702 0.589731 0.15285
0.311864 0.589441 0.153536
0.340154 0.588724 0.153841
0.371359 0.58761 0.153811
0.405097 0.586145 0.15349
0.440925 0.584436 0.152956
0.478248 0.582589 0.152331
0.516381 0.580758 0.151766
0.55462 0.57911 0.1514
0.594018 0.577325 0.150927
0.634867 0.575326 0.15024
0.676463 0.573388 0.149645
0.717968 0.57174 0.149386
0.75845 0.570657 0.149676
0.796933 0.570367 0.150759
0.832578 0.571069 0.15288
0.865354 0.572763 0.155978
0.895445 0.575387 0.160006
0.923033 0.578851 0.164904
0.948394 0.583093 0.170565
0.972107 0.587915 0.176822
0.994537 0.59321 0.183536
1 0.59884 0.190616
1 0.6047 0.19791
1 0.610666 0.20531
0.18645 0.632944 0.15108
0.195926 0.633631 0.15227
0.205493 0.634211 0.153338
0.215213 0.634714 0.15433
0.226825 0.635187 0.155383
0.240787 0.635599 0.156435
0.257221 0.635859 0.157443
0.276356 0.63592 0.158328
0.298329 0.63566 0.158968
0.323339 0.635035 0.159289
0.351278 0.633997 0.159274
0.381888 0.632578 0.158953
0.414847 0.630854 0.158358
0.449699 0.628916 0.157595
0.485954 0.626932 0.156832
0.522988 0.625101 0.156252
0.560342 0.623499 0.155962
0.599329 0.621775 0.15555
0.639735 0.619959 0.155093
0.680766 0.61825 0.154757
0.721599 0.616831 0.154742
0.761334 0.615946 0.155276
0.798993 0.615839 0.156588
0.833875 0.616678 0.158877
0.86598 0.618433 0.162081
0.895476 0.621042 0.166171
0.922545 0.624445 0.171054
0.947448 0.628534 0.176638
0.970748 0.633158 0.182757
0.992782 0.638193 0.189288
1 0.643519 0.196139
1 0.649012 0.203159
1 0.654566 0.210239
0.198718 0.679927 0.15903
0.208103 0.680369 0.159945
0.217594 0.680735 0.160769
0.227237 0.68101 0.161501
0.238788 0.681224 0.162249
0.252644 0.681331 0.162982
0.268986 0.681285 0.163622
0.288029 0.68101 0.164126
0.309941 0.680446 0.164416
0.334768 0.679576 0.164462
0.362402 0.678401 0.164263
0.392584 0.676966 0.163882
0.424994 0.675319 0.163333
0.45919 0.673579 0.162737
0.494652 0.671839 0.162203
0.53077 0.670268 0.161852
0.567498 0.668818 0.1617
0.606043 0.66717 0.161364
0.645808 0.665461 0.160983
0.686076 0.663844 0.160754
0.72604 0.662531 0.160845
0.764797 0.661738 0.161471
0.801419 0.661677 0.162875
0.835325 0.662516 0.165179
0.866575 0.66421 0.168368
0.895277 0.666682 0.172366
0.92163 0.669886 0.177096
0.945907 0.673732 0.182467
0.968612 0.678019 0.188327
0.990097 0.682673 0.194553
1 0.687556 0.201022
1 0.692561 0.20763
1 0.697566 0.214252
0.212131 0.725414 0.167651
0.221561 0.725719 0.168399
0.231098 0.725978 0.169085
0.240803 0.726162 0.16968
0.252415 0.726299 0.170291
0.266392 0.726329 0.170871
0.282902 0.726207 0.171389
0.302113 0.725856 0.171756
0.324102 0.725231 0.171923
0.348837 0.724361 0.171893
0.376181 0.723201 0.171649
0.405875 0.721813 0.171237
0.437629 0.720272 0.170733
0.471 0.718639 0.170199
0.505486 0.717037 0.169741
0.540459 0.715618 0.169497
0.576638 0.714137 0.169268
0.614527 0.712459 0.168856
0.653483 0.710735 0.168444
0.692775 0.709102 0.16817
0.73164 0.707774 0.168215
0.769223 0.70695 0.168811
0.804608 0.706874 0.170169
0.837354 0.707591 0.172366
0.867536 0.709102 0.175372
0.895277 0.71133 0.179126
0.920729 0.714214 0.183566
0.944183 0.717662 0.188586
0.966155 0.721508 0.194034
0.986908 0.725643 0.199786
1 0.729961 0.205753
1 0.734356 0.211795
1 0.738689 0.217823
0.229557 0.770718 0.179828
0.239048 0.770947 0.180423
0.248646 0.771115 0.180957
0.258412 0.771206 0.181399
0.270115 0.771237 0.181857
0.284169 0.771145 0.182254
0.300771 0.770886 0.182559
0.319982 0.770413 0.182712
0.341848 0.769696 0.182681
0.366278 0.768719 0.182483
0.393118 0.767514 0.182116
0.422171 0.76611 0.181598
0.453071 0.764569 0.181003
0.48542 0.762966 0.180407
0.518715 0.761425 0.179919
0.552575 0.760006 0.179599
0.588098 0.758389 0.179126
0.625132 0.756573 0.178531
0.663066 0.754726 0.17792
0.701213 0.752987 0.177462
0.738781 0.751537 0.177356
0.77496 0.750591 0.177783
0.808911 0.750347 0.178927
0.840314 0.750851 0.18088
0.869261 0.752056 0.183566
0.895857 0.753918 0.186954
0.920226 0.756374 0.190936
0.942718 0.759319 0.195453
0.963745 0.7626 0.200336
0.983627 0.76611 0.205493
1 0.769741 0.210788
1 0.773404 0.216129
1 0.776959 0.221424
0.251484 0.814878 0.196017
0.26099 0.814984 0.196429
0.270604 0.815015 0.19675
0.280415 0.814984 0.197024
0.292134 0.814862 0.197253
0.306218 0.814603 0.197406
0.322774 0.81416 0.197436
0.341817 0.813519 0.19733
0.363348 0.81265 0.197055
0.387289 0.811536 0.196612
0.413489 0.810224 0.196017
0.441672 0.808728 0.1953
0.47155 0.807126 0.194522
0.502708 0.805478 0.193759
0.53463 0.803891 0.193118
0.567514 0.802304 0.192523
0.602197 0.800443 0.191699
0.638193 0.798413 0.190784
0.674937 0.796338 0.189853
0.711711 0.7944 0.189105
0.747799 0.792737 0.188693
0.782376 0.791562 0.1888
0.814694 0.791058 0.189624
0.844602 0.791226 0.19118
0.872129 0.792035 0.193408
0.897398 0.793423 0.196262
0.920546 0.795346 0.19968
0.941894 0.797665 0.20354
0.961868 0.800275 0.207721
0.980743 0.803082 0.212161
0.998825 0.805982 0.216724
1 0.808896 0.221332
1 0.811719 0.225879
0.277485 0.856916 0.215808
0.287007 0.85684 0.215976
0.29662 0.856718 0.216083
0.306432 0.856519 0.216129
0.318135 0.856199 0.216114
0.332128 0.855741 0.215991
0.34847 0.855085 0.215732
0.367193 0.854246 0.21532
0.388251 0.853162 0.214755
0.411551 0.851881 0.214023
0.436912 0.850385 0.213153
0.464103 0.848737 0.212177
0.49279 0.846998 0.211139
0.522591 0.845212 0.210147
0.553094 0.843503 0.209262
0.585138 0.841566 0.208209
0.618799 0.839368 0.206958
0.653605 0.837034 0.2056
0.688975 0.834653 0.204273
0.724224 0.83241 0.203113
0.758648 0.830442 0.202289
0.791455 0.828946 0.201999
0.822003 0.828061 0.202365
0.850263 0.827802 0.203387
0.876249 0.828107 0.205035
0.900084 0.828962 0.207279
0.92192 0.830289 0.210056
0.942092 0.831998 0.21326
0.960998 0.833967 0.21677
0.978897 0.836133 0.220508
0.996094 0.838376 0.224384
1 0.840635 0.228321
1 0.842786 0.232197
0.306523 0.896117 0.238087
0.31603 0.895842 0.23801
0.325597 0.895506 0.237858
0.335332 0.895125 0.237675
0.346899 0.894606 0.237385
0.360662 0.893904 0.236988
0.376684 0.893034 0.236423
0.394934 0.891936 0.235706
0.415366 0.890623 0.234821
0.437873 0.889097 0.233768
0.462287 0.887388 0.232563
0.48835 0.885527 0.231281
0.515724 0.883558 0.229938
0.544015 0.88159 0.228626
0.573327 0.879545 0.227314
0.60441 0.87718 0.225742
0.636927 0.874586 0.223972
0.67039 0.871839 0.22211
0.704219 0.869062 0.220295
0.737804 0.866423 0.218647
0.770428 0.864088 0.217365
0.801358 0.862226 0.216617
0.830121 0.86096 0.216495
0.856703 0.860273 0.217014
0.881193 0.860121 0.218143
0.903639 0.860471 0.219821
0.924193 0.861295 0.222019
0.943267 0.862455 0.224613
0.961166 0.863859 0.227497
0.978134 0.865446 0.230625
0.994492 0.867094 0.233875
1 0.868757 0.237186
1 0.870314 0.240436
0.337438 0.931777 0.261738
0.346838 0.931289 0.261387
0.356298 0.930739 0.261006
0.36585 0.930159 0.260578
0.377172 0.929412 0.260029
0.3906 0.928481 0.259327
0.406165 0.927352 0.258457
0.423819 0.925978 0.257404
0.443488 0.924392 0.256153
0.465095 0.922606 0.254765
0.488411 0.920607 0.253208
0.513191 0.918471 0.25156
0.539117 0.916243 0.249866
0.565896 0.913985 0.248188
0.594293 0.911467 0.246296
0.624308 0.908644 0.244175
0.655573 0.905608 0.241871
0.687617 0.902449 0.239521
0.71989 0.899321 0.237232
0.751781 0.896345 0.235172
0.78262 0.89369 0.233478
0.811673 0.891539 0.232349
0.838712 0.889937 0.23183
0.863722 0.888884 0.231907
0.886748 0.88835 0.232563
0.907851 0.888289 0.233753
0.92723 0.888655 0.235431
0.945251 0.889326 0.237476
0.962188 0.890242 0.239826
0.978302 0.891295 0.242374
0.993851 0.892439 0.24506
1 0.893553 0.247807
1 0.894575 0.250492
0.368978 0.963256 0.285679
0.37818 0.962539 0.285084
0.387411 0.961791 0.284459
0.396719 0.960998 0.283803
0.407706 0.960037 0.282979
0.420691 0.958862 0.282002
0.435691 0.957458 0.280797
0.452644 0.955825 0.279423
0.471504 0.953964 0.277852
