Grain/Grain/Resources/Luts/Vintage/VINTAGE_01.cube
TITLE "Generate by Resolve"
LUT_3D_SIZE 9
0.108003 0.108003 0.108003
0.161608 0.10605 0.106371
0.2365 0.101381 0.102266
0.356497 0.0855268 0.0870832
0.524895 0.0581369 0.0612039
0.695094 0.0328374 0.0373999
0.834424 0.0198062 0.0261387
0.923003 0.026566 0.0344549
0.99585 0.0446479 0.0534829
0.115526 0.161608 0.110521
0.16582 0.159274 0.108827
0.233249 0.154757 0.105516
0.346685 0.140642 0.0934615
0.511574 0.115663 0.0715953
0.683635 0.0924849 0.052903
0.833173 0.0804761 0.0456245
0.932494 0.0884871 0.0578775
1 0.109163 0.0823377
0.1308 0.225849 0.118883
0.173571 0.225284 0.120378
0.238315 0.222629 0.120516
0.35082 0.211948 0.113405
0.514549 0.19237 0.0978408
0.68925 0.175265 0.0849317
0.847227 0.168856 0.0827192
0.956634 0.18265 0.100511
1 0.209354 0.130892
0.138491 0.328206 0.121477
0.178439 0.330419 0.126314
0.246113 0.331395 0.13077
0.363394 0.326268 0.129854
0.527428 0.315267 0.123339
0.704143 0.307042 0.119585
0.866331 0.308019 0.124849
0.980758 0.32607 0.146883
1 0.353582 0.177996
0.152239 0.490745 0.126787
0.192828 0.494636 0.133089
0.264408 0.497597 0.139528
0.384848 0.495338 0.141772
0.542275 0.488914 0.140398
0.712367 0.483055 0.139818
0.866056 0.483955 0.146029
0.974838 0.498543 0.165835
1 0.522347 0.194675
0.198718 0.679927 0.15903
0.238788 0.681224 0.162249
0.309941 0.680446 0.164416
0.424994 0.675319 0.163333
0.567498 0.668818 0.1617
0.72604 0.662531 0.160845
0.866575 0.66421 0.168368
0.968612 0.678019 0.188327
1 0.697566 0.214252
0.277485 0.856916 0.215808
0.318135 0.856199 0.216114
0.388251 0.853162 0.214755
0.49279 0.846998 0.211139
0.618799 0.839368 0.206958
0.758648 0.830442 0.202289
0.876249 0.828107 0.205035
0.960998 0.833967 0.21677
1 0.842786 0.232197
0.399908 0.990387 0.30898
0.437476 0.986435 0.305455
0.49865 0.979507 0.299321
0.584649 0.969512 0.290684
0.692866 0.955993 0.279225
0.807126 0.942138 0.268315
0.898833 0.934752 0.264805
0.966003 0.933639 0.26862
1 0.934569 0.275563
0.50988 1 0.39237
0.541817 1 0.387289
0.59176 1 0.379477
0.665537 1 0.367819
0.757656 1 0.353475
0.8477 1 0.341619
0.919066 0.999924 0.336446
0.974289 0.996277 0.337102
1 0.993988 0.340276
0.109026 0.117632 0.165347
0.162249 0.115465 0.163333
0.234394 0.110719 0.158724
0.351644 0.0954452 0.143343
0.518502 0.0689555 0.116289
0.689036 0.0446937 0.0907607
0.831693 0.0327611 0.0764935
0.923934 0.0399176 0.0815747
0.999268 0.0587015 0.0990463
0.117021 0.16878 0.165194
0.166354 0.166659 0.163409
0.2327 0.162509 0.159777
0.345052 0.149142 0.147143
0.509544 0.125048 0.12398
0.682383 0.102831 0.102861
0.834409 0.0916457 0.0929274
0.93611 0.100587 0.103243
1 0.122423 0.126619
0.132937 0.232242 0.165606
0.17496 0.23212 0.166735
0.239643 0.230106 0.166339
0.352132 0.220386 0.158602
0.515862 0.201968 0.142336
0.691081 0.186007 0.128664
0.850507 0.180591 0.125597
0.961456 0.195331 0.142687
1 0.222553 0.172259
0.141009 0.337011 0.160601
0.180941 0.339574 0.165362
0.248844 0.341039 0.169757
0.366384 0.33666 0.168856
0.530388 0.326543 0.162387
0.707057 0.318914 0.158404
0.869383 0.320119 0.163073
0.983902 0.338018 0.184253
1 0.365103 0.214359
0.156863 0.500679 0.164889
0.19736 0.504585 0.170886
0.268833 0.507561 0.176928
0.388876 0.505302 0.178668
0.545464 0.498878 0.176776
0.714702 0.492821 0.17554
0.867613 0.493278 0.180911
0.976303 0.50782 0.200381
1 0.531548 0.229038
0.202487 0.687312 0.196567
0.24239 0.688441 0.19939
0.313542 0.687678 0.201266
0.42826 0.682673 0.199924
0.570169 0.67628 0.198047
0.728099 0.669963 0.196872
0.867979 0.671473 0.204028
0.969467 0.684901 0.223514
1 0.703868 0.24889
0.281682 0.861921 0.255985
0.32221 0.861097 0.256001
0.39202 0.857908 0.254261
0.495903 0.85156 0.250156
0.621103 0.843687 0.24538
0.759976 0.834394 0.240055
0.8766 0.831601 0.242115
0.960586 0.836942 0.253178
1 0.845228 0.26804
0.402167 0.991745 0.35024
0.439551 0.987701 0.346502
0.500313 0.980652 0.340032
0.585733 0.970504 0.330999
0.693385 0.956786 0.319066
0.806867 0.942748 0.307698
0.897902 0.935134 0.303746
0.964614 0.933776 0.307118
1 0.934478 0.31371
0.510155 1 0.432975
0.541909 1 0.427802
0.591577 1 0.419852
0.66511 1 0.40795
0.756817 1 0.393347
0.846342 1 0.381201
0.917327 0.998962 0.375708
0.972351 0.99527 0.375998
1 0.992935 0.37879
0.110597 0.132738 0.244465
0.16228 0.130541 0.240345
0.231159 0.126223 0.233707
0.345281 0.112261 0.216983
0.510445 0.0876631 0.188983
0.681941 0.0647898 0.162936
0.829587 0.0527962 0.148211
0.926741 0.0605325 0.153872
1 0.0806744 0.172671
0.119921 0.179629 0.238193
0.167498 0.178103 0.235737
0.232731 0.17464 0.231403
0.344137 0.162387 0.218372
0.50808 0.139773 0.195178
0.681865 0.119249 0.174365
0.836866 0.109483 0.164614
0.941802 0.119921 0.175433
1 0.143587 0.199908
0.135561 0.242786 0.233783
0.17673 0.243381 0.23476
0.241566 0.242313 0.234257
0.354345 0.233951 0.226673
0.518105 0.217273 0.210971
0.693935 0.203113 0.197986
0.855207 0.199344 0.19559
0.968093 0.215305 0.213123
1 0.243107 0.242725
0.143984 0.35111 0.226993
0.183948 0.354177 0.231601
0.252354 0.35639 0.23592
0.370443 0.353094 0.235187
0.534188 0.344137 0.229023
0.710536 0.337316 0.225101
0.87274 0.33875 0.22945
0.987167 0.356329 0.249912
1 0.382635 0.279103
0.163058 0.515862 0.234455
0.203449 0.519722 0.239887
0.274739 0.522622 0.245106
0.394202 0.520302 0.24593
0.54931 0.513832 0.243198
0.717128 0.507408 0.24094
0.868742 0.507317 0.245304
0.977478 0.522011 0.264698
1 0.545571 0.293156
0.207355 0.698192 0.266651
0.247272 0.699321 0.269062
0.318456 0.698589 0.270405
0.432639 0.693721 0.268513
0.57348 0.687465 0.266072
0.730358 0.681086 0.264225
0.869078 0.682322 0.270634
0.969589 0.695109 0.289174
1 0.713146 0.313512
0.287633 0.869093 0.33022
0.328023 0.86807 0.329732
0.397299 0.864637 0.327291
0.500053 0.858015 0.322316
0.623926 0.849699 0.316457
0.761196 0.839811 0.309926
0.876188 0.836332 0.310765
0.958968 0.840894 0.320638
1 0.848371 0.334401
0.40531 0.993255 0.423285
0.442344 0.989059 0.419196
0.502495 0.981826 0.412238
0.586954 0.971466 0.402533
0.693675 0.957427 0.389776
0.805905 0.94313 0.377569
0.895842 0.935225 0.372702
0.961807 0.933501 0.375113
1 0.933898 0.380789
0.510536 1 0.500267
0.542 1 0.494957
0.591226 1 0.486778
0.664347 1 0.474495
0.755337 1 0.45948
0.844007 1 0.446906
0.914366 0.997269 0.440833
0.96907 0.993545 0.440421
1 0.99118 0.442451
0.110796 0.151904 0.375723
0.160037 0.150271 0.369619
0.226108 0.146761 0.361334
0.337911 0.134234 0.343969
0.50219 0.110994 0.316197
0.675303 0.0895857 0.290806
0.828504 0.0790723 0.276982
0.931334 0.0886854 0.284123
1 0.111345 0.305211
0.122911 0.192874 0.366003
0.167178 0.192432 0.362753
0.231617 0.190097 0.357427
0.342763 0.179644 0.344015
0.506508 0.159686 0.321492
0.681392 0.141909 0.301701
0.839857 0.134569 0.292973
0.948928 0.147463 0.305165
1 0.173632 0.331365
0.136721 0.257664 0.357885
0.177111 0.259266 0.358465
0.242496 0.25948 0.357549
0.356191 0.252979 0.349966
0.520058 0.238834 0.335012
0.696742 0.22739 0.323171
0.859983 0.22591 0.321752
0.974731 0.243107 0.339498
1 0.271244 0.368673
0.146029 0.37113 0.350042
0.186145 0.374914 0.354269
0.255421 0.378088 0.358129
0.374212 0.375967 0.357015
0.537163 0.368353 0.350668
0.712642 0.362387 0.346273
0.874113 0.363989 0.349691
0.987961 0.380911 0.368688
1 0.405905 0.396002
0.169726 0.536187 0.360891
0.209949 0.539895 0.36527
0.280995 0.542535 0.369039
0.399512 0.53994 0.368154
0.552239 0.533272 0.36376
0.717784 0.526223 0.359503
0.868223 0.526314 0.362921
0.976745 0.541192 0.381582
1 0.56437 0.409003
0.212879 0.71284 0.390402
0.252888 0.713924 0.392203
0.324071 0.713146 0.392615
0.437339 0.708354 0.389715
0.576471 0.702235 0.386191
0.731609 0.69572 0.382956
0.86836 0.696498 0.387747
0.967285 0.708324 0.404257
1 0.724941 0.4262
0.295354 0.878294 0.452064
0.335485 0.876951 0.450889
0.403937 0.873106 0.44744
0.504936 0.866011 0.441184
0.626764 0.857008 0.433616
0.761532 0.846281 0.425116
0.874098 0.841901 0.42385
0.955123 0.845426 0.431418
1 0.85185 0.442847
0.409659 0.994873 0.533547
0.44622 0.990463 0.529046
0.505394 0.982971 0.521477
0.588434 0.97229 0.510933
0.693751 0.957824 0.497047
0.804074 0.943206 0.483635
0.892348 0.934905 0.477363
0.957275 0.932769 0.478172
1 0.932769 0.482124
0.511498 1 0.595514
0.542519 1 0.590066
0.591104 1 0.581674
0.6636 1 0.568978
0.753506 1 0.553491
0.840818 1 0.540368
0.910216 0.995071 0.533532
0.964446 0.991318 0.532113
1 0.988937 0.532982
0.112871 0.170565 0.559442
0.15758 0.170077 0.55465
0.222004 0.167758 0.547311
0.332967 0.157275 0.531273
0.496635 0.137163 0.505608
0.671382 0.11928 0.482414
0.829618 0.111849 0.47013
0.938415 0.124697 0.478676
1 0.150958 0.501274
0.124285 0.209735 0.549645
0.165621 0.210529 0.547478
0.230091 0.209796 0.543114
0.342107 0.201846 0.531075
0.505791 0.185351 0.510475
0.681834 0.171283 0.492531
0.843793 0.167452 0.485191
0.957259 0.183505 0.498192
1 0.211658 0.523781
0.136477 0.278614 0.538491
0.176318 0.281254 0.539757
0.24271 0.282902 0.53959
0.3579 0.278553 0.533059
0.521981 0.267613 0.519844
0.69926 0.259327 0.509377
0.863508 0.259922 0.507973
0.979355 0.277913 0.524208
1 0.305806 0.550607
0.148089 0.39852 0.527031
0.188342 0.402869 0.53135
0.258396 0.406668 0.535088
0.377584 0.405325 0.533669
0.538796 0.398779 0.527047
0.712459 0.393362 0.521553
0.872068 0.394766 0.522957
0.984497 0.410513 0.53875
1 0.434333 0.562676
0.177249 0.5617 0.533806
0.217212 0.56495 0.537346
0.287831 0.566949 0.539788
0.404898 0.563638 0.537179
0.554116 0.55642 0.530907
0.717494 0.549386 0.525093
0.866514 0.55024 0.527443
0.974243 0.565103 0.544106
1 0.587564 0.568643
0.220417 0.732235 0.550622
0.260456 0.733135 0.551904
0.331518 0.732082 0.551537
0.443305 0.727214 0.547738
0.579904 0.721019 0.543053
0.732433 0.714092 0.538094
0.866148 0.714153 0.540551
0.962661 0.72459 0.553811
1 0.739239 0.571694
0.305943 0.89012 0.601465
0.345663 0.888289 0.599527
0.412909 0.883833 0.595026
0.511391 0.87602 0.587366
0.630426 0.865995 0.577844
0.761868 0.854231 0.567163
0.871168 0.848829 0.563439
0.949889 0.851133 0.56817
1 0.856291 0.576501
0.415961 0.997024 0.666285
0.45185 0.992386 0.661326
0.509743 0.984588 0.653147
0.590982 0.97351 0.641703
0.694438 0.958541 0.626596
0.802121 0.943572 0.611963
0.888167 0.934859 0.604212
0.951782 0.93228 0.603326
1 0.931807 0.605417
0.513191 1 0.714961
0.543618 1 0.709377
0.591394 1 0.70071
0.663081 1 0.687541
0.751492 1 0.671611
0.836942 1 0.658015
0.905043 0.992523 0.650462
0.958602 0.988754 0.648142
1 0.986374 0.647959
0.118303 0.196139 0.745769
0.159167 0.197131 0.743511
0.223514 0.196674 0.738827
0.335515 0.189151 0.726223
0.499001 0.173297 0.70486
0.675074 0.159945 0.685832
0.837552 0.156847 0.677028
0.95172 0.173495 0.688121
1 0.202152 0.71136
0.127733 0.237293 0.737209
0.16759 0.23949 0.737133
0.233005 0.240558 0.735103
0.346792 0.235325 0.725963
0.510536 0.222889 0.709194
0.687617 0.21326 0.694972
0.852033 0.213123 0.690166
0.968048 0.231174 0.703532
1 0.259815 0.727535
0.139025 0.311757 0.725414
0.178775 0.315419 0.728008
0.246754 0.318547 0.729549
0.364004 0.316457 0.725277
0.527504 0.308522 0.714717
0.703914 0.302525 0.705776
0.867323 0.304311 0.704356
0.982757 0.322042 0.718715
1 0.348501 0.74165
0.154299 0.436851 0.713741
0.194461 0.441291 0.718013
0.264927 0.445106 0.721523
0.383856 0.443824 0.719722
0.541909 0.437751 0.712871
0.712444 0.432135 0.706264
0.868544 0.432624 0.705516
0.979065 0.447166 0.718639
1 0.471336 0.741192
0.186862 0.594141 0.716396
0.226444 0.596597 0.718959
0.296483 0.597421 0.719936
0.411597 0.592935 0.715648
0.55758 0.586053 0.70898
0.719112 0.579751 0.702922
0.865553 0.580957 0.704417
0.971496 0.595239 0.71902
1 0.616297 0.740444
0.231785 0.75729 0.725109
0.271794 0.757809 0.72575
0.342473 0.756222 0.724422
0.452049 0.750988 0.7196
0.585184 0.744396 0.713619
0.733989 0.736675 0.706752
0.863355 0.735546 0.706737
0.956359 0.743954 0.716518
1 0.756085 0.730266
0.319631 0.904097 0.766033
0.358724 0.90161 0.763302
0.424308 0.8963 0.757687
0.519493 0.887556 0.748638
0.635187 0.876295 0.737255
0.762478 0.863447 0.724575
0.867704 0.856931 0.718639
0.943603 0.857877 0.720668
1 0.861585 0.725978
0.42443 0.999695 0.811475
0.45948 0.994766 0.806226
0.515755 0.986648 0.79765
0.594858 0.975128 0.78558
0.695964 0.959609 0.769589
0.800366 0.94432 0.75407
0.883711 0.935317 0.745235
0.945678 0.932265 0.74284
0.999695 0.931304 0.743099
0.516869 1 0.839216
0.546487 1 0.833692
0.593423 1 0.82501
0.664027 1 0.811765
0.7505 1 0.79585
0.833585 0.999039 0.782238
0.900008 0.99086 0.77435
0.952773 0.987152 0.771313
1 0.984802 0.770108
0.128923 0.237064 0.896269
0.168276 0.239551 0.897948
0.233845 0.241047 0.898024
0.348028 0.236545 0.891295
0.511437 0.225376 0.877089
0.688365 0.217014 0.864973
0.852827 0.217731 0.861265
0.969116 0.236133 0.874632
1 0.264744 0.897642
0.137179 0.281865 0.890562
0.176562 0.285267 0.893675
0.243702 0.288045 0.895735
0.35996 0.285527 0.891829
0.523308 0.277119 0.88127
0.699794 0.270863 0.872099
0.86363 0.272648 0.870222
0.979522 0.290761 0.883986
1 0.317952 0.906188
0.148379 0.36228 0.881209
0.188296 0.366705 0.885985
0.257771 0.370672 0.890196
0.37615 0.369619 0.88896
0.537072 0.363302 0.881819
0.710613 0.35816 0.87509
0.870802 0.359731 0.874311
0.98378 0.375753 0.887175
1 0.400015 0.907515
0.16762 0.487465 0.87245
0.207462 0.491371 0.876966
0.277729 0.494362 0.88069
0.395361 0.49218 0.879164
0.548455 0.485618 0.872938
0.714199 0.478752 0.865888
0.866316 0.478874 0.865232
0.976089 0.493965 0.878889
1 0.517617 0.900481
0.200198 0.634516 0.869017
0.239414 0.636027 0.871214
0.309361 0.635935 0.872053
0.423316 0.631495 0.868711
0.565728 0.625269 0.863523
0.724071 0.619028 0.858091
0.866285 0.619928 0.859449
0.969116 0.632822 0.872419
1 0.651484 0.890745
0.250324 0.789792 0.872404
0.29015 0.789624 0.872679
0.35996 0.787167 0.870863
0.4663 0.781155 0.865705
0.594903 0.773587 0.859113
0.738613 0.764462 0.85098
0.862074 0.761517 0.848997
0.950515 0.767376 0.855711
1 0.776806 0.865873
0.338964 0.921965 0.900069
0.377172 0.918685 0.896803
0.440635 0.912398 0.890547
0.531899 0.902663 0.880888
0.643885 0.890043 0.868452
0.766232 0.876066 0.854749
0.866606 0.868421 0.847517
0.939193 0.867933 0.847593
0.998917 0.870085 0.850462
0.437903 1 0.924697
0.471946 1 0.919387
0.526253 0.991882 0.910796
0.603021 0.979843 0.898589
0.701381 0.963821 0.882414
0.801892 0.948409 0.866941
0.882033 0.939178 0.857816
0.942092 0.935683 0.854627
0.995102 0.934218 0.853697
0.524941 1 0.932555
0.553613 1 0.927275
0.599725 1 0.918761
0.669001 1 0.905776
0.753124 1 0.890364
0.833341 1 0.877333
0.89778 0.992798 0.869718
0.949615 0.989181 0.866575
0.999771 0.986923 0.864988
0.14786 0.299458 0.987243
0.187182 0.303304 0.991745
0.255085 0.306706 0.995697
0.372122 0.305028 0.994125
0.534356 0.29778 0.986191
0.70956 0.292332 0.979141
0.872038 0.294392 0.978592
0.986984 0.312047 0.992599
1 0.338125 1
0.155612 0.348394 0.983276
0.195315 0.352773 0.988632
0.264485 0.35671 0.993591
0.382498 0.355642 0.993271
0.543038 0.349355 0.98703
0.716274 0.344289 0.981079
0.876341 0.345983 0.98085
0.989303 0.362142 0.994003
1 0.386557 1
0.167987 0.431312 0.977005
0.207782 0.435584 0.982467
0.277821 0.43917 0.987488
0.395834 0.43769 0.987411
0.551858 0.431571 0.982177
0.720455 0.425696 0.97641
0.874861 0.42565 0.975525
0.985351 0.440558 0.988525
1 0.464912 1
0.190341 0.549493 0.971557
0.229648 0.552316 0.975448
0.299214 0.553704 0.978256
0.414237 0.549706 0.97586
0.56112 0.542473 0.970001
0.723293 0.536065 0.964462
0.871565 0.537102 0.965713
0.978851 0.551675 0.979721
1 0.57351 1
0.221622 0.685527 0.964202
0.261143 0.686625 0.966354
0.331411 0.685878 0.967132
0.443198 0.681147 0.964233
0.580758 0.674876 0.959823
0.734371 0.667948 0.954498
0.870527 0.667735 0.955444
0.968673 0.678218 0.966537
1 0.693339 0.981598
0.277806 0.829358 0.968475
0.317327 0.828275 0.967987
0.385565 0.824628 0.96524
0.487633 0.817441 0.959243
0.610712 0.808316 0.951415
0.747906 0.797208 0.941604
0.864195 0.792157 0.937697
0.947555 0.795453 0.941924
1 0.802121 0.949218
0.364355 0.943282 0.987167
0.401495 0.939269 0.983322
0.462562 0.932082 0.976394
0.549355 0.921477 0.966171
0.657542 0.907515 0.952667
0.774258 0.892546 0.938201
0.869169 0.883864 0.930068
0.938109 0.881971 0.928695
0.995636 0.882734 0.929961
0.456321 1 0.998734
0.489204 1 0.993347
0.541253 1 0.984787
0.615839 0.987823 0.972427
0.711116 0.971511 0.956252
0.807202 0.956176 0.9411
0.883741 0.946868 0.932021
0.941726 0.943023 0.928481
0.993729 0.941115 0.926955
0.537011 1 0.995315
0.56463 1 0.99025
0.610101 1 0.981811
0.677836 1 0.969116
0.759197 1 0.95433
0.836118 1 0.942092
0.89836 0.998444 0.935027
0.949233 0.995071 0.932143
0.999268 0.992996 0.930648
0.173053 0.382467 1
0.212741 0.386877 1
0.282414 0.390768 1
0.400458 0.389685 1
0.558343 0.383795 1
0.728847 0.378622 1
0.885679 0.379675 1
0.996475 0.394629 1
1 0.419303 1
0.180865 0.432059 1
0.220554 0.43624 1
0.290501 0.439673 1
0.408179 0.438071 1
0.563043 0.431968 1
0.730526 0.426001 1
0.883925 0.425971 1
0.994141 0.441108 1
1 0.465492 1
0.194369 0.510658 1
0.233814 0.513924 1
0.303532 0.515984 1
0.419409 0.51281 1
0.568139 0.505562 1
0.731197 0.498848 1
0.881117 0.499733 1
0.989532 0.514733 1
1 0.53756 1
0.216968 0.616449 1
0.25597 0.61799 1
0.325521 0.617945 1
0.438941 0.613596 1
0.580911 0.607416 1
0.738827 0.601205 1
0.881056 0.601999 1
0.983871 0.614755 1
1 0.633326 1
0.250507 0.743877 1
0.29012 0.744183 1
0.360021 0.742336 1
0.468208 0.736751 1
0.599725 0.729656 1
0.746899 0.721202 1
0.875074 0.71899 1
0.966903 0.72607 1
1 0.737041 1
0.311101 0.870863 1
0.349996 0.868635 1
0.4159 0.863539 1
0.512566 0.854795 1
0.629557 0.843641 1
0.75938 0.830579 1
0.867948 0.823682 0.999573
0.945953 0.824613 1
1 0.828656 1
0.393072 0.964797 1
0.428977 0.960159 1
0.487388 0.952224 1
0.569604 0.940887 1
0.673823 0.925719 1
0.784298 0.910033 0.99971
0.873396 0.900587 0.9906
0.93875 0.897658 0.987991
0.994202 0.897261 0.987854
0.47747 1 1
0.509041 1 1
0.558618 1 1
0.631296 0.997009 1
0.72314 0.980652 1
0.814328 0.965667 0.998779
0.887022 0.956512 0.989731
0.942931 0.952514 0.98587
0.994034 0.950332 0.983871
0.55198 1 1
0.578851 1 1
0.62356 1 1
0.689433 1 1
0.767544 1 1
0.840818 1 0.996506
0.900649 1 0.989883
0.950515 1 0.987243
1 1 0.985702
